( pcb2gcode 1.1.4 )

G94     ( Inches per minute feed rate. )
G20     ( Units == INCHES.             )
G90     ( Absolute coordinates.        )
S20000  ( RPM spindle speed.           )
M3      ( Spindle on clockwise.        )

G64 P0.00500 ( set maximum deviation from commanded toolpath )

G04 P0 ( dwell for no time -- G64 should not smooth over this point )
G00 Z0.08000 ( retract )

G00 X0.16100 Y1.86400 ( rapid move to begin. )
G01 Z-0.08000 F3.00000 ( plunge. )
G04 P0 ( dwell for no time -- G64 should not smooth over this point )
X0.16100 Y1.86400
X0.16100 Y0.21200
X1.17500 Y0.21200
X1.17500 Y1.87600
X0.16100 Y1.87600
X0.16100 Y1.86400

G04 P0 ( dwell for no time -- G64 should not smooth over this point )
G00 Z0.80000 ( retract )

M9 ( Coolant off. )
M2 ( Program end. )

