( pcb2gcode 1.1.4 )

( This file uses a mill head of 0.0236 to drill the 2bit sizes. )

G94     ( Inches per minute feed rate. )
G20     ( Units == INCHES.             )
G90     ( Absolute coordinates.        )
S20000  ( RPM spindle speed.           )

F3.00000
#50=-0.08000 ; zwork
#51=0.08000 ; zsafe
#52=0.10000 ; stepsize
G0 X0.87420 Y0.36800
G1 Z[#50+0*#52]
G2 I-0.00620 J0
G0 Z0.08000

G0 X0.87420 Y0.46800
G1 Z[#50+0*#52]
G2 I-0.00620 J0
G0 Z0.08000

G0 X0.77420 Y0.46800
G1 Z[#50+0*#52]
G2 I-0.00620 J0
G0 Z0.08000

G0 X0.77420 Y0.36800
G1 Z[#50+0*#52]
G2 I-0.00620 J0
G0 Z0.08000

G0 X0.67420 Y0.36800
G1 Z[#50+0*#52]
G2 I-0.00620 J0
G0 Z0.08000

G0 X0.67420 Y0.46800
G1 Z[#50+0*#52]
G2 I-0.00620 J0
G0 Z0.08000

G0 X0.57420 Y0.46800
G1 Z[#50+0*#52]
G2 I-0.00620 J0
G0 Z0.08000

G0 X0.57420 Y0.36800
G1 Z[#50+0*#52]
G2 I-0.00620 J0
G0 Z0.08000

G0 X0.47420 Y0.36800
G1 Z[#50+0*#52]
G2 I-0.00620 J0
G0 Z0.08000

G0 X0.47420 Y0.46800
G1 Z[#50+0*#52]
G2 I-0.00620 J0
G0 Z0.08000

G0 X0.47420 Y1.51800
G1 Z[#50+0*#52]
G2 I-0.00620 J0
G0 Z0.08000

G0 X0.47420 Y1.61800
G1 Z[#50+0*#52]
G2 I-0.00620 J0
G0 Z0.08000

G0 X0.57420 Y1.61800
G1 Z[#50+0*#52]
G2 I-0.00620 J0
G0 Z0.08000

G0 X0.57420 Y1.51800
G1 Z[#50+0*#52]
G2 I-0.00620 J0
G0 Z0.08000

G0 X0.67420 Y1.51800
G1 Z[#50+0*#52]
G2 I-0.00620 J0
G0 Z0.08000

G0 X0.67420 Y1.61800
G1 Z[#50+0*#52]
G2 I-0.00620 J0
G0 Z0.08000

G0 X0.77420 Y1.61800
G1 Z[#50+0*#52]
G2 I-0.00620 J0
G0 Z0.08000

G0 X0.77420 Y1.51800
G1 Z[#50+0*#52]
G2 I-0.00620 J0
G0 Z0.08000

G0 X0.87420 Y1.51800
G1 Z[#50+0*#52]
G2 I-0.00620 J0
G0 Z0.08000

G0 X0.87420 Y1.61800
G1 Z[#50+0*#52]
G2 I-0.00620 J0
G0 Z0.08000

G0 X0.71525 Y0.96800
G1 Z[#50+0*#52]
G2 I-0.04725 J0
G0 Z0.08000

G00 Z0.80000 ( All done -- retract )

M9 ( Coolant off. )
M2 ( Program end. )

