( pcb2gcode 1.1.4 )

( This file uses a mill head of 0.0236 to drill the 3bit sizes. )

G94     ( Inches per minute feed rate. )
G20     ( Units == INCHES.             )
G90     ( Absolute coordinates.        )
S20000  ( RPM spindle speed.           )

F3.00000
#50=-0.08000 ; zwork
#51=0.08000 ; zsafe
#52=0.10000 ; stepsize
G0 X0.72420 Y0.25330
G1 Z[#50+0*#52]
G2 I-0.00620 J0
G0 Z0.08000

G0 X0.72420 Y0.35330
G1 Z[#50+0*#52]
G2 I-0.00620 J0
G0 Z0.08000

G0 X0.62420 Y0.35330
G1 Z[#50+0*#52]
G2 I-0.00620 J0
G0 Z0.08000

G0 X0.62420 Y0.25330
G1 Z[#50+0*#52]
G2 I-0.00620 J0
G0 Z0.08000

G0 X0.52420 Y0.25330
G1 Z[#50+0*#52]
G2 I-0.00620 J0
G0 Z0.08000

G0 X0.52420 Y0.35330
G1 Z[#50+0*#52]
G2 I-0.00620 J0
G0 Z0.08000

G0 X0.42420 Y0.35330
G1 Z[#50+0*#52]
G2 I-0.00620 J0
G0 Z0.08000

G0 X0.42420 Y0.25330
G1 Z[#50+0*#52]
G2 I-0.00620 J0
G0 Z0.08000

G0 X0.32420 Y0.25330
G1 Z[#50+0*#52]
G2 I-0.00620 J0
G0 Z0.08000

G0 X0.32420 Y0.35330
G1 Z[#50+0*#52]
G2 I-0.00620 J0
G0 Z0.08000

G0 X0.32420 Y1.40330
G1 Z[#50+0*#52]
G2 I-0.00620 J0
G0 Z0.08000

G0 X0.32420 Y1.50330
G1 Z[#50+0*#52]
G2 I-0.00620 J0
G0 Z0.08000

G0 X0.42420 Y1.50330
G1 Z[#50+0*#52]
G2 I-0.00620 J0
G0 Z0.08000

G0 X0.42420 Y1.40330
G1 Z[#50+0*#52]
G2 I-0.00620 J0
G0 Z0.08000

G0 X0.52420 Y1.40330
G1 Z[#50+0*#52]
G2 I-0.00620 J0
G0 Z0.08000

G0 X0.52420 Y1.50330
G1 Z[#50+0*#52]
G2 I-0.00620 J0
G0 Z0.08000

G0 X0.62420 Y1.50330
G1 Z[#50+0*#52]
G2 I-0.00620 J0
G0 Z0.08000

G0 X0.62420 Y1.40330
G1 Z[#50+0*#52]
G2 I-0.00620 J0
G0 Z0.08000

G0 X0.72420 Y1.40330
G1 Z[#50+0*#52]
G2 I-0.00620 J0
G0 Z0.08000

G0 X0.72420 Y1.50330
G1 Z[#50+0*#52]
G2 I-0.00620 J0
G0 Z0.08000

G0 X0.12620 Y1.40330
G1 Z[#50+0*#52]
G2 I-0.00820 J0
G0 Z0.08000

G0 X0.12620 Y1.30330
G1 Z[#50+0*#52]
G2 I-0.00820 J0
G0 Z0.08000

G0 X0.12620 Y1.20330
G1 Z[#50+0*#52]
G2 I-0.00820 J0
G0 Z0.08000

G0 X0.56525 Y0.85330
G1 Z[#50+0*#52]
G2 I-0.04725 J0
G0 Z0.08000

G00 Z0.80000 ( All done -- retract )

M9 ( Coolant off. )
M2 ( Program end. )

