( pcb2gcode 1.1.4 )

G94     ( Inches per minute feed rate. )
G20     ( Units == INCHES.             )
G90     ( Absolute coordinates.        )
S30000  ( RPM spindle speed.           )
M3      ( Spindle on clockwise.        )

G64 P0.00333 ( set maximum deviation from commanded toolpath )

G04 P0 ( dwell for no time -- G64 should not smooth over this point )
G00 Z0.08000 ( retract )

G00 X-0.00067 Y1.65000 ( rapid move to begin. )
G01 Z-0.00800 F6.00000 ( plunge. )
G04 P0 ( dwell for no time -- G64 should not smooth over this point )
X-0.00067 Y1.65000
X-0.00133 Y1.65000
X-0.00133 Y-0.00000
X-0.00067 Y-0.00000
X-0.00067 Y-0.00067
X0.99933 Y-0.00067
X0.99933 Y-0.00000
X1.00000 Y-0.00000
X1.00000 Y1.65000
X0.99933 Y1.65000
X0.99933 Y1.65067
X-0.00067 Y1.65067
X-0.00067 Y1.65000
G04 P0 ( dwell for no time -- G64 should not smooth over this point )
G00 Z0.08000 ( retract )

G00 X0.77067 Y1.60867 ( rapid move to begin. )
G01 Z-0.00800 F6.00000 ( plunge. )
G04 P0 ( dwell for no time -- G64 should not smooth over this point )
X0.77067 Y1.60867
X0.77067 Y1.59400
X0.77133 Y1.59400
X0.77133 Y1.59200
X0.77200 Y1.59200
X0.77200 Y1.59067
X0.77267 Y1.59067
X0.77267 Y1.58933
X0.77333 Y1.58933
X0.77333 Y1.58867
X0.77600 Y1.58867
X0.77600 Y1.58800
X0.78000 Y1.58800
X0.78000 Y1.58733
X0.78133 Y1.58733
X0.78133 Y1.58667
X0.78200 Y1.58667
X0.78200 Y1.58600
X0.78333 Y1.58600
X0.78333 Y1.58533
X0.78467 Y1.58533
X0.78467 Y1.58467
X0.78533 Y1.58467
X0.78533 Y1.58400
X0.78600 Y1.58400
X0.78600 Y1.58333
X0.78667 Y1.58333
X0.78667 Y1.58267
X0.78733 Y1.58267
X0.78733 Y1.58200
X0.78800 Y1.58200
X0.78800 Y1.58133
X0.78867 Y1.58133
X0.78867 Y1.58067
X0.78933 Y1.58067
X0.78933 Y1.58000
X0.79000 Y1.58000
X0.79000 Y1.57933
X0.79067 Y1.57933
X0.79067 Y1.57867
X0.79133 Y1.57867
X0.79133 Y1.57800
X0.79200 Y1.57800
X0.79200 Y1.57733
X0.79267 Y1.57733
X0.79267 Y1.57667
X0.79333 Y1.57667
X0.79333 Y1.57600
X0.79400 Y1.57600
X0.79400 Y1.57533
X0.79467 Y1.57533
X0.79467 Y1.57467
X0.79533 Y1.57467
X0.79533 Y1.57400
X0.79600 Y1.57400
X0.79600 Y1.57333
X0.79667 Y1.57333
X0.79667 Y1.57267
X0.79733 Y1.57267
X0.79733 Y1.57200
X0.79800 Y1.57200
X0.79800 Y1.57133
X0.79867 Y1.57133
X0.79867 Y1.57067
X0.79933 Y1.57067
X0.79933 Y1.57000
X0.80000 Y1.57000
X0.80000 Y1.56933
X0.80067 Y1.56933
X0.80067 Y1.56867
X0.80133 Y1.56867
X0.80133 Y1.56800
X0.80200 Y1.56800
X0.80200 Y1.56733
X0.80267 Y1.56733
X0.80267 Y1.56667
X0.80333 Y1.56667
X0.80333 Y1.56600
X0.80400 Y1.56600
X0.80400 Y1.56533
X0.80467 Y1.56533
X0.80467 Y1.56467
X0.80533 Y1.56467
X0.80533 Y1.56400
X0.80600 Y1.56400
X0.80600 Y1.56333
X0.80667 Y1.56333
X0.80667 Y1.56267
X0.80733 Y1.56267
X0.80733 Y1.56200
X0.80800 Y1.56200
X0.80800 Y1.56133
X0.80867 Y1.56133
X0.80867 Y1.56067
X0.80933 Y1.56067
X0.80933 Y1.56000
X0.81000 Y1.56000
X0.81000 Y1.55933
X0.81067 Y1.55933
X0.81067 Y1.55867
X0.81133 Y1.55867
X0.81133 Y1.55800
X0.81200 Y1.55800
X0.81200 Y1.55733
X0.81267 Y1.55733
X0.81267 Y1.55667
X0.81333 Y1.55667
X0.81333 Y1.55600
X0.81400 Y1.55600
X0.81400 Y1.55533
X0.81467 Y1.55533
X0.81467 Y1.55467
X0.81533 Y1.55467
X0.81533 Y1.55400
X0.81600 Y1.55400
X0.81600 Y1.55333
X0.81667 Y1.55333
X0.81667 Y1.55267
X0.81733 Y1.55267
X0.81733 Y1.55200
X0.81800 Y1.55200
X0.81800 Y1.55133
X0.81867 Y1.55133
X0.81867 Y1.55067
X0.81933 Y1.55067
X0.81933 Y1.55000
X0.82000 Y1.55000
X0.82000 Y1.54933
X0.82067 Y1.54933
X0.82067 Y1.54867
X0.82133 Y1.54867
X0.82133 Y1.54800
X0.82200 Y1.54800
X0.82200 Y1.54733
X0.82267 Y1.54733
X0.82267 Y1.54667
X0.82333 Y1.54667
X0.82333 Y1.54600
X0.82400 Y1.54600
X0.82400 Y1.54533
X0.82467 Y1.54533
X0.82467 Y1.54467
X0.82533 Y1.54467
X0.82533 Y1.54400
X0.82600 Y1.54400
X0.82600 Y1.54333
X0.82667 Y1.54333
X0.82667 Y1.54267
X0.82733 Y1.54267
X0.82733 Y1.54200
X0.82800 Y1.54200
X0.82800 Y1.54133
X0.82867 Y1.54133
X0.82867 Y1.54067
X0.82933 Y1.54067
X0.82933 Y1.54000
X0.83000 Y1.54000
X0.83000 Y1.53933
X0.83067 Y1.53933
X0.83067 Y1.53867
X0.83133 Y1.53867
X0.83133 Y1.53800
X0.83200 Y1.53800
X0.83200 Y1.53733
X0.83267 Y1.53733
X0.83267 Y1.53667
X0.83333 Y1.53667
X0.83333 Y1.53600
X0.83400 Y1.53600
X0.83400 Y1.53533
X0.83467 Y1.53533
X0.83467 Y1.53467
X0.83533 Y1.53467
X0.83533 Y1.53400
X0.83600 Y1.53400
X0.83600 Y1.53333
X0.83667 Y1.53333
X0.83667 Y1.53267
X0.83733 Y1.53267
X0.83733 Y1.53200
X0.83800 Y1.53200
X0.83800 Y1.53133
X0.83867 Y1.53133
X0.83867 Y1.53067
X0.83933 Y1.53067
X0.83933 Y1.53000
X0.84000 Y1.53000
X0.84000 Y1.52933
X0.84067 Y1.52933
X0.84067 Y1.52867
X0.84133 Y1.52867
X0.84133 Y1.52800
X0.84200 Y1.52800
X0.84200 Y1.52733
X0.84267 Y1.52733
X0.84267 Y1.52667
X0.84333 Y1.52667
X0.84333 Y1.52600
X0.84400 Y1.52600
X0.84400 Y1.52533
X0.84467 Y1.52533
X0.84467 Y1.52467
X0.84533 Y1.52467
X0.84533 Y1.52400
X0.84600 Y1.52400
X0.84600 Y1.52333
X0.84667 Y1.52333
X0.84667 Y1.52267
X0.84733 Y1.52267
X0.84733 Y1.52200
X0.84800 Y1.52200
X0.84800 Y1.52133
X0.84867 Y1.52133
X0.84867 Y1.52067
X0.84933 Y1.52067
X0.84933 Y1.52000
X0.85000 Y1.52000
X0.85000 Y1.51933
X0.85067 Y1.51933
X0.85067 Y1.51867
X0.85133 Y1.51867
X0.85133 Y1.51800
X0.85200 Y1.51800
X0.85200 Y1.51733
X0.85267 Y1.51733
X0.85267 Y1.51667
X0.85333 Y1.51667
X0.85333 Y1.51600
X0.85400 Y1.51600
X0.85400 Y1.51533
X0.85467 Y1.51533
X0.85467 Y1.51467
X0.85533 Y1.51467
X0.85533 Y1.51400
X0.85600 Y1.51400
X0.85600 Y1.51333
X0.85667 Y1.51333
X0.85667 Y1.51267
X0.85733 Y1.51267
X0.85733 Y1.51200
X0.85800 Y1.51200
X0.85800 Y1.51133
X0.85867 Y1.51133
X0.85867 Y1.51067
X0.85933 Y1.51067
X0.85933 Y1.51000
X0.86000 Y1.51000
X0.86000 Y1.50933
X0.86067 Y1.50933
X0.86067 Y1.50867
X0.86133 Y1.50867
X0.86133 Y1.50800
X0.86200 Y1.50800
X0.86200 Y1.50733
X0.86267 Y1.50733
X0.86267 Y1.50667
X0.86333 Y1.50667
X0.86333 Y1.50600
X0.86400 Y1.50600
X0.86400 Y1.50533
X0.86467 Y1.50533
X0.86467 Y1.50467
X0.86533 Y1.50467
X0.86533 Y1.50400
X0.86600 Y1.50400
X0.86600 Y1.50333
X0.86667 Y1.50333
X0.86667 Y1.50267
X0.86733 Y1.50267
X0.86733 Y1.50200
X0.86800 Y1.50200
X0.86800 Y1.50133
X0.86867 Y1.50133
X0.86867 Y1.50067
X0.86933 Y1.50067
X0.86933 Y1.50000
X0.87000 Y1.50000
X0.87000 Y1.49933
X0.87067 Y1.49933
X0.87067 Y1.49867
X0.87133 Y1.49867
X0.87133 Y1.49800
X0.87200 Y1.49800
X0.87200 Y1.49733
X0.87267 Y1.49733
X0.87267 Y1.49667
X0.87333 Y1.49667
X0.87333 Y1.49600
X0.87400 Y1.49600
X0.87400 Y1.49533
X0.87467 Y1.49533
X0.87467 Y1.49467
X0.87533 Y1.49467
X0.87533 Y1.49400
X0.87600 Y1.49400
X0.87600 Y1.49333
X0.87667 Y1.49333
X0.87667 Y1.49267
X0.87733 Y1.49267
X0.87733 Y1.49200
X0.87800 Y1.49200
X0.87800 Y1.49133
X0.87867 Y1.49133
X0.87867 Y1.49067
X0.87933 Y1.49067
X0.87933 Y1.49000
X0.88000 Y1.49000
X0.88000 Y1.48933
X0.88067 Y1.48933
X0.88067 Y1.48867
X0.88133 Y1.48867
X0.88133 Y1.48800
X0.88200 Y1.48800
X0.88200 Y1.48733
X0.88267 Y1.48733
X0.88267 Y1.48667
X0.88333 Y1.48667
X0.88333 Y1.48600
X0.88400 Y1.48600
X0.88400 Y1.48533
X0.88467 Y1.48533
X0.88467 Y1.48467
X0.88533 Y1.48467
X0.88533 Y1.48400
X0.88600 Y1.48400
X0.88600 Y1.48333
X0.88667 Y1.48333
X0.88667 Y1.48267
X0.88733 Y1.48267
X0.88733 Y1.48200
X0.88800 Y1.48200
X0.88800 Y1.48133
X0.88867 Y1.48133
X0.88867 Y1.48067
X0.88933 Y1.48067
X0.88933 Y1.48000
X0.89000 Y1.48000
X0.89000 Y1.47933
X0.89067 Y1.47933
X0.89067 Y1.47867
X0.89133 Y1.47867
X0.89133 Y1.47800
X0.89200 Y1.47800
X0.89200 Y1.47733
X0.89267 Y1.47733
X0.89267 Y1.47667
X0.89333 Y1.47667
X0.89333 Y1.47600
X0.89400 Y1.47600
X0.89400 Y1.47533
X0.89467 Y1.47533
X0.89467 Y1.47467
X0.89533 Y1.47467
X0.89533 Y1.47400
X0.89600 Y1.47400
X0.89600 Y1.47333
X0.89667 Y1.47333
X0.89667 Y1.47267
X0.89733 Y1.47267
X0.89733 Y1.47200
X0.89800 Y1.47200
X0.89800 Y1.47133
X0.89867 Y1.47133
X0.89867 Y1.47067
X0.89933 Y1.47067
X0.89933 Y1.47000
X0.90000 Y1.47000
X0.90000 Y1.46933
X0.90067 Y1.46933
X0.90067 Y1.46867
X0.90133 Y1.46867
X0.90133 Y1.46800
X0.90200 Y1.46800
X0.90200 Y1.46733
X0.90267 Y1.46733
X0.90267 Y1.46667
X0.90333 Y1.46667
X0.90333 Y1.46600
X0.90400 Y1.46600
X0.90400 Y1.46533
X0.90467 Y1.46533
X0.90467 Y1.46467
X0.90533 Y1.46467
X0.90533 Y1.46400
X0.90600 Y1.46400
X0.90600 Y1.46333
X0.90667 Y1.46333
X0.90667 Y1.46267
X0.90733 Y1.46267
X0.90733 Y1.46200
X0.90800 Y1.46200
X0.90800 Y1.46133
X0.90867 Y1.46133
X0.90867 Y1.46067
X0.90933 Y1.46067
X0.90933 Y1.46000
X0.91000 Y1.46000
X0.91000 Y1.45867
X0.91067 Y1.45867
X0.91067 Y1.45800
X0.91133 Y1.45800
X0.91133 Y1.45733
X0.91200 Y1.45733
X0.91200 Y1.45533
X0.91267 Y1.45533
X0.91267 Y1.45133
X0.91333 Y1.45133
X0.91333 Y1.29933
X0.91267 Y1.29933
X0.91267 Y1.29533
X0.91200 Y1.29533
X0.91200 Y1.29333
X0.91133 Y1.29333
X0.91133 Y1.29267
X0.91067 Y1.29267
X0.91067 Y1.29200
X0.91000 Y1.29200
X0.91000 Y1.29067
X0.90933 Y1.29067
X0.90933 Y1.29000
X0.90867 Y1.29000
X0.90867 Y1.28933
X0.90800 Y1.28933
X0.90800 Y1.28867
X0.90733 Y1.28867
X0.90733 Y1.28800
X0.90667 Y1.28800
X0.90667 Y1.28733
X0.90600 Y1.28733
X0.90600 Y1.28667
X0.90533 Y1.28667
X0.90533 Y1.28533
X0.90467 Y1.28533
X0.90467 Y1.28467
X0.90400 Y1.28467
X0.90400 Y1.28400
X0.90333 Y1.28400
X0.90333 Y1.28333
X0.90267 Y1.28333
X0.90267 Y1.28267
X0.90200 Y1.28267
X0.90200 Y1.28200
X0.90133 Y1.28200
X0.90133 Y1.28133
X0.90067 Y1.28133
X0.90067 Y1.28067
X0.90000 Y1.28067
X0.90000 Y1.28000
X0.89933 Y1.28000
X0.89933 Y1.27933
X0.89867 Y1.27933
X0.89867 Y1.27867
X0.89800 Y1.27867
X0.89800 Y1.27800
X0.89733 Y1.27800
X0.89733 Y1.27733
X0.89667 Y1.27733
X0.89667 Y1.27667
X0.89600 Y1.27667
X0.89600 Y1.27600
X0.89533 Y1.27600
X0.89533 Y1.27533
X0.89467 Y1.27533
X0.89467 Y1.27467
X0.89400 Y1.27467
X0.89400 Y1.27400
X0.89333 Y1.27400
X0.89333 Y1.27333
X0.89267 Y1.27333
X0.89267 Y1.27267
X0.89200 Y1.27267
X0.89200 Y1.27200
X0.89133 Y1.27200
X0.89133 Y1.27133
X0.89067 Y1.27133
X0.89067 Y1.27067
X0.89000 Y1.27067
X0.89000 Y1.27000
X0.88933 Y1.27000
X0.88933 Y1.26933
X0.88867 Y1.26933
X0.88867 Y1.26867
X0.88800 Y1.26867
X0.88800 Y1.26800
X0.88733 Y1.26800
X0.88733 Y1.26733
X0.88667 Y1.26733
X0.88667 Y1.26667
X0.88600 Y1.26667
X0.88600 Y1.26600
X0.88533 Y1.26600
X0.88533 Y1.26533
X0.88467 Y1.26533
X0.88467 Y1.26467
X0.88400 Y1.26467
X0.88400 Y1.26400
X0.88333 Y1.26400
X0.88333 Y1.26333
X0.88267 Y1.26333
X0.88267 Y1.26267
X0.88200 Y1.26267
X0.88200 Y1.26200
X0.88133 Y1.26200
X0.88133 Y1.26133
X0.88067 Y1.26133
X0.88067 Y1.26067
X0.88000 Y1.26067
X0.88000 Y1.26000
X0.87933 Y1.26000
X0.87933 Y1.25933
X0.87867 Y1.25933
X0.87867 Y1.25867
X0.87800 Y1.25867
X0.87800 Y1.25800
X0.87733 Y1.25800
X0.87733 Y1.25733
X0.87667 Y1.25733
X0.87667 Y1.25667
X0.87600 Y1.25667
X0.87600 Y1.25600
X0.87533 Y1.25600
X0.87533 Y1.25533
X0.87467 Y1.25533
X0.87467 Y1.25467
X0.87400 Y1.25467
X0.87400 Y1.25400
X0.87333 Y1.25400
X0.87333 Y1.25333
X0.87267 Y1.25333
X0.87267 Y1.25267
X0.87200 Y1.25267
X0.87200 Y1.25200
X0.87133 Y1.25200
X0.87133 Y1.25133
X0.87067 Y1.25133
X0.87067 Y1.25067
X0.87000 Y1.25067
X0.87000 Y1.25000
X0.86933 Y1.25000
X0.86933 Y1.24933
X0.86867 Y1.24933
X0.86867 Y1.24867
X0.86800 Y1.24867
X0.86800 Y1.24800
X0.86733 Y1.24800
X0.86733 Y1.24733
X0.86667 Y1.24733
X0.86667 Y1.24667
X0.86600 Y1.24667
X0.86600 Y1.24600
X0.86533 Y1.24600
X0.86533 Y1.24533
X0.86467 Y1.24533
X0.86467 Y1.24467
X0.86400 Y1.24467
X0.86400 Y1.24400
X0.86333 Y1.24400
X0.86333 Y1.24333
X0.86267 Y1.24333
X0.86267 Y1.24267
X0.86200 Y1.24267
X0.86200 Y1.24200
X0.86133 Y1.24200
X0.86133 Y1.24133
X0.86067 Y1.24133
X0.86067 Y1.24067
X0.86000 Y1.24067
X0.86000 Y1.24000
X0.85933 Y1.24000
X0.85933 Y1.23933
X0.85867 Y1.23933
X0.85867 Y1.23867
X0.85800 Y1.23867
X0.85800 Y1.23800
X0.85733 Y1.23800
X0.85733 Y1.23733
X0.85667 Y1.23733
X0.85667 Y1.23667
X0.85600 Y1.23667
X0.85600 Y1.23600
X0.85533 Y1.23600
X0.85533 Y1.23533
X0.85467 Y1.23533
X0.85467 Y1.23467
X0.85400 Y1.23467
X0.85400 Y1.23400
X0.85333 Y1.23400
X0.85333 Y1.23333
X0.85267 Y1.23333
X0.85267 Y1.23267
X0.85200 Y1.23267
X0.85200 Y1.23200
X0.85133 Y1.23200
X0.85133 Y1.23133
X0.85067 Y1.23133
X0.85067 Y1.23067
X0.85000 Y1.23067
X0.85000 Y1.23000
X0.84933 Y1.23000
X0.84933 Y1.22933
X0.84867 Y1.22933
X0.84867 Y1.22867
X0.84800 Y1.22867
X0.84800 Y1.22800
X0.84733 Y1.22800
X0.84733 Y1.22733
X0.84667 Y1.22733
X0.84667 Y1.22667
X0.84600 Y1.22667
X0.84600 Y1.22600
X0.84533 Y1.22600
X0.84533 Y1.22533
X0.84467 Y1.22533
X0.84467 Y1.22467
X0.84400 Y1.22467
X0.84400 Y1.22400
X0.84333 Y1.22400
X0.84333 Y1.22333
X0.84267 Y1.22333
X0.84267 Y1.22267
X0.84200 Y1.22267
X0.84200 Y1.22200
X0.84133 Y1.22200
X0.84133 Y1.22133
X0.84067 Y1.22133
X0.84067 Y1.22067
X0.84000 Y1.22067
X0.84000 Y1.22000
X0.83933 Y1.22000
X0.83933 Y1.21933
X0.83867 Y1.21933
X0.83867 Y1.21867
X0.83800 Y1.21867
X0.83800 Y1.21800
X0.83733 Y1.21800
X0.83733 Y1.21733
X0.83667 Y1.21733
X0.83667 Y1.21667
X0.83600 Y1.21667
X0.83600 Y1.21600
X0.83533 Y1.21600
X0.83533 Y1.21533
X0.83467 Y1.21533
X0.83467 Y1.21467
X0.83400 Y1.21467
X0.83400 Y1.21400
X0.83333 Y1.21400
X0.83333 Y1.21333
X0.83267 Y1.21333
X0.83267 Y1.21267
X0.83200 Y1.21267
X0.83200 Y1.21200
X0.83133 Y1.21200
X0.83133 Y1.21133
X0.83067 Y1.21133
X0.83067 Y1.21067
X0.83000 Y1.21067
X0.83000 Y1.21000
X0.82933 Y1.21000
X0.82933 Y1.20933
X0.82867 Y1.20933
X0.82867 Y1.20867
X0.82800 Y1.20867
X0.82800 Y1.20800
X0.82733 Y1.20800
X0.82733 Y1.20733
X0.82667 Y1.20733
X0.82667 Y1.20667
X0.82600 Y1.20667
X0.82600 Y1.20600
X0.82533 Y1.20600
X0.82533 Y1.20533
X0.82467 Y1.20533
X0.82467 Y1.20467
X0.82400 Y1.20467
X0.82400 Y1.20400
X0.82333 Y1.20400
X0.82333 Y1.20333
X0.82267 Y1.20333
X0.82267 Y1.20267
X0.82200 Y1.20267
X0.82200 Y1.20200
X0.82133 Y1.20200
X0.82133 Y1.20133
X0.82067 Y1.20133
X0.82067 Y1.20067
X0.82000 Y1.20067
X0.82000 Y1.20000
X0.81933 Y1.20000
X0.81933 Y1.19933
X0.81867 Y1.19933
X0.81867 Y1.19867
X0.81800 Y1.19867
X0.81800 Y1.19800
X0.81733 Y1.19800
X0.81733 Y1.19733
X0.81667 Y1.19733
X0.81667 Y1.19667
X0.81600 Y1.19667
X0.81600 Y1.19600
X0.81533 Y1.19600
X0.81533 Y1.19533
X0.81467 Y1.19533
X0.81467 Y1.19467
X0.81400 Y1.19467
X0.81400 Y1.19400
X0.81333 Y1.19400
X0.81333 Y1.19333
X0.81267 Y1.19333
X0.81267 Y1.19267
X0.81200 Y1.19267
X0.81200 Y1.19200
X0.81133 Y1.19200
X0.81133 Y1.19133
X0.81067 Y1.19133
X0.81067 Y1.19067
X0.81000 Y1.19067
X0.81000 Y1.19000
X0.80933 Y1.19000
X0.80933 Y1.18933
X0.80867 Y1.18933
X0.80867 Y1.18867
X0.80800 Y1.18867
X0.80800 Y1.18800
X0.80733 Y1.18800
X0.80733 Y1.18733
X0.80667 Y1.18733
X0.80667 Y1.18667
X0.80600 Y1.18667
X0.80600 Y1.18600
X0.80533 Y1.18600
X0.80533 Y1.18533
X0.80467 Y1.18533
X0.80467 Y1.18467
X0.80400 Y1.18467
X0.80400 Y1.18400
X0.80333 Y1.18400
X0.80333 Y1.18333
X0.80267 Y1.18333
X0.80267 Y1.18267
X0.80200 Y1.18267
X0.80200 Y1.18200
X0.80133 Y1.18200
X0.80133 Y1.18133
X0.80067 Y1.18133
X0.80067 Y1.18067
X0.80000 Y1.18067
X0.80000 Y1.18000
X0.79933 Y1.18000
X0.79933 Y1.17933
X0.79867 Y1.17933
X0.79867 Y1.17867
X0.79800 Y1.17867
X0.79800 Y1.17800
X0.79733 Y1.17800
X0.79733 Y1.17733
X0.79667 Y1.17733
X0.79667 Y1.17667
X0.79600 Y1.17667
X0.79600 Y1.17600
X0.79533 Y1.17600
X0.79533 Y1.17533
X0.79467 Y1.17533
X0.79467 Y1.17467
X0.79400 Y1.17467
X0.79400 Y1.17400
X0.79333 Y1.17400
X0.79333 Y1.17333
X0.79267 Y1.17333
X0.79267 Y1.17267
X0.79200 Y1.17267
X0.79200 Y1.17200
X0.79133 Y1.17200
X0.79133 Y1.17133
X0.79067 Y1.17133
X0.79067 Y1.17067
X0.79000 Y1.17067
X0.79000 Y1.17000
X0.78933 Y1.17000
X0.78933 Y1.16933
X0.78867 Y1.16933
X0.78867 Y1.16867
X0.78800 Y1.16867
X0.78800 Y1.16800
X0.78733 Y1.16800
X0.78733 Y1.16733
X0.78667 Y1.16733
X0.78667 Y1.16667
X0.78600 Y1.16667
X0.78600 Y1.16600
X0.78533 Y1.16600
X0.78533 Y1.16533
X0.78467 Y1.16533
X0.78467 Y1.16467
X0.78400 Y1.16467
X0.78400 Y1.16400
X0.78333 Y1.16400
X0.78333 Y1.16333
X0.78267 Y1.16333
X0.78267 Y1.16267
X0.78200 Y1.16267
X0.78200 Y1.16200
X0.78133 Y1.16200
X0.78133 Y1.16133
X0.78067 Y1.16133
X0.78067 Y1.16067
X0.78000 Y1.16067
X0.78000 Y1.16000
X0.77933 Y1.16000
X0.77933 Y1.15933
X0.77867 Y1.15933
X0.77867 Y1.15867
X0.77800 Y1.15867
X0.77800 Y1.15800
X0.77733 Y1.15800
X0.77733 Y1.15733
X0.77667 Y1.15733
X0.77667 Y1.15667
X0.77600 Y1.15667
X0.77600 Y1.15600
X0.77533 Y1.15600
X0.77533 Y1.15533
X0.77467 Y1.15533
X0.77467 Y1.15467
X0.77400 Y1.15467
X0.77400 Y1.15400
X0.77333 Y1.15400
X0.77333 Y1.15333
X0.77267 Y1.15333
X0.77267 Y1.15267
X0.77200 Y1.15267
X0.77200 Y1.15200
X0.77067 Y1.15200
X0.77067 Y1.15133
X0.77000 Y1.15133
X0.77000 Y1.15000
X0.76933 Y1.15000
X0.76933 Y1.14933
X0.76867 Y1.14933
X0.76867 Y1.14867
X0.76800 Y1.14867
X0.76800 Y1.14800
X0.76733 Y1.14800
X0.76733 Y1.14733
X0.76667 Y1.14733
X0.76667 Y1.14667
X0.76600 Y1.14667
X0.76600 Y1.14467
X0.76533 Y1.14467
X0.76533 Y1.14400
X0.76467 Y1.14400
X0.76467 Y1.14200
X0.76400 Y1.14200
X0.76400 Y1.12000
X0.76467 Y1.12000
X0.76467 Y1.11800
X0.76533 Y1.11800
X0.76533 Y1.11667
X0.76600 Y1.11667
X0.76600 Y1.11533
X0.76667 Y1.11533
X0.76667 Y1.11467
X0.76800 Y1.11467
X0.76800 Y1.11400
X0.76933 Y1.11400
X0.76933 Y1.11333
X0.77133 Y1.11333
X0.77133 Y1.11267
X0.78000 Y1.11267
X0.78000 Y1.11200
X0.78200 Y1.11200
X0.78200 Y1.11133
X0.78400 Y1.11133
X0.78400 Y1.10933
X0.78467 Y1.10933
X0.78467 Y1.10733
X0.78533 Y1.10733
X0.78533 Y1.04400
X0.78467 Y1.04400
X0.78467 Y1.04200
X0.78400 Y1.04200
X0.78400 Y1.04000
X0.78200 Y1.04000
X0.78200 Y1.03933
X0.78000 Y1.03933
X0.78000 Y1.03867
X0.72000 Y1.03867
X0.72000 Y1.03933
X0.71800 Y1.03933
X0.71800 Y1.04000
X0.71667 Y1.04000
X0.71667 Y1.04133
X0.71600 Y1.04133
X0.71600 Y1.04333
X0.71533 Y1.04333
X0.71533 Y1.04533
X0.71467 Y1.04533
X0.71467 Y1.10600
X0.71533 Y1.10600
X0.71533 Y1.10800
X0.71600 Y1.10800
X0.71600 Y1.11000
X0.71667 Y1.11000
X0.71667 Y1.11133
X0.71800 Y1.11133
X0.71800 Y1.11200
X0.72000 Y1.11200
X0.72000 Y1.11267
X0.72933 Y1.11267
X0.72933 Y1.11333
X0.73133 Y1.11333
X0.73133 Y1.11400
X0.73267 Y1.11400
X0.73267 Y1.11467
X0.73400 Y1.11467
X0.73400 Y1.11533
X0.73467 Y1.11533
X0.73467 Y1.11667
X0.73533 Y1.11667
X0.73533 Y1.11800
X0.73600 Y1.11800
X0.73600 Y1.12000
X0.73667 Y1.12000
X0.73667 Y1.15267
X0.73733 Y1.15267
X0.73733 Y1.15867
X0.73800 Y1.15867
X0.73800 Y1.16600
X0.73733 Y1.16600
X0.73733 Y1.16800
X0.73667 Y1.16800
X0.73667 Y1.16933
X0.73600 Y1.16933
X0.73600 Y1.17067
X0.73533 Y1.17067
X0.73533 Y1.17133
X0.73400 Y1.17133
X0.73400 Y1.17200
X0.73267 Y1.17200
X0.73267 Y1.17267
X0.73067 Y1.17267
X0.73067 Y1.17333
X0.72000 Y1.17333
X0.72000 Y1.17267
X0.71800 Y1.17267
X0.71800 Y1.17200
X0.71733 Y1.17200
X0.71733 Y1.17133
X0.71600 Y1.17133
X0.71600 Y1.17067
X0.71467 Y1.17067
X0.71467 Y1.17000
X0.71400 Y1.17000
X0.71400 Y1.16933
X0.71333 Y1.16933
X0.71333 Y1.16867
X0.71267 Y1.16867
X0.71267 Y1.16800
X0.71200 Y1.16800
X0.71200 Y1.16733
X0.71133 Y1.16733
X0.71133 Y1.16667
X0.71067 Y1.16667
X0.71067 Y1.16600
X0.71000 Y1.16600
X0.71000 Y1.16533
X0.70933 Y1.16533
X0.70933 Y1.16467
X0.70867 Y1.16467
X0.70867 Y1.16400
X0.70800 Y1.16400
X0.70800 Y1.16333
X0.70733 Y1.16333
X0.70733 Y1.16267
X0.70667 Y1.16267
X0.70667 Y1.16200
X0.70600 Y1.16200
X0.70600 Y1.16133
X0.70533 Y1.16133
X0.70533 Y1.16067
X0.70467 Y1.16067
X0.70467 Y1.16000
X0.70400 Y1.16000
X0.70400 Y1.15933
X0.70333 Y1.15933
X0.70333 Y1.15867
X0.70267 Y1.15867
X0.70267 Y1.15800
X0.70200 Y1.15800
X0.70200 Y1.15733
X0.70133 Y1.15733
X0.70133 Y1.15667
X0.70067 Y1.15667
X0.70067 Y1.15600
X0.70000 Y1.15600
X0.70000 Y1.15533
X0.69933 Y1.15533
X0.69933 Y1.15467
X0.69867 Y1.15467
X0.69867 Y1.15400
X0.69800 Y1.15400
X0.69800 Y1.15333
X0.69733 Y1.15333
X0.69733 Y1.15267
X0.69667 Y1.15267
X0.69667 Y1.15200
X0.69600 Y1.15200
X0.69600 Y1.15133
X0.69533 Y1.15133
X0.69533 Y1.15067
X0.69467 Y1.15067
X0.69467 Y1.15000
X0.69400 Y1.15000
X0.69400 Y1.14933
X0.69333 Y1.14933
X0.69333 Y1.14867
X0.69267 Y1.14867
X0.69267 Y1.14800
X0.69200 Y1.14800
X0.69200 Y1.14733
X0.69133 Y1.14733
X0.69133 Y1.14667
X0.69067 Y1.14667
X0.69067 Y1.14600
X0.69000 Y1.14600
X0.69000 Y1.14533
X0.68933 Y1.14533
X0.68933 Y1.14467
X0.68867 Y1.14467
X0.68867 Y1.14400
X0.68800 Y1.14400
X0.68800 Y1.14333
X0.68733 Y1.14333
X0.68733 Y1.14267
X0.68667 Y1.14267
X0.68667 Y1.14200
X0.68600 Y1.14200
X0.68600 Y1.14133
X0.68533 Y1.14133
X0.68533 Y1.14067
X0.68467 Y1.14067
X0.68467 Y1.14000
X0.68400 Y1.14000
X0.68400 Y1.13933
X0.68333 Y1.13933
X0.68333 Y1.13867
X0.68267 Y1.13867
X0.68267 Y1.13800
X0.68200 Y1.13800
X0.68200 Y1.13733
X0.68133 Y1.13733
X0.68133 Y1.13667
X0.68067 Y1.13667
X0.68067 Y1.13600
X0.68000 Y1.13600
X0.68000 Y1.13533
X0.67933 Y1.13533
X0.67933 Y1.13467
X0.67867 Y1.13467
X0.67867 Y1.13400
X0.67800 Y1.13400
X0.67800 Y1.13333
X0.67733 Y1.13333
X0.67733 Y1.13267
X0.67667 Y1.13267
X0.67667 Y1.13200
X0.67600 Y1.13200
X0.67600 Y1.13133
X0.67533 Y1.13133
X0.67533 Y1.13067
X0.67467 Y1.13067
X0.67467 Y1.13000
X0.67400 Y1.13000
X0.67400 Y1.12933
X0.67333 Y1.12933
X0.67333 Y1.12867
X0.67267 Y1.12867
X0.67267 Y1.12800
X0.67200 Y1.12800
X0.67200 Y1.12733
X0.67133 Y1.12733
X0.67133 Y1.12667
X0.67067 Y1.12667
X0.67067 Y1.12600
X0.67000 Y1.12600
X0.67000 Y1.12533
X0.66933 Y1.12533
X0.66933 Y1.12467
X0.66867 Y1.12467
X0.66867 Y1.12400
X0.66800 Y1.12400
X0.66800 Y1.12333
X0.66733 Y1.12333
X0.66733 Y1.12267
X0.66667 Y1.12267
X0.66667 Y1.12200
X0.66600 Y1.12200
X0.66600 Y1.12133
X0.66533 Y1.12133
X0.66533 Y1.11933
X0.66467 Y1.11933
X0.66467 Y1.11867
X0.66400 Y1.11867
X0.66400 Y1.11667
X0.66333 Y1.11667
X0.66333 Y0.93333
X0.66400 Y0.93333
X0.66400 Y0.93133
X0.66467 Y0.93133
X0.66467 Y0.93067
X0.66533 Y0.93067
X0.66533 Y0.92933
X0.66600 Y0.92933
X0.66600 Y0.92800
X0.66667 Y0.92800
X0.66667 Y0.92733
X0.66733 Y0.92733
X0.66733 Y0.92667
X0.66800 Y0.92667
X0.66800 Y0.92600
X0.66867 Y0.92600
X0.66867 Y0.92533
X0.66933 Y0.92533
X0.66933 Y0.92467
X0.67000 Y0.92467
X0.67000 Y0.92400
X0.67067 Y0.92400
X0.67067 Y0.92333
X0.67133 Y0.92333
X0.67133 Y0.92267
X0.67200 Y0.92267
X0.67200 Y0.92200
X0.67267 Y0.92200
X0.67267 Y0.92133
X0.67333 Y0.92133
X0.67333 Y0.92067
X0.67400 Y0.92067
X0.67400 Y0.92000
X0.67467 Y0.92000
X0.67467 Y0.91933
X0.67533 Y0.91933
X0.67533 Y0.91867
X0.67600 Y0.91867
X0.67600 Y0.91800
X0.67667 Y0.91800
X0.67667 Y0.91733
X0.67733 Y0.91733
X0.67733 Y0.91667
X0.67800 Y0.91667
X0.67800 Y0.91600
X0.67867 Y0.91600
X0.67867 Y0.91533
X0.67933 Y0.91533
X0.67933 Y0.91467
X0.68000 Y0.91467
X0.68000 Y0.91400
X0.68067 Y0.91400
X0.68067 Y0.91333
X0.68133 Y0.91333
X0.68133 Y0.91267
X0.68200 Y0.91267
X0.68200 Y0.91200
X0.68267 Y0.91200
X0.68267 Y0.91133
X0.68333 Y0.91133
X0.68333 Y0.91067
X0.68400 Y0.91067
X0.68400 Y0.91000
X0.68467 Y0.91000
X0.68467 Y0.90933
X0.68533 Y0.90933
X0.68533 Y0.90867
X0.68600 Y0.90867
X0.68600 Y0.90800
X0.68667 Y0.90800
X0.68667 Y0.90733
X0.68733 Y0.90733
X0.68733 Y0.90667
X0.68800 Y0.90667
X0.68800 Y0.90600
X0.68867 Y0.90600
X0.68867 Y0.90533
X0.68933 Y0.90533
X0.68933 Y0.90467
X0.69000 Y0.90467
X0.69000 Y0.90400
X0.69067 Y0.90400
X0.69067 Y0.90333
X0.69133 Y0.90333
X0.69133 Y0.90267
X0.69267 Y0.90267
X0.69267 Y0.90200
X0.69400 Y0.90200
X0.69400 Y0.90133
X0.69467 Y0.90133
X0.69467 Y0.90067
X0.69667 Y0.90067
X0.69667 Y0.90000
X0.70733 Y0.90000
X0.70733 Y0.90067
X0.70933 Y0.90067
X0.70933 Y0.90133
X0.71067 Y0.90133
X0.71067 Y0.90200
X0.71200 Y0.90200
X0.71200 Y0.90267
X0.71267 Y0.90267
X0.71267 Y0.90333
X0.71333 Y0.90333
X0.71333 Y0.90400
X0.71400 Y0.90400
X0.71400 Y0.90467
X0.71467 Y0.90467
X0.71467 Y0.90533
X0.71533 Y0.90533
X0.71533 Y0.90733
X0.71600 Y0.90733
X0.71600 Y0.90933
X0.71667 Y0.90933
X0.71667 Y0.91067
X0.71800 Y0.91067
X0.71800 Y0.91133
X0.72000 Y0.91133
X0.72000 Y0.91200
X0.78000 Y0.91200
X0.78000 Y0.91133
X0.78200 Y0.91133
X0.78200 Y0.91067
X0.78400 Y0.91067
X0.78400 Y0.90867
X0.78467 Y0.90867
X0.78467 Y0.90667
X0.78533 Y0.90667
X0.78533 Y0.89600
X0.78600 Y0.89600
X0.78600 Y0.89400
X0.78667 Y0.89400
X0.78667 Y0.89267
X0.78733 Y0.89267
X0.78733 Y0.89133
X0.78800 Y0.89133
X0.78800 Y0.89067
X0.78933 Y0.89067
X0.78933 Y0.89000
X0.79067 Y0.89000
X0.79067 Y0.88933
X0.79267 Y0.88933
X0.79267 Y0.88867
X0.85733 Y0.88867
X0.85733 Y0.88933
X0.85933 Y0.88933
X0.85933 Y0.89000
X0.86067 Y0.89000
X0.86067 Y0.89067
X0.86200 Y0.89067
X0.86200 Y0.89133
X0.86267 Y0.89133
X0.86267 Y0.89267
X0.86333 Y0.89267
X0.86333 Y0.89400
X0.86400 Y0.89400
X0.86400 Y0.89600
X0.86467 Y0.89600
X0.86467 Y0.90667
X0.86533 Y0.90667
X0.86533 Y0.90867
X0.86600 Y0.90867
X0.86600 Y0.91067
X0.86800 Y0.91067
X0.86800 Y0.91133
X0.87000 Y0.91133
X0.87000 Y0.91200
X0.92933 Y0.91200
X0.92933 Y0.91133
X0.93133 Y0.91133
X0.93133 Y0.91067
X0.93333 Y0.91067
X0.93333 Y0.90867
X0.93400 Y0.90867
X0.93400 Y0.90667
X0.93467 Y0.90667
X0.93467 Y0.84267
X0.93400 Y0.84267
X0.93400 Y0.84067
X0.93333 Y0.84067
X0.93333 Y0.83933
X0.93200 Y0.83933
X0.93200 Y0.83867
X0.93000 Y0.83867
X0.93000 Y0.83800
X0.92800 Y0.83800
X0.92800 Y0.83733
X0.87133 Y0.83733
X0.87133 Y0.83800
X0.86933 Y0.83800
X0.86933 Y0.83867
X0.86733 Y0.83867
X0.86733 Y0.83933
X0.86600 Y0.83933
X0.86600 Y0.84067
X0.86533 Y0.84067
X0.86533 Y0.84267
X0.86467 Y0.84267
X0.86467 Y0.85400
X0.86400 Y0.85400
X0.86400 Y0.85600
X0.86333 Y0.85600
X0.86333 Y0.85733
X0.86267 Y0.85733
X0.86267 Y0.85867
X0.86200 Y0.85867
X0.86200 Y0.85933
X0.86067 Y0.85933
X0.86067 Y0.86000
X0.85933 Y0.86000
X0.85933 Y0.86067
X0.85733 Y0.86067
X0.85733 Y0.86133
X0.79267 Y0.86133
X0.79267 Y0.86067
X0.79067 Y0.86067
X0.79067 Y0.86000
X0.78933 Y0.86000
X0.78933 Y0.85933
X0.78800 Y0.85933
X0.78800 Y0.85867
X0.78733 Y0.85867
X0.78733 Y0.85733
X0.78667 Y0.85733
X0.78667 Y0.85600
X0.78600 Y0.85600
X0.78600 Y0.85400
X0.78533 Y0.85400
X0.78533 Y0.84267
X0.78467 Y0.84267
X0.78467 Y0.84067
X0.78400 Y0.84067
X0.78400 Y0.83933
X0.78267 Y0.83933
X0.78267 Y0.83867
X0.78067 Y0.83867
X0.78067 Y0.83800
X0.77867 Y0.83800
X0.77867 Y0.83733
X0.77133 Y0.83733
X0.77133 Y0.83667
X0.76933 Y0.83667
X0.76933 Y0.83600
X0.76800 Y0.83600
X0.76800 Y0.83533
X0.76667 Y0.83533
X0.76667 Y0.83467
X0.76600 Y0.83467
X0.76600 Y0.83333
X0.76533 Y0.83333
X0.76533 Y0.83200
X0.76467 Y0.83200
X0.76467 Y0.83000
X0.76400 Y0.83000
X0.76400 Y0.76733
X0.76467 Y0.76733
X0.76467 Y0.76533
X0.76533 Y0.76533
X0.76533 Y0.76400
X0.76600 Y0.76400
X0.76600 Y0.76267
X0.76667 Y0.76267
X0.76667 Y0.76200
X0.76800 Y0.76200
X0.76800 Y0.76133
X0.76933 Y0.76133
X0.76933 Y0.76067
X0.77133 Y0.76067
X0.77133 Y0.76000
X0.79400 Y0.76000
X0.79400 Y0.75933
X0.79667 Y0.75933
X0.79667 Y0.75867
X0.79733 Y0.75867
X0.79733 Y0.75800
X0.80200 Y0.75800
X0.80200 Y0.69267
X0.79733 Y0.69267
X0.79733 Y0.69200
X0.79667 Y0.69200
X0.79667 Y0.69067
X0.79333 Y0.69067
X0.79333 Y0.69000
X0.78733 Y0.69000
X0.78733 Y0.68933
X0.78533 Y0.68933
X0.78533 Y0.68867
X0.78400 Y0.68867
X0.78400 Y0.68800
X0.78267 Y0.68800
X0.78267 Y0.68733
X0.78200 Y0.68733
X0.78200 Y0.68600
X0.78133 Y0.68600
X0.78133 Y0.68467
X0.78067 Y0.68467
X0.78067 Y0.68267
X0.78000 Y0.68267
X0.78000 Y0.56600
X0.77933 Y0.56600
X0.77933 Y0.56200
X0.77867 Y0.56200
X0.77867 Y0.56000
X0.77800 Y0.56000
X0.77800 Y0.55933
X0.77733 Y0.55933
X0.77733 Y0.55800
X0.77667 Y0.55800
X0.77667 Y0.55667
X0.77600 Y0.55667
X0.77600 Y0.55600
X0.77533 Y0.55600
X0.77533 Y0.55533
X0.77467 Y0.55533
X0.77467 Y0.55467
X0.77400 Y0.55467
X0.77400 Y0.55400
X0.77333 Y0.55400
X0.77333 Y0.55333
X0.77267 Y0.55333
X0.77267 Y0.55267
X0.77200 Y0.55267
X0.77200 Y0.55200
X0.77133 Y0.55200
X0.77133 Y0.55133
X0.77067 Y0.55133
X0.77067 Y0.55067
X0.77000 Y0.55067
X0.77000 Y0.55000
X0.76933 Y0.55000
X0.76933 Y0.54933
X0.76867 Y0.54933
X0.76867 Y0.54867
X0.76800 Y0.54867
X0.76800 Y0.54800
X0.76733 Y0.54800
X0.76733 Y0.54733
X0.76667 Y0.54733
X0.76667 Y0.54667
X0.76600 Y0.54667
X0.76600 Y0.54600
X0.76533 Y0.54600
X0.76533 Y0.54533
X0.76467 Y0.54533
X0.76467 Y0.54467
X0.76400 Y0.54467
X0.76400 Y0.54400
X0.76333 Y0.54400
X0.76333 Y0.54333
X0.76267 Y0.54333
X0.76267 Y0.54267
X0.76200 Y0.54267
X0.76200 Y0.54200
X0.76133 Y0.54200
X0.76133 Y0.54133
X0.76067 Y0.54133
X0.76067 Y0.54067
X0.76000 Y0.54067
X0.76000 Y0.54000
X0.75933 Y0.54000
X0.75933 Y0.53933
X0.75867 Y0.53933
X0.75867 Y0.53867
X0.75800 Y0.53867
X0.75800 Y0.53800
X0.75733 Y0.53800
X0.75733 Y0.53733
X0.75667 Y0.53733
X0.75667 Y0.53667
X0.75600 Y0.53667
X0.75600 Y0.53600
X0.75533 Y0.53600
X0.75533 Y0.53533
X0.75467 Y0.53533
X0.75467 Y0.53467
X0.75400 Y0.53467
X0.75400 Y0.53400
X0.75333 Y0.53400
X0.75333 Y0.53333
X0.75267 Y0.53333
X0.75267 Y0.53267
X0.75200 Y0.53267
X0.75200 Y0.53200
X0.75133 Y0.53200
X0.75133 Y0.53133
X0.75067 Y0.53133
X0.75067 Y0.53067
X0.75000 Y0.53067
X0.75000 Y0.53000
X0.74933 Y0.53000
X0.74933 Y0.52933
X0.74867 Y0.52933
X0.74867 Y0.52867
X0.74800 Y0.52867
X0.74800 Y0.52800
X0.74733 Y0.52800
X0.74733 Y0.52733
X0.74667 Y0.52733
X0.74667 Y0.52667
X0.74600 Y0.52667
X0.74600 Y0.52600
X0.74533 Y0.52600
X0.74533 Y0.52533
X0.74467 Y0.52533
X0.74467 Y0.52467
X0.74400 Y0.52467
X0.74400 Y0.52400
X0.74333 Y0.52400
X0.74333 Y0.52333
X0.74267 Y0.52333
X0.74267 Y0.52267
X0.74200 Y0.52267
X0.74200 Y0.52200
X0.74133 Y0.52200
X0.74133 Y0.52133
X0.74067 Y0.52133
X0.74067 Y0.52067
X0.74000 Y0.52067
X0.74000 Y0.52000
X0.73933 Y0.52000
X0.73933 Y0.51933
X0.73867 Y0.51933
X0.73867 Y0.51867
X0.73800 Y0.51867
X0.73800 Y0.51800
X0.73667 Y0.51800
X0.73667 Y0.51733
X0.73600 Y0.51733
X0.73600 Y0.51600
X0.73533 Y0.51600
X0.73533 Y0.51533
X0.73467 Y0.51533
X0.73467 Y0.51467
X0.73400 Y0.51467
X0.73400 Y0.51400
X0.73333 Y0.51400
X0.73333 Y0.51333
X0.73267 Y0.51333
X0.73267 Y0.51267
X0.73200 Y0.51267
X0.73200 Y0.51200
X0.73133 Y0.51200
X0.73133 Y0.51133
X0.73067 Y0.51133
X0.73067 Y0.51067
X0.73000 Y0.51067
X0.73000 Y0.51000
X0.72933 Y0.51000
X0.72933 Y0.50933
X0.72867 Y0.50933
X0.72867 Y0.50867
X0.72800 Y0.50867
X0.72800 Y0.50800
X0.72733 Y0.50800
X0.72733 Y0.50733
X0.72667 Y0.50733
X0.72667 Y0.50667
X0.72600 Y0.50667
X0.72600 Y0.50600
X0.72533 Y0.50600
X0.72533 Y0.50533
X0.72467 Y0.50533
X0.72467 Y0.50467
X0.72400 Y0.50467
X0.72400 Y0.50400
X0.72333 Y0.50400
X0.72333 Y0.50333
X0.72267 Y0.50333
X0.72267 Y0.50267
X0.72200 Y0.50267
X0.72200 Y0.50200
X0.72133 Y0.50200
X0.72133 Y0.50133
X0.72067 Y0.50133
X0.72067 Y0.50067
X0.72000 Y0.50067
X0.72000 Y0.50000
X0.71933 Y0.50000
X0.71933 Y0.49933
X0.71867 Y0.49933
X0.71867 Y0.49867
X0.71800 Y0.49867
X0.71800 Y0.49800
X0.71733 Y0.49800
X0.71733 Y0.49733
X0.71667 Y0.49733
X0.71667 Y0.49667
X0.71600 Y0.49667
X0.71600 Y0.49600
X0.71533 Y0.49600
X0.71533 Y0.49533
X0.71467 Y0.49533
X0.71467 Y0.49467
X0.71400 Y0.49467
X0.71400 Y0.49400
X0.71333 Y0.49400
X0.71333 Y0.49333
X0.71267 Y0.49333
X0.71267 Y0.49267
X0.71200 Y0.49267
X0.71200 Y0.49200
X0.71133 Y0.49200
X0.71133 Y0.49133
X0.71067 Y0.49133
X0.71067 Y0.49067
X0.71000 Y0.49067
X0.71000 Y0.49000
X0.70933 Y0.49000
X0.70933 Y0.48933
X0.70867 Y0.48933
X0.70867 Y0.48867
X0.70800 Y0.48867
X0.70800 Y0.48800
X0.70733 Y0.48800
X0.70733 Y0.48733
X0.70667 Y0.48733
X0.70667 Y0.48667
X0.70600 Y0.48667
X0.70600 Y0.48600
X0.70533 Y0.48600
X0.70533 Y0.48533
X0.70467 Y0.48533
X0.70467 Y0.48467
X0.70400 Y0.48467
X0.70400 Y0.48400
X0.70333 Y0.48400
X0.70333 Y0.48333
X0.70267 Y0.48333
X0.70267 Y0.48267
X0.70200 Y0.48267
X0.70200 Y0.48200
X0.70133 Y0.48200
X0.70133 Y0.48133
X0.70067 Y0.48133
X0.70067 Y0.48067
X0.70000 Y0.48067
X0.70000 Y0.48000
X0.69933 Y0.48000
X0.69933 Y0.47933
X0.69867 Y0.47933
X0.69867 Y0.47867
X0.69800 Y0.47867
X0.69800 Y0.47800
X0.69733 Y0.47800
X0.69733 Y0.47733
X0.69667 Y0.47733
X0.69667 Y0.47667
X0.69600 Y0.47667
X0.69600 Y0.47600
X0.69533 Y0.47600
X0.69533 Y0.47533
X0.69467 Y0.47533
X0.69467 Y0.47467
X0.69400 Y0.47467
X0.69400 Y0.47400
X0.69333 Y0.47400
X0.69333 Y0.47333
X0.69267 Y0.47333
X0.69267 Y0.47267
X0.69200 Y0.47267
X0.69200 Y0.47200
X0.69133 Y0.47200
X0.69133 Y0.47133
X0.69067 Y0.47133
X0.69067 Y0.47067
X0.69000 Y0.47067
X0.69000 Y0.47000
X0.68933 Y0.47000
X0.68933 Y0.46933
X0.68867 Y0.46933
X0.68867 Y0.46867
X0.68800 Y0.46867
X0.68800 Y0.46800
X0.68733 Y0.46800
X0.68733 Y0.46733
X0.68667 Y0.46733
X0.68667 Y0.46667
X0.68600 Y0.46667
X0.68600 Y0.46600
X0.68533 Y0.46600
X0.68533 Y0.46533
X0.68467 Y0.46533
X0.68467 Y0.46467
X0.68400 Y0.46467
X0.68400 Y0.46400
X0.68333 Y0.46400
X0.68333 Y0.46333
X0.68267 Y0.46333
X0.68267 Y0.46267
X0.68200 Y0.46267
X0.68200 Y0.46200
X0.68133 Y0.46200
X0.68133 Y0.46133
X0.68067 Y0.46133
X0.68067 Y0.46067
X0.68000 Y0.46067
X0.68000 Y0.46000
X0.67933 Y0.46000
X0.67933 Y0.45933
X0.67867 Y0.45933
X0.67867 Y0.45867
X0.67800 Y0.45867
X0.67800 Y0.45800
X0.67733 Y0.45800
X0.67733 Y0.45733
X0.67667 Y0.45733
X0.67667 Y0.45667
X0.67600 Y0.45667
X0.67600 Y0.45600
X0.67533 Y0.45600
X0.67533 Y0.45533
X0.67467 Y0.45533
X0.67467 Y0.45467
X0.67400 Y0.45467
X0.67400 Y0.45400
X0.67333 Y0.45400
X0.67333 Y0.45333
X0.67267 Y0.45333
X0.67267 Y0.45267
X0.67200 Y0.45267
X0.67200 Y0.45200
X0.67133 Y0.45200
X0.67133 Y0.45133
X0.67067 Y0.45133
X0.67067 Y0.45067
X0.67000 Y0.45067
X0.67000 Y0.45000
X0.66933 Y0.45000
X0.66933 Y0.44933
X0.66867 Y0.44933
X0.66867 Y0.44867
X0.66800 Y0.44867
X0.66800 Y0.44800
X0.66733 Y0.44800
X0.66733 Y0.44733
X0.66667 Y0.44733
X0.66667 Y0.44667
X0.66600 Y0.44667
X0.66600 Y0.44600
X0.66533 Y0.44600
X0.66533 Y0.44533
X0.66467 Y0.44533
X0.66467 Y0.44467
X0.66400 Y0.44467
X0.66400 Y0.44400
X0.66333 Y0.44400
X0.66333 Y0.44333
X0.66267 Y0.44333
X0.66267 Y0.44267
X0.66200 Y0.44267
X0.66200 Y0.44200
X0.66133 Y0.44200
X0.66133 Y0.44133
X0.66067 Y0.44133
X0.66067 Y0.44067
X0.66000 Y0.44067
X0.66000 Y0.44000
X0.65933 Y0.44000
X0.65933 Y0.43933
X0.65867 Y0.43933
X0.65867 Y0.43867
X0.65800 Y0.43867
X0.65800 Y0.43800
X0.65733 Y0.43800
X0.65733 Y0.43733
X0.65667 Y0.43733
X0.65667 Y0.43667
X0.65600 Y0.43667
X0.65600 Y0.43600
X0.65533 Y0.43600
X0.65533 Y0.43533
X0.65467 Y0.43533
X0.65467 Y0.43467
X0.65400 Y0.43467
X0.65400 Y0.43400
X0.65333 Y0.43400
X0.65333 Y0.43333
X0.65267 Y0.43333
X0.65267 Y0.43267
X0.65200 Y0.43267
X0.65200 Y0.43200
X0.65133 Y0.43200
X0.65133 Y0.43133
X0.65067 Y0.43133
X0.65067 Y0.43067
X0.65000 Y0.43067
X0.65000 Y0.43000
X0.64933 Y0.43000
X0.64933 Y0.42933
X0.64867 Y0.42933
X0.64867 Y0.42867
X0.64800 Y0.42867
X0.64800 Y0.42800
X0.64733 Y0.42800
X0.64733 Y0.42733
X0.64667 Y0.42733
X0.64667 Y0.42667
X0.64600 Y0.42667
X0.64600 Y0.42600
X0.64533 Y0.42600
X0.64533 Y0.42533
X0.64467 Y0.42533
X0.64467 Y0.42467
X0.64400 Y0.42467
X0.64400 Y0.42400
X0.64333 Y0.42400
X0.64333 Y0.42333
X0.64267 Y0.42333
X0.64267 Y0.42267
X0.64200 Y0.42267
X0.64200 Y0.42200
X0.64133 Y0.42200
X0.64133 Y0.42133
X0.64067 Y0.42133
X0.64067 Y0.42067
X0.64000 Y0.42067
X0.64000 Y0.42000
X0.63933 Y0.42000
X0.63933 Y0.41933
X0.63867 Y0.41933
X0.63867 Y0.41867
X0.63800 Y0.41867
X0.63800 Y0.41800
X0.63733 Y0.41800
X0.63733 Y0.41733
X0.63667 Y0.41733
X0.63667 Y0.41667
X0.63600 Y0.41667
X0.63600 Y0.41600
X0.63533 Y0.41600
X0.63533 Y0.41533
X0.63467 Y0.41533
X0.63467 Y0.41467
X0.63400 Y0.41467
X0.63400 Y0.41400
X0.63333 Y0.41400
X0.63333 Y0.41333
X0.63267 Y0.41333
X0.63267 Y0.41267
X0.63200 Y0.41267
X0.63200 Y0.41200
X0.63133 Y0.41200
X0.63133 Y0.41133
X0.63067 Y0.41133
X0.63067 Y0.41067
X0.63000 Y0.41067
X0.63000 Y0.41000
X0.62933 Y0.41000
X0.62933 Y0.40933
X0.62867 Y0.40933
X0.62867 Y0.40867
X0.62800 Y0.40867
X0.62800 Y0.40800
X0.62733 Y0.40800
X0.62733 Y0.40733
X0.62667 Y0.40733
X0.62667 Y0.40667
X0.62600 Y0.40667
X0.62600 Y0.40600
X0.62533 Y0.40600
X0.62533 Y0.40533
X0.62467 Y0.40533
X0.62467 Y0.40467
X0.62400 Y0.40467
X0.62400 Y0.40400
X0.62333 Y0.40400
X0.62333 Y0.40333
X0.62267 Y0.40333
X0.62267 Y0.40267
X0.62200 Y0.40267
X0.62200 Y0.40200
X0.62133 Y0.40200
X0.62133 Y0.40133
X0.62067 Y0.40133
X0.62067 Y0.40067
X0.62000 Y0.40067
X0.62000 Y0.40000
X0.61933 Y0.40000
X0.61933 Y0.39933
X0.61867 Y0.39933
X0.61867 Y0.39867
X0.61800 Y0.39867
X0.61800 Y0.39800
X0.61733 Y0.39800
X0.61733 Y0.39733
X0.61667 Y0.39733
X0.61667 Y0.39667
X0.61600 Y0.39667
X0.61600 Y0.39600
X0.61533 Y0.39600
X0.61533 Y0.39400
X0.61400 Y0.39400
X0.61400 Y0.39200
X0.61333 Y0.39200
X0.61333 Y0.28400
X0.61467 Y0.28400
X0.61467 Y0.28333
X0.61533 Y0.28333
X0.61533 Y0.28267
X0.61600 Y0.28267
X0.61600 Y0.28200
X0.61667 Y0.28200
X0.61667 Y0.28133
X0.61733 Y0.28133
X0.61733 Y0.28067
X0.61800 Y0.28067
X0.61800 Y0.28000
X0.61867 Y0.28000
X0.61867 Y0.27933
X0.61933 Y0.27933
X0.61933 Y0.27867
X0.62000 Y0.27867
X0.62000 Y0.27800
X0.62067 Y0.27800
X0.62067 Y0.27733
X0.62133 Y0.27733
X0.62133 Y0.27667
X0.62200 Y0.27667
X0.62200 Y0.27600
X0.62267 Y0.27600
X0.62267 Y0.27533
X0.62333 Y0.27533
X0.62333 Y0.27467
X0.62400 Y0.27467
X0.62400 Y0.27400
X0.62467 Y0.27400
X0.62467 Y0.27333
X0.62533 Y0.27333
X0.62533 Y0.27267
X0.62600 Y0.27267
X0.62600 Y0.27200
X0.62667 Y0.27200
X0.62667 Y0.27133
X0.62733 Y0.27133
X0.62733 Y0.27067
X0.62800 Y0.27067
X0.62800 Y0.27000
X0.62867 Y0.27000
X0.62867 Y0.26933
X0.62933 Y0.26933
X0.62933 Y0.26867
X0.63000 Y0.26867
X0.63000 Y0.26800
X0.63067 Y0.26800
X0.63067 Y0.26733
X0.63133 Y0.26733
X0.63133 Y0.26667
X0.63200 Y0.26667
X0.63200 Y0.26467
X0.63267 Y0.26467
X0.63267 Y0.26267
X0.63333 Y0.26267
X0.63333 Y0.23800
X0.63267 Y0.23800
X0.63267 Y0.23600
X0.63200 Y0.23600
X0.63200 Y0.23400
X0.63133 Y0.23400
X0.63133 Y0.23333
X0.63067 Y0.23333
X0.63067 Y0.23267
X0.63000 Y0.23267
X0.63000 Y0.23200
X0.62933 Y0.23200
X0.62933 Y0.23133
X0.62867 Y0.23133
X0.62867 Y0.23067
X0.62800 Y0.23067
X0.62800 Y0.23000
X0.62733 Y0.23000
X0.62733 Y0.22933
X0.62667 Y0.22933
X0.62667 Y0.22867
X0.62600 Y0.22867
X0.62600 Y0.22800
X0.62533 Y0.22800
X0.62533 Y0.22733
X0.62467 Y0.22733
X0.62467 Y0.22667
X0.62400 Y0.22667
X0.62400 Y0.22600
X0.62333 Y0.22600
X0.62333 Y0.22533
X0.62267 Y0.22533
X0.62267 Y0.22467
X0.62200 Y0.22467
X0.62200 Y0.22400
X0.62133 Y0.22400
X0.62133 Y0.22333
X0.62067 Y0.22333
X0.62067 Y0.22267
X0.62000 Y0.22267
X0.62000 Y0.22200
X0.61933 Y0.22200
X0.61933 Y0.22133
X0.61867 Y0.22133
X0.61867 Y0.22067
X0.61800 Y0.22067
X0.61800 Y0.22000
X0.61733 Y0.22000
X0.61733 Y0.21933
X0.61667 Y0.21933
X0.61667 Y0.21867
X0.61600 Y0.21867
X0.61600 Y0.21800
X0.61400 Y0.21800
X0.61400 Y0.21733
X0.61200 Y0.21733
X0.61200 Y0.21667
X0.58733 Y0.21667
X0.58733 Y0.21733
X0.58533 Y0.21733
X0.58533 Y0.21800
X0.58333 Y0.21800
X0.58333 Y0.21867
X0.58267 Y0.21867
X0.58267 Y0.21933
X0.58200 Y0.21933
X0.58200 Y0.22000
X0.58133 Y0.22000
X0.58133 Y0.22067
X0.58067 Y0.22067
X0.58067 Y0.22133
X0.58000 Y0.22133
X0.58000 Y0.22200
X0.57933 Y0.22200
X0.57933 Y0.22267
X0.57867 Y0.22267
X0.57867 Y0.22333
X0.57800 Y0.22333
X0.57800 Y0.22400
X0.57733 Y0.22400
X0.57733 Y0.22467
X0.57667 Y0.22467
X0.57667 Y0.22533
X0.57600 Y0.22533
X0.57600 Y0.22600
X0.57533 Y0.22600
X0.57533 Y0.22667
X0.57467 Y0.22667
X0.57467 Y0.22733
X0.57400 Y0.22733
X0.57400 Y0.22800
X0.57333 Y0.22800
X0.57333 Y0.22867
X0.57267 Y0.22867
X0.57267 Y0.22933
X0.57200 Y0.22933
X0.57200 Y0.23000
X0.57133 Y0.23000
X0.57133 Y0.23067
X0.57067 Y0.23067
X0.57067 Y0.23200
X0.57000 Y0.23200
X0.57000 Y0.23267
X0.56867 Y0.23267
X0.56867 Y0.23333
X0.56800 Y0.23333
X0.56800 Y0.23400
X0.56733 Y0.23400
X0.56733 Y0.23600
X0.56667 Y0.23600
X0.56667 Y0.23800
X0.56600 Y0.23800
X0.56600 Y0.26267
X0.56667 Y0.26267
X0.56667 Y0.26467
X0.56733 Y0.26467
X0.56733 Y0.26667
X0.56800 Y0.26667
X0.56800 Y0.26733
X0.56867 Y0.26733
X0.56867 Y0.26800
X0.56933 Y0.26800
X0.56933 Y0.26867
X0.57000 Y0.26867
X0.57000 Y0.26933
X0.57067 Y0.26933
X0.57067 Y0.27000
X0.57133 Y0.27000
X0.57133 Y0.27067
X0.57200 Y0.27067
X0.57200 Y0.27133
X0.57267 Y0.27133
X0.57267 Y0.27200
X0.57333 Y0.27200
X0.57333 Y0.27267
X0.57400 Y0.27267
X0.57400 Y0.27333
X0.57467 Y0.27333
X0.57467 Y0.27400
X0.57533 Y0.27400
X0.57533 Y0.27467
X0.57600 Y0.27467
X0.57600 Y0.27533
X0.57667 Y0.27533
X0.57667 Y0.27600
X0.57733 Y0.27600
X0.57733 Y0.27667
X0.57800 Y0.27667
X0.57800 Y0.27733
X0.57867 Y0.27733
X0.57867 Y0.27800
X0.57933 Y0.27800
X0.57933 Y0.27867
X0.58000 Y0.27867
X0.58000 Y0.27933
X0.58067 Y0.27933
X0.58067 Y0.28000
X0.58133 Y0.28000
X0.58133 Y0.28067
X0.58200 Y0.28067
X0.58200 Y0.28133
X0.58267 Y0.28133
X0.58267 Y0.28200
X0.58333 Y0.28200
X0.58333 Y0.28267
X0.58400 Y0.28267
X0.58400 Y0.28333
X0.58467 Y0.28333
X0.58467 Y0.28400
X0.58600 Y0.28400
X0.58600 Y0.40067
X0.58667 Y0.40067
X0.58667 Y0.40400
X0.58733 Y0.40400
X0.58733 Y0.40600
X0.58800 Y0.40600
X0.58800 Y0.40733
X0.58867 Y0.40733
X0.58867 Y0.40867
X0.58933 Y0.40867
X0.58933 Y0.41000
X0.59000 Y0.41000
X0.59000 Y0.41067
X0.59067 Y0.41067
X0.59067 Y0.41133
X0.59133 Y0.41133
X0.59133 Y0.41200
X0.59200 Y0.41200
X0.59200 Y0.41267
X0.59267 Y0.41267
X0.59267 Y0.41333
X0.59333 Y0.41333
X0.59333 Y0.41400
X0.59400 Y0.41400
X0.59400 Y0.41467
X0.59467 Y0.41467
X0.59467 Y0.41533
X0.59533 Y0.41533
X0.59533 Y0.41600
X0.59600 Y0.41600
X0.59600 Y0.41667
X0.59667 Y0.41667
X0.59667 Y0.41733
X0.59733 Y0.41733
X0.59733 Y0.41800
X0.59800 Y0.41800
X0.59800 Y0.41867
X0.59867 Y0.41867
X0.59867 Y0.41933
X0.59933 Y0.41933
X0.59933 Y0.42000
X0.60000 Y0.42000
X0.60000 Y0.42067
X0.60067 Y0.42067
X0.60067 Y0.42133
X0.60133 Y0.42133
X0.60133 Y0.42200
X0.60200 Y0.42200
X0.60200 Y0.42267
X0.60267 Y0.42267
X0.60267 Y0.42333
X0.60333 Y0.42333
X0.60333 Y0.42400
X0.60400 Y0.42400
X0.60400 Y0.42467
X0.60467 Y0.42467
X0.60467 Y0.42533
X0.60533 Y0.42533
X0.60533 Y0.42600
X0.60600 Y0.42600
X0.60600 Y0.42667
X0.60667 Y0.42667
X0.60667 Y0.42733
X0.60733 Y0.42733
X0.60733 Y0.42800
X0.60800 Y0.42800
X0.60800 Y0.42867
X0.60867 Y0.42867
X0.60867 Y0.42933
X0.60933 Y0.42933
X0.60933 Y0.43000
X0.61000 Y0.43000
X0.61000 Y0.43067
X0.61067 Y0.43067
X0.61067 Y0.43133
X0.61133 Y0.43133
X0.61133 Y0.43200
X0.61200 Y0.43200
X0.61200 Y0.43267
X0.61267 Y0.43267
X0.61267 Y0.43333
X0.61400 Y0.43333
X0.61400 Y0.43400
X0.61467 Y0.43400
X0.61467 Y0.43533
X0.61533 Y0.43533
X0.61533 Y0.43600
X0.61600 Y0.43600
X0.61600 Y0.43667
X0.61667 Y0.43667
X0.61667 Y0.43733
X0.61733 Y0.43733
X0.61733 Y0.43800
X0.61800 Y0.43800
X0.61800 Y0.43867
X0.61867 Y0.43867
X0.61867 Y0.43933
X0.61933 Y0.43933
X0.61933 Y0.44000
X0.62000 Y0.44000
X0.62000 Y0.44067
X0.62067 Y0.44067
X0.62067 Y0.44133
X0.62133 Y0.44133
X0.62133 Y0.44200
X0.62200 Y0.44200
X0.62200 Y0.44267
X0.62267 Y0.44267
X0.62267 Y0.44333
X0.62333 Y0.44333
X0.62333 Y0.44400
X0.62400 Y0.44400
X0.62400 Y0.44467
X0.62467 Y0.44467
X0.62467 Y0.44533
X0.62533 Y0.44533
X0.62533 Y0.44600
X0.62600 Y0.44600
X0.62600 Y0.44667
X0.62667 Y0.44667
X0.62667 Y0.44733
X0.62733 Y0.44733
X0.62733 Y0.44800
X0.62800 Y0.44800
X0.62800 Y0.44867
X0.62867 Y0.44867
X0.62867 Y0.44933
X0.62933 Y0.44933
X0.62933 Y0.45000
X0.63000 Y0.45000
X0.63000 Y0.45067
X0.63067 Y0.45067
X0.63067 Y0.45133
X0.63133 Y0.45133
X0.63133 Y0.45200
X0.63200 Y0.45200
X0.63200 Y0.45267
X0.63267 Y0.45267
X0.63267 Y0.45333
X0.63333 Y0.45333
X0.63333 Y0.45400
X0.63400 Y0.45400
X0.63400 Y0.45467
X0.63467 Y0.45467
X0.63467 Y0.45533
X0.63533 Y0.45533
X0.63533 Y0.45600
X0.63600 Y0.45600
X0.63600 Y0.45667
X0.63667 Y0.45667
X0.63667 Y0.45733
X0.63733 Y0.45733
X0.63733 Y0.45800
X0.63800 Y0.45800
X0.63800 Y0.45867
X0.63867 Y0.45867
X0.63867 Y0.45933
X0.63933 Y0.45933
X0.63933 Y0.46000
X0.64000 Y0.46000
X0.64000 Y0.46067
X0.64067 Y0.46067
X0.64067 Y0.46133
X0.64133 Y0.46133
X0.64133 Y0.46200
X0.64200 Y0.46200
X0.64200 Y0.46267
X0.64267 Y0.46267
X0.64267 Y0.46333
X0.64333 Y0.46333
X0.64333 Y0.46400
X0.64400 Y0.46400
X0.64400 Y0.46467
X0.64467 Y0.46467
X0.64467 Y0.46533
X0.64533 Y0.46533
X0.64533 Y0.46600
X0.64600 Y0.46600
X0.64600 Y0.46667
X0.64667 Y0.46667
X0.64667 Y0.46733
X0.64733 Y0.46733
X0.64733 Y0.46800
X0.64800 Y0.46800
X0.64800 Y0.46867
X0.64867 Y0.46867
X0.64867 Y0.46933
X0.64933 Y0.46933
X0.64933 Y0.47000
X0.65000 Y0.47000
X0.65000 Y0.47067
X0.65067 Y0.47067
X0.65067 Y0.47133
X0.65133 Y0.47133
X0.65133 Y0.47200
X0.65200 Y0.47200
X0.65200 Y0.47267
X0.65267 Y0.47267
X0.65267 Y0.47333
X0.65333 Y0.47333
X0.65333 Y0.47400
X0.65400 Y0.47400
X0.65400 Y0.47467
X0.65467 Y0.47467
X0.65467 Y0.47533
X0.65533 Y0.47533
X0.65533 Y0.47600
X0.65600 Y0.47600
X0.65600 Y0.47667
X0.65667 Y0.47667
X0.65667 Y0.47733
X0.65733 Y0.47733
X0.65733 Y0.47800
X0.65800 Y0.47800
X0.65800 Y0.47867
X0.65867 Y0.47867
X0.65867 Y0.47933
X0.65933 Y0.47933
X0.65933 Y0.48000
X0.66000 Y0.48000
X0.66000 Y0.48067
X0.66067 Y0.48067
X0.66067 Y0.48133
X0.66133 Y0.48133
X0.66133 Y0.48200
X0.66200 Y0.48200
X0.66200 Y0.48267
X0.66267 Y0.48267
X0.66267 Y0.48333
X0.66333 Y0.48333
X0.66333 Y0.48400
X0.66400 Y0.48400
X0.66400 Y0.48467
X0.66467 Y0.48467
X0.66467 Y0.48533
X0.66533 Y0.48533
X0.66533 Y0.48600
X0.66600 Y0.48600
X0.66600 Y0.48667
X0.66667 Y0.48667
X0.66667 Y0.48733
X0.66733 Y0.48733
X0.66733 Y0.48800
X0.66800 Y0.48800
X0.66800 Y0.48867
X0.66867 Y0.48867
X0.66867 Y0.48933
X0.66933 Y0.48933
X0.66933 Y0.49000
X0.67000 Y0.49000
X0.67000 Y0.49067
X0.67067 Y0.49067
X0.67067 Y0.49133
X0.67133 Y0.49133
X0.67133 Y0.49200
X0.67200 Y0.49200
X0.67200 Y0.49267
X0.67267 Y0.49267
X0.67267 Y0.49333
X0.67333 Y0.49333
X0.67333 Y0.49400
X0.67400 Y0.49400
X0.67400 Y0.49467
X0.67467 Y0.49467
X0.67467 Y0.49533
X0.67533 Y0.49533
X0.67533 Y0.49600
X0.67600 Y0.49600
X0.67600 Y0.49667
X0.67667 Y0.49667
X0.67667 Y0.49733
X0.67733 Y0.49733
X0.67733 Y0.49800
X0.67800 Y0.49800
X0.67800 Y0.49867
X0.67867 Y0.49867
X0.67867 Y0.49933
X0.67933 Y0.49933
X0.67933 Y0.50000
X0.68000 Y0.50000
X0.68000 Y0.50067
X0.68067 Y0.50067
X0.68067 Y0.50133
X0.68133 Y0.50133
X0.68133 Y0.50200
X0.68200 Y0.50200
X0.68200 Y0.50267
X0.68267 Y0.50267
X0.68267 Y0.50333
X0.68333 Y0.50333
X0.68333 Y0.50400
X0.68400 Y0.50400
X0.68400 Y0.50467
X0.68467 Y0.50467
X0.68467 Y0.50533
X0.68533 Y0.50533
X0.68533 Y0.50600
X0.68600 Y0.50600
X0.68600 Y0.50667
X0.68667 Y0.50667
X0.68667 Y0.50733
X0.68733 Y0.50733
X0.68733 Y0.50800
X0.68800 Y0.50800
X0.68800 Y0.50867
X0.68867 Y0.50867
X0.68867 Y0.50933
X0.68933 Y0.50933
X0.68933 Y0.51000
X0.69000 Y0.51000
X0.69000 Y0.51067
X0.69067 Y0.51067
X0.69067 Y0.51133
X0.69133 Y0.51133
X0.69133 Y0.51200
X0.69200 Y0.51200
X0.69200 Y0.51267
X0.69333 Y0.51267
X0.69333 Y0.51333
X0.69400 Y0.51333
X0.69400 Y0.51467
X0.69467 Y0.51467
X0.69467 Y0.51533
X0.69533 Y0.51533
X0.69533 Y0.51600
X0.69600 Y0.51600
X0.69600 Y0.51667
X0.69667 Y0.51667
X0.69667 Y0.51733
X0.69733 Y0.51733
X0.69733 Y0.51800
X0.69800 Y0.51800
X0.69800 Y0.51867
X0.69867 Y0.51867
X0.69867 Y0.51933
X0.69933 Y0.51933
X0.69933 Y0.52000
X0.70000 Y0.52000
X0.70000 Y0.52067
X0.70067 Y0.52067
X0.70067 Y0.52133
X0.70133 Y0.52133
X0.70133 Y0.52200
X0.70200 Y0.52200
X0.70200 Y0.52267
X0.70267 Y0.52267
X0.70267 Y0.52333
X0.70333 Y0.52333
X0.70333 Y0.52400
X0.70400 Y0.52400
X0.70400 Y0.52467
X0.70467 Y0.52467
X0.70467 Y0.52533
X0.70533 Y0.52533
X0.70533 Y0.52600
X0.70600 Y0.52600
X0.70600 Y0.52667
X0.70667 Y0.52667
X0.70667 Y0.52733
X0.70733 Y0.52733
X0.70733 Y0.52800
X0.70800 Y0.52800
X0.70800 Y0.52867
X0.70867 Y0.52867
X0.70867 Y0.52933
X0.70933 Y0.52933
X0.70933 Y0.53000
X0.71000 Y0.53000
X0.71000 Y0.53067
X0.71067 Y0.53067
X0.71067 Y0.53133
X0.71133 Y0.53133
X0.71133 Y0.53200
X0.71200 Y0.53200
X0.71200 Y0.53267
X0.71267 Y0.53267
X0.71267 Y0.53333
X0.71333 Y0.53333
X0.71333 Y0.53400
X0.71400 Y0.53400
X0.71400 Y0.53467
X0.71467 Y0.53467
X0.71467 Y0.53533
X0.71533 Y0.53533
X0.71533 Y0.53600
X0.71600 Y0.53600
X0.71600 Y0.53667
X0.71667 Y0.53667
X0.71667 Y0.53733
X0.71733 Y0.53733
X0.71733 Y0.53800
X0.71800 Y0.53800
X0.71800 Y0.53867
X0.71867 Y0.53867
X0.71867 Y0.53933
X0.71933 Y0.53933
X0.71933 Y0.54000
X0.72000 Y0.54000
X0.72000 Y0.54067
X0.72067 Y0.54067
X0.72067 Y0.54133
X0.72133 Y0.54133
X0.72133 Y0.54200
X0.72200 Y0.54200
X0.72200 Y0.54267
X0.72267 Y0.54267
X0.72267 Y0.54333
X0.72333 Y0.54333
X0.72333 Y0.54400
X0.72400 Y0.54400
X0.72400 Y0.54467
X0.72467 Y0.54467
X0.72467 Y0.54533
X0.72533 Y0.54533
X0.72533 Y0.54600
X0.72600 Y0.54600
X0.72600 Y0.54667
X0.72667 Y0.54667
X0.72667 Y0.54733
X0.72733 Y0.54733
X0.72733 Y0.54800
X0.72800 Y0.54800
X0.72800 Y0.54867
X0.72867 Y0.54867
X0.72867 Y0.54933
X0.72933 Y0.54933
X0.72933 Y0.55000
X0.73000 Y0.55000
X0.73000 Y0.55067
X0.73067 Y0.55067
X0.73067 Y0.55133
X0.73133 Y0.55133
X0.73133 Y0.55200
X0.73200 Y0.55200
X0.73200 Y0.55267
X0.73267 Y0.55267
X0.73267 Y0.55333
X0.73333 Y0.55333
X0.73333 Y0.55400
X0.73400 Y0.55400
X0.73400 Y0.55467
X0.73467 Y0.55467
X0.73467 Y0.55533
X0.73533 Y0.55533
X0.73533 Y0.55600
X0.73600 Y0.55600
X0.73600 Y0.55667
X0.73667 Y0.55667
X0.73667 Y0.55733
X0.73733 Y0.55733
X0.73733 Y0.55800
X0.73800 Y0.55800
X0.73800 Y0.55867
X0.73867 Y0.55867
X0.73867 Y0.55933
X0.73933 Y0.55933
X0.73933 Y0.56000
X0.74000 Y0.56000
X0.74000 Y0.56067
X0.74067 Y0.56067
X0.74067 Y0.56133
X0.74133 Y0.56133
X0.74133 Y0.56200
X0.74200 Y0.56200
X0.74200 Y0.56267
X0.74267 Y0.56267
X0.74267 Y0.56333
X0.74333 Y0.56333
X0.74333 Y0.56400
X0.74400 Y0.56400
X0.74400 Y0.56467
X0.74467 Y0.56467
X0.74467 Y0.56533
X0.74533 Y0.56533
X0.74533 Y0.56600
X0.74600 Y0.56600
X0.74600 Y0.56667
X0.74667 Y0.56667
X0.74667 Y0.56733
X0.74733 Y0.56733
X0.74733 Y0.56800
X0.74800 Y0.56800
X0.74800 Y0.56867
X0.74867 Y0.56867
X0.74867 Y0.56933
X0.74933 Y0.56933
X0.74933 Y0.57000
X0.75000 Y0.57000
X0.75000 Y0.57067
X0.75067 Y0.57067
X0.75067 Y0.57267
X0.75200 Y0.57267
X0.75200 Y0.57467
X0.75267 Y0.57467
X0.75267 Y0.68267
X0.75200 Y0.68267
X0.75200 Y0.68467
X0.75133 Y0.68467
X0.75133 Y0.68600
X0.75067 Y0.68600
X0.75067 Y0.68733
X0.75000 Y0.68733
X0.75000 Y0.68800
X0.74867 Y0.68800
X0.74867 Y0.68867
X0.74733 Y0.68867
X0.74733 Y0.68933
X0.74533 Y0.68933
X0.74533 Y0.69000
X0.74067 Y0.69000
X0.74067 Y0.69067
X0.73867 Y0.69067
X0.73867 Y0.69133
X0.73667 Y0.69133
X0.73667 Y0.69333
X0.73600 Y0.69333
X0.73600 Y0.69533
X0.73533 Y0.69533
X0.73533 Y0.75800
X0.73600 Y0.75800
X0.73600 Y0.76000
X0.73667 Y0.76000
X0.73667 Y0.83000
X0.73600 Y0.83000
X0.73600 Y0.83200
X0.73533 Y0.83200
X0.73533 Y0.83333
X0.73467 Y0.83333
X0.73467 Y0.83467
X0.73400 Y0.83467
X0.73400 Y0.83533
X0.73267 Y0.83533
X0.73267 Y0.83600
X0.73133 Y0.83600
X0.73133 Y0.83667
X0.72933 Y0.83667
X0.72933 Y0.83733
X0.72133 Y0.83733
X0.72133 Y0.83800
X0.71933 Y0.83800
X0.71933 Y0.83867
X0.71733 Y0.83867
X0.71733 Y0.83933
X0.71667 Y0.83933
X0.71667 Y0.84000
X0.71600 Y0.84000
X0.71600 Y0.84200
X0.71533 Y0.84200
X0.71533 Y0.84400
X0.71467 Y0.84400
X0.71467 Y0.85400
X0.71400 Y0.85400
X0.71400 Y0.85600
X0.71333 Y0.85600
X0.71333 Y0.85733
X0.71267 Y0.85733
X0.71267 Y0.85867
X0.71200 Y0.85867
X0.71200 Y0.85933
X0.71067 Y0.85933
X0.71067 Y0.86000
X0.70933 Y0.86000
X0.70933 Y0.86067
X0.70733 Y0.86067
X0.70733 Y0.86133
X0.69933 Y0.86133
X0.69933 Y0.86200
X0.69600 Y0.86200
X0.69600 Y0.86267
X0.69400 Y0.86267
X0.69400 Y0.86333
X0.69267 Y0.86333
X0.69267 Y0.86400
X0.69133 Y0.86400
X0.69133 Y0.86467
X0.69000 Y0.86467
X0.69000 Y0.86600
X0.68933 Y0.86600
X0.68933 Y0.86667
X0.68800 Y0.86667
X0.68800 Y0.86733
X0.68733 Y0.86733
X0.68733 Y0.86800
X0.68667 Y0.86800
X0.68667 Y0.86867
X0.68600 Y0.86867
X0.68600 Y0.86933
X0.68533 Y0.86933
X0.68533 Y0.87000
X0.68467 Y0.87000
X0.68467 Y0.87067
X0.68400 Y0.87067
X0.68400 Y0.87133
X0.68333 Y0.87133
X0.68333 Y0.87200
X0.68267 Y0.87200
X0.68267 Y0.87267
X0.68200 Y0.87267
X0.68200 Y0.87333
X0.68133 Y0.87333
X0.68133 Y0.87400
X0.68067 Y0.87400
X0.68067 Y0.87467
X0.68000 Y0.87467
X0.68000 Y0.87533
X0.67933 Y0.87533
X0.67933 Y0.87600
X0.67867 Y0.87600
X0.67867 Y0.87667
X0.67800 Y0.87667
X0.67800 Y0.87733
X0.67733 Y0.87733
X0.67733 Y0.87800
X0.67667 Y0.87800
X0.67667 Y0.87867
X0.67600 Y0.87867
X0.67600 Y0.87933
X0.67533 Y0.87933
X0.67533 Y0.88000
X0.67467 Y0.88000
X0.67467 Y0.88067
X0.67400 Y0.88067
X0.67400 Y0.88133
X0.67333 Y0.88133
X0.67333 Y0.88200
X0.67267 Y0.88200
X0.67267 Y0.88267
X0.67200 Y0.88267
X0.67200 Y0.88333
X0.67133 Y0.88333
X0.67133 Y0.88400
X0.67067 Y0.88400
X0.67067 Y0.88467
X0.67000 Y0.88467
X0.67000 Y0.88533
X0.66933 Y0.88533
X0.66933 Y0.88600
X0.66867 Y0.88600
X0.66867 Y0.88667
X0.66800 Y0.88667
X0.66800 Y0.88733
X0.66733 Y0.88733
X0.66733 Y0.88800
X0.66667 Y0.88800
X0.66667 Y0.88867
X0.66600 Y0.88867
X0.66600 Y0.88933
X0.66533 Y0.88933
X0.66533 Y0.89000
X0.66467 Y0.89000
X0.66467 Y0.89067
X0.66400 Y0.89067
X0.66400 Y0.89133
X0.66333 Y0.89133
X0.66333 Y0.89200
X0.66267 Y0.89200
X0.66267 Y0.89267
X0.66200 Y0.89267
X0.66200 Y0.89333
X0.66133 Y0.89333
X0.66133 Y0.89400
X0.66067 Y0.89400
X0.66067 Y0.89467
X0.66000 Y0.89467
X0.66000 Y0.89533
X0.65933 Y0.89533
X0.65933 Y0.89600
X0.65867 Y0.89600
X0.65867 Y0.89667
X0.65800 Y0.89667
X0.65800 Y0.89733
X0.65733 Y0.89733
X0.65733 Y0.89800
X0.65667 Y0.89800
X0.65667 Y0.89867
X0.65600 Y0.89867
X0.65600 Y0.89933
X0.65533 Y0.89933
X0.65533 Y0.90000
X0.65467 Y0.90000
X0.65467 Y0.90067
X0.65400 Y0.90067
X0.65400 Y0.90133
X0.65333 Y0.90133
X0.65333 Y0.90200
X0.65267 Y0.90200
X0.65267 Y0.90267
X0.65200 Y0.90267
X0.65200 Y0.90333
X0.65133 Y0.90333
X0.65133 Y0.90400
X0.65067 Y0.90400
X0.65067 Y0.90467
X0.65000 Y0.90467
X0.65000 Y0.90533
X0.64933 Y0.90533
X0.64933 Y0.90600
X0.64867 Y0.90600
X0.64867 Y0.90667
X0.64800 Y0.90667
X0.64800 Y0.90733
X0.64733 Y0.90733
X0.64733 Y0.90800
X0.64667 Y0.90800
X0.64667 Y0.90867
X0.64600 Y0.90867
X0.64600 Y0.90933
X0.64533 Y0.90933
X0.64533 Y0.91000
X0.64467 Y0.91000
X0.64467 Y0.91067
X0.64400 Y0.91067
X0.64400 Y0.91133
X0.64333 Y0.91133
X0.64333 Y0.91200
X0.64267 Y0.91200
X0.64267 Y0.91267
X0.64200 Y0.91267
X0.64200 Y0.91333
X0.64133 Y0.91333
X0.64133 Y0.91400
X0.64067 Y0.91400
X0.64067 Y0.91467
X0.64000 Y0.91467
X0.64000 Y0.91533
X0.63933 Y0.91533
X0.63933 Y0.91667
X0.63867 Y0.91667
X0.63867 Y0.91800
X0.63800 Y0.91800
X0.63800 Y0.91933
X0.63733 Y0.91933
X0.63733 Y0.92133
X0.63667 Y0.92133
X0.63667 Y0.92467
X0.63600 Y0.92467
X0.63600 Y1.12600
X0.63667 Y1.12600
X0.63667 Y1.12933
X0.63733 Y1.12933
X0.63733 Y1.13067
X0.63800 Y1.13067
X0.63800 Y1.13200
X0.63867 Y1.13200
X0.63867 Y1.13333
X0.63933 Y1.13333
X0.63933 Y1.13467
X0.64000 Y1.13467
X0.64000 Y1.13533
X0.64067 Y1.13533
X0.64067 Y1.13600
X0.64133 Y1.13600
X0.64133 Y1.13667
X0.64200 Y1.13667
X0.64200 Y1.13733
X0.64267 Y1.13733
X0.64267 Y1.13800
X0.64333 Y1.13800
X0.64333 Y1.13867
X0.64400 Y1.13867
X0.64400 Y1.13933
X0.64467 Y1.13933
X0.64467 Y1.14000
X0.64533 Y1.14000
X0.64533 Y1.14067
X0.64600 Y1.14067
X0.64600 Y1.14133
X0.64667 Y1.14133
X0.64667 Y1.14200
X0.64733 Y1.14200
X0.64733 Y1.14267
X0.64800 Y1.14267
X0.64800 Y1.14333
X0.64867 Y1.14333
X0.64867 Y1.14400
X0.64933 Y1.14400
X0.64933 Y1.14467
X0.65000 Y1.14467
X0.65000 Y1.14533
X0.65067 Y1.14533
X0.65067 Y1.14600
X0.65133 Y1.14600
X0.65133 Y1.14667
X0.65200 Y1.14667
X0.65200 Y1.14733
X0.65267 Y1.14733
X0.65267 Y1.14800
X0.65333 Y1.14800
X0.65333 Y1.14867
X0.65400 Y1.14867
X0.65400 Y1.14933
X0.65467 Y1.14933
X0.65467 Y1.15000
X0.65533 Y1.15000
X0.65533 Y1.15067
X0.65600 Y1.15067
X0.65600 Y1.15133
X0.65667 Y1.15133
X0.65667 Y1.15200
X0.65733 Y1.15200
X0.65733 Y1.15267
X0.65800 Y1.15267
X0.65800 Y1.15333
X0.65867 Y1.15333
X0.65867 Y1.15400
X0.65933 Y1.15400
X0.65933 Y1.15467
X0.66000 Y1.15467
X0.66000 Y1.15533
X0.66067 Y1.15533
X0.66067 Y1.15600
X0.66133 Y1.15600
X0.66133 Y1.15667
X0.66200 Y1.15667
X0.66200 Y1.15733
X0.66267 Y1.15733
X0.66267 Y1.15800
X0.66333 Y1.15800
X0.66333 Y1.15867
X0.66400 Y1.15867
X0.66400 Y1.15933
X0.66467 Y1.15933
X0.66467 Y1.16000
X0.66533 Y1.16000
X0.66533 Y1.16067
X0.66600 Y1.16067
X0.66600 Y1.16133
X0.66667 Y1.16133
X0.66667 Y1.16200
X0.66733 Y1.16200
X0.66733 Y1.16267
X0.66800 Y1.16267
X0.66800 Y1.16333
X0.66867 Y1.16333
X0.66867 Y1.16400
X0.66933 Y1.16400
X0.66933 Y1.16467
X0.67000 Y1.16467
X0.67000 Y1.16533
X0.67067 Y1.16533
X0.67067 Y1.16600
X0.67133 Y1.16600
X0.67133 Y1.16667
X0.67200 Y1.16667
X0.67200 Y1.16733
X0.67267 Y1.16733
X0.67267 Y1.16800
X0.67333 Y1.16800
X0.67333 Y1.16867
X0.67400 Y1.16867
X0.67400 Y1.16933
X0.67467 Y1.16933
X0.67467 Y1.17000
X0.67533 Y1.17000
X0.67533 Y1.17067
X0.67600 Y1.17067
X0.67600 Y1.17133
X0.67667 Y1.17133
X0.67667 Y1.17200
X0.67733 Y1.17200
X0.67733 Y1.17267
X0.67800 Y1.17267
X0.67800 Y1.17333
X0.67867 Y1.17333
X0.67867 Y1.17400
X0.67933 Y1.17400
X0.67933 Y1.17467
X0.68000 Y1.17467
X0.68000 Y1.17533
X0.68067 Y1.17533
X0.68067 Y1.17600
X0.68133 Y1.17600
X0.68133 Y1.17667
X0.68200 Y1.17667
X0.68200 Y1.17733
X0.68267 Y1.17733
X0.68267 Y1.17800
X0.68333 Y1.17800
X0.68333 Y1.17867
X0.68400 Y1.17867
X0.68400 Y1.17933
X0.68467 Y1.17933
X0.68467 Y1.18000
X0.68533 Y1.18000
X0.68533 Y1.18067
X0.68600 Y1.18067
X0.68600 Y1.18133
X0.68667 Y1.18133
X0.68667 Y1.18200
X0.68733 Y1.18200
X0.68733 Y1.18267
X0.68800 Y1.18267
X0.68800 Y1.18333
X0.68867 Y1.18333
X0.68867 Y1.18400
X0.68933 Y1.18400
X0.68933 Y1.18467
X0.69000 Y1.18467
X0.69000 Y1.18533
X0.69067 Y1.18533
X0.69067 Y1.18600
X0.69133 Y1.18600
X0.69133 Y1.18667
X0.69200 Y1.18667
X0.69200 Y1.18733
X0.69267 Y1.18733
X0.69267 Y1.18800
X0.69333 Y1.18800
X0.69333 Y1.18867
X0.69400 Y1.18867
X0.69400 Y1.18933
X0.69467 Y1.18933
X0.69467 Y1.19000
X0.69533 Y1.19000
X0.69533 Y1.19067
X0.69600 Y1.19067
X0.69600 Y1.19133
X0.69667 Y1.19133
X0.69667 Y1.19200
X0.69733 Y1.19200
X0.69733 Y1.19267
X0.69800 Y1.19267
X0.69800 Y1.19333
X0.69867 Y1.19333
X0.69867 Y1.19400
X0.69933 Y1.19400
X0.69933 Y1.19467
X0.70000 Y1.19467
X0.70000 Y1.19533
X0.70067 Y1.19533
X0.70067 Y1.19600
X0.70133 Y1.19600
X0.70133 Y1.19667
X0.70200 Y1.19667
X0.70200 Y1.19733
X0.70267 Y1.19733
X0.70267 Y1.19800
X0.70333 Y1.19800
X0.70333 Y1.19867
X0.70400 Y1.19867
X0.70400 Y1.19933
X0.70467 Y1.19933
X0.70467 Y1.20000
X0.70533 Y1.20000
X0.70533 Y1.20067
X0.70600 Y1.20067
X0.70600 Y1.20133
X0.70667 Y1.20133
X0.70667 Y1.20200
X0.70733 Y1.20200
X0.70733 Y1.20267
X0.70800 Y1.20267
X0.70800 Y1.20333
X0.70867 Y1.20333
X0.70867 Y1.20400
X0.70933 Y1.20400
X0.70933 Y1.20467
X0.71000 Y1.20467
X0.71000 Y1.20533
X0.71067 Y1.20533
X0.71067 Y1.20600
X0.71133 Y1.20600
X0.71133 Y1.20667
X0.71200 Y1.20667
X0.71200 Y1.20733
X0.71267 Y1.20733
X0.71267 Y1.20800
X0.71333 Y1.20800
X0.71333 Y1.20867
X0.71400 Y1.20867
X0.71400 Y1.20933
X0.71467 Y1.20933
X0.71467 Y1.21000
X0.71533 Y1.21000
X0.71533 Y1.21067
X0.71600 Y1.21067
X0.71600 Y1.21133
X0.71667 Y1.21133
X0.71667 Y1.21200
X0.71733 Y1.21200
X0.71733 Y1.21267
X0.71800 Y1.21267
X0.71800 Y1.21333
X0.71867 Y1.21333
X0.71867 Y1.21400
X0.71933 Y1.21400
X0.71933 Y1.21467
X0.72000 Y1.21467
X0.72000 Y1.21533
X0.72067 Y1.21533
X0.72067 Y1.21600
X0.72133 Y1.21600
X0.72133 Y1.21667
X0.72200 Y1.21667
X0.72200 Y1.21733
X0.72267 Y1.21733
X0.72267 Y1.21800
X0.72333 Y1.21800
X0.72333 Y1.21867
X0.72400 Y1.21867
X0.72400 Y1.21933
X0.72467 Y1.21933
X0.72467 Y1.22000
X0.72533 Y1.22000
X0.72533 Y1.22067
X0.72600 Y1.22067
X0.72600 Y1.22133
X0.72667 Y1.22133
X0.72667 Y1.22200
X0.72733 Y1.22200
X0.72733 Y1.22267
X0.72800 Y1.22267
X0.72800 Y1.22333
X0.72867 Y1.22333
X0.72867 Y1.22400
X0.72933 Y1.22400
X0.72933 Y1.22467
X0.73000 Y1.22467
X0.73000 Y1.22533
X0.73067 Y1.22533
X0.73067 Y1.22600
X0.73133 Y1.22600
X0.73133 Y1.22667
X0.73200 Y1.22667
X0.73200 Y1.22733
X0.73267 Y1.22733
X0.73267 Y1.22800
X0.73333 Y1.22800
X0.73333 Y1.22867
X0.73400 Y1.22867
X0.73400 Y1.22933
X0.73467 Y1.22933
X0.73467 Y1.23000
X0.73533 Y1.23000
X0.73533 Y1.23067
X0.73600 Y1.23067
X0.73600 Y1.23133
X0.73667 Y1.23133
X0.73667 Y1.23200
X0.73733 Y1.23200
X0.73733 Y1.23267
X0.73800 Y1.23267
X0.73800 Y1.23333
X0.73867 Y1.23333
X0.73867 Y1.23400
X0.73933 Y1.23400
X0.73933 Y1.23467
X0.74000 Y1.23467
X0.74000 Y1.23533
X0.74067 Y1.23533
X0.74067 Y1.23600
X0.74133 Y1.23600
X0.74133 Y1.23667
X0.74200 Y1.23667
X0.74200 Y1.23733
X0.74267 Y1.23733
X0.74267 Y1.23800
X0.74333 Y1.23800
X0.74333 Y1.23867
X0.74400 Y1.23867
X0.74400 Y1.23933
X0.74467 Y1.23933
X0.74467 Y1.24000
X0.74533 Y1.24000
X0.74533 Y1.24067
X0.74600 Y1.24067
X0.74600 Y1.24133
X0.74667 Y1.24133
X0.74667 Y1.24200
X0.74733 Y1.24200
X0.74733 Y1.24267
X0.74800 Y1.24267
X0.74800 Y1.24333
X0.74867 Y1.24333
X0.74867 Y1.24400
X0.74933 Y1.24400
X0.74933 Y1.24467
X0.75000 Y1.24467
X0.75000 Y1.24533
X0.75067 Y1.24533
X0.75067 Y1.24600
X0.75133 Y1.24600
X0.75133 Y1.24667
X0.75200 Y1.24667
X0.75200 Y1.24733
X0.75267 Y1.24733
X0.75267 Y1.24800
X0.75333 Y1.24800
X0.75333 Y1.24867
X0.75400 Y1.24867
X0.75400 Y1.24933
X0.75467 Y1.24933
X0.75467 Y1.25000
X0.75533 Y1.25000
X0.75533 Y1.25067
X0.75600 Y1.25067
X0.75600 Y1.25133
X0.75667 Y1.25133
X0.75667 Y1.25200
X0.75733 Y1.25200
X0.75733 Y1.25267
X0.75800 Y1.25267
X0.75800 Y1.25333
X0.75867 Y1.25333
X0.75867 Y1.25400
X0.75933 Y1.25400
X0.75933 Y1.25467
X0.76000 Y1.25467
X0.76000 Y1.25533
X0.76067 Y1.25533
X0.76067 Y1.25600
X0.76133 Y1.25600
X0.76133 Y1.25667
X0.76200 Y1.25667
X0.76200 Y1.25733
X0.76267 Y1.25733
X0.76267 Y1.25800
X0.76333 Y1.25800
X0.76333 Y1.25867
X0.76400 Y1.25867
X0.76400 Y1.25933
X0.76467 Y1.25933
X0.76467 Y1.26000
X0.76533 Y1.26000
X0.76533 Y1.26067
X0.76600 Y1.26067
X0.76600 Y1.26133
X0.76667 Y1.26133
X0.76667 Y1.26200
X0.76733 Y1.26200
X0.76733 Y1.26267
X0.76800 Y1.26267
X0.76800 Y1.26333
X0.76867 Y1.26333
X0.76867 Y1.26400
X0.76933 Y1.26400
X0.76933 Y1.26467
X0.77000 Y1.26467
X0.77000 Y1.26533
X0.77067 Y1.26533
X0.77067 Y1.26600
X0.77133 Y1.26600
X0.77133 Y1.26667
X0.77200 Y1.26667
X0.77200 Y1.26733
X0.77267 Y1.26733
X0.77267 Y1.26800
X0.77333 Y1.26800
X0.77333 Y1.26867
X0.77400 Y1.26867
X0.77400 Y1.26933
X0.77467 Y1.26933
X0.77467 Y1.27000
X0.77533 Y1.27000
X0.77533 Y1.27067
X0.77600 Y1.27067
X0.77600 Y1.27133
X0.77667 Y1.27133
X0.77667 Y1.27200
X0.77733 Y1.27200
X0.77733 Y1.27267
X0.77800 Y1.27267
X0.77800 Y1.27333
X0.77867 Y1.27333
X0.77867 Y1.27400
X0.77933 Y1.27400
X0.77933 Y1.27467
X0.78000 Y1.27467
X0.78000 Y1.27533
X0.78067 Y1.27533
X0.78067 Y1.27600
X0.78133 Y1.27600
X0.78133 Y1.27667
X0.78200 Y1.27667
X0.78200 Y1.27733
X0.78267 Y1.27733
X0.78267 Y1.27800
X0.78333 Y1.27800
X0.78333 Y1.27933
X0.78400 Y1.27933
X0.78400 Y1.28067
X0.78467 Y1.28067
X0.78467 Y1.28133
X0.78533 Y1.28133
X0.78533 Y1.28333
X0.78600 Y1.28333
X0.78600 Y1.44200
X0.78533 Y1.44200
X0.78533 Y1.44400
X0.78467 Y1.44400
X0.78467 Y1.44467
X0.78400 Y1.44467
X0.78400 Y1.44600
X0.78333 Y1.44600
X0.78333 Y1.44733
X0.78267 Y1.44733
X0.78267 Y1.44800
X0.78200 Y1.44800
X0.78200 Y1.44867
X0.78133 Y1.44867
X0.78133 Y1.44933
X0.78067 Y1.44933
X0.78067 Y1.45000
X0.78000 Y1.45000
X0.78000 Y1.45067
X0.77933 Y1.45067
X0.77933 Y1.45133
X0.77867 Y1.45133
X0.77867 Y1.45200
X0.77800 Y1.45200
X0.77800 Y1.45267
X0.77733 Y1.45267
X0.77733 Y1.45333
X0.77667 Y1.45333
X0.77667 Y1.45400
X0.77600 Y1.45400
X0.77600 Y1.45467
X0.77533 Y1.45467
X0.77533 Y1.45533
X0.77467 Y1.45533
X0.77467 Y1.45600
X0.77400 Y1.45600
X0.77400 Y1.45667
X0.77333 Y1.45667
X0.77333 Y1.45733
X0.77267 Y1.45733
X0.77267 Y1.45800
X0.77200 Y1.45800
X0.77200 Y1.45867
X0.77133 Y1.45867
X0.77133 Y1.45933
X0.77067 Y1.45933
X0.77067 Y1.46000
X0.77000 Y1.46000
X0.77000 Y1.46067
X0.76933 Y1.46067
X0.76933 Y1.46133
X0.76867 Y1.46133
X0.76867 Y1.46200
X0.76800 Y1.46200
X0.76800 Y1.46267
X0.76733 Y1.46267
X0.76733 Y1.46333
X0.76667 Y1.46333
X0.76667 Y1.46400
X0.76600 Y1.46400
X0.76600 Y1.46467
X0.76533 Y1.46467
X0.76533 Y1.46533
X0.76467 Y1.46533
X0.76467 Y1.46600
X0.76400 Y1.46600
X0.76400 Y1.46667
X0.76333 Y1.46667
X0.76333 Y1.46733
X0.76267 Y1.46733
X0.76267 Y1.46800
X0.76200 Y1.46800
X0.76200 Y1.46867
X0.76133 Y1.46867
X0.76133 Y1.46933
X0.76067 Y1.46933
X0.76067 Y1.47000
X0.76000 Y1.47000
X0.76000 Y1.47067
X0.75933 Y1.47067
X0.75933 Y1.47133
X0.75867 Y1.47133
X0.75867 Y1.47200
X0.75800 Y1.47200
X0.75800 Y1.47267
X0.75733 Y1.47267
X0.75733 Y1.47333
X0.75667 Y1.47333
X0.75667 Y1.47400
X0.75600 Y1.47400
X0.75600 Y1.47467
X0.75533 Y1.47467
X0.75533 Y1.47533
X0.75467 Y1.47533
X0.75467 Y1.47600
X0.75400 Y1.47600
X0.75400 Y1.47667
X0.75333 Y1.47667
X0.75333 Y1.47733
X0.75267 Y1.47733
X0.75267 Y1.47800
X0.75200 Y1.47800
X0.75200 Y1.47867
X0.75133 Y1.47867
X0.75133 Y1.47933
X0.75067 Y1.47933
X0.75067 Y1.48000
X0.75000 Y1.48000
X0.75000 Y1.48067
X0.74933 Y1.48067
X0.74933 Y1.48133
X0.74867 Y1.48133
X0.74867 Y1.48200
X0.74800 Y1.48200
X0.74800 Y1.48267
X0.74733 Y1.48267
X0.74733 Y1.48333
X0.74667 Y1.48333
X0.74667 Y1.48400
X0.74600 Y1.48400
X0.74600 Y1.48467
X0.74400 Y1.48467
X0.74400 Y1.48533
X0.74333 Y1.48533
X0.74333 Y1.48600
X0.74133 Y1.48600
X0.74133 Y1.48667
X0.63333 Y1.48667
X0.63333 Y1.48600
X0.63133 Y1.48600
X0.63133 Y1.48533
X0.63067 Y1.48533
X0.63067 Y1.48467
X0.62867 Y1.48467
X0.62867 Y1.48400
X0.62800 Y1.48400
X0.62800 Y1.48333
X0.62733 Y1.48333
X0.62733 Y1.48267
X0.62667 Y1.48267
X0.62667 Y1.48200
X0.62600 Y1.48200
X0.62600 Y1.48133
X0.62533 Y1.48133
X0.62533 Y1.48067
X0.62467 Y1.48067
X0.62467 Y1.48000
X0.62400 Y1.48000
X0.62400 Y1.47933
X0.62333 Y1.47933
X0.62333 Y1.47867
X0.62267 Y1.47867
X0.62267 Y1.47800
X0.62200 Y1.47800
X0.62200 Y1.47733
X0.62133 Y1.47733
X0.62133 Y1.47667
X0.62067 Y1.47667
X0.62067 Y1.47600
X0.62000 Y1.47600
X0.62000 Y1.47533
X0.61933 Y1.47533
X0.61933 Y1.47467
X0.61867 Y1.47467
X0.61867 Y1.47400
X0.61800 Y1.47400
X0.61800 Y1.47333
X0.61733 Y1.47333
X0.61733 Y1.47267
X0.61667 Y1.47267
X0.61667 Y1.47200
X0.61600 Y1.47200
X0.61600 Y1.47133
X0.61533 Y1.47133
X0.61533 Y1.46933
X0.61467 Y1.46933
X0.61467 Y1.46867
X0.61400 Y1.46867
X0.61400 Y1.46667
X0.61333 Y1.46667
X0.61333 Y1.43400
X0.61467 Y1.43400
X0.61467 Y1.43333
X0.61533 Y1.43333
X0.61533 Y1.43267
X0.61600 Y1.43267
X0.61600 Y1.43200
X0.61667 Y1.43200
X0.61667 Y1.43133
X0.61733 Y1.43133
X0.61733 Y1.43067
X0.61800 Y1.43067
X0.61800 Y1.43000
X0.61867 Y1.43000
X0.61867 Y1.42933
X0.61933 Y1.42933
X0.61933 Y1.42867
X0.62000 Y1.42867
X0.62000 Y1.42800
X0.62067 Y1.42800
X0.62067 Y1.42733
X0.62133 Y1.42733
X0.62133 Y1.42667
X0.62200 Y1.42667
X0.62200 Y1.42600
X0.62267 Y1.42600
X0.62267 Y1.42533
X0.62333 Y1.42533
X0.62333 Y1.42467
X0.62400 Y1.42467
X0.62400 Y1.42400
X0.62467 Y1.42400
X0.62467 Y1.42333
X0.62533 Y1.42333
X0.62533 Y1.42267
X0.62600 Y1.42267
X0.62600 Y1.42200
X0.62667 Y1.42200
X0.62667 Y1.42133
X0.62733 Y1.42133
X0.62733 Y1.42067
X0.62800 Y1.42067
X0.62800 Y1.42000
X0.62867 Y1.42000
X0.62867 Y1.41933
X0.62933 Y1.41933
X0.62933 Y1.41867
X0.63000 Y1.41867
X0.63000 Y1.41800
X0.63067 Y1.41800
X0.63067 Y1.41667
X0.63133 Y1.41667
X0.63133 Y1.41600
X0.63200 Y1.41600
X0.63200 Y1.41467
X0.63267 Y1.41467
X0.63267 Y1.41267
X0.63333 Y1.41267
X0.63333 Y1.38800
X0.63267 Y1.38800
X0.63267 Y1.38600
X0.63200 Y1.38600
X0.63200 Y1.38400
X0.63133 Y1.38400
X0.63133 Y1.38333
X0.63067 Y1.38333
X0.63067 Y1.38267
X0.63000 Y1.38267
X0.63000 Y1.38200
X0.62933 Y1.38200
X0.62933 Y1.38133
X0.62867 Y1.38133
X0.62867 Y1.38067
X0.62800 Y1.38067
X0.62800 Y1.38000
X0.62733 Y1.38000
X0.62733 Y1.37933
X0.62667 Y1.37933
X0.62667 Y1.37867
X0.62600 Y1.37867
X0.62600 Y1.37800
X0.62533 Y1.37800
X0.62533 Y1.37733
X0.62467 Y1.37733
X0.62467 Y1.37667
X0.62400 Y1.37667
X0.62400 Y1.37600
X0.62333 Y1.37600
X0.62333 Y1.37533
X0.62267 Y1.37533
X0.62267 Y1.37467
X0.62200 Y1.37467
X0.62200 Y1.37400
X0.62133 Y1.37400
X0.62133 Y1.37333
X0.62067 Y1.37333
X0.62067 Y1.37267
X0.62000 Y1.37267
X0.62000 Y1.37200
X0.61933 Y1.37200
X0.61933 Y1.37133
X0.61867 Y1.37133
X0.61867 Y1.37067
X0.61800 Y1.37067
X0.61800 Y1.37000
X0.61733 Y1.37000
X0.61733 Y1.36933
X0.61667 Y1.36933
X0.61667 Y1.36867
X0.61600 Y1.36867
X0.61600 Y1.36800
X0.61400 Y1.36800
X0.61400 Y1.36733
X0.61200 Y1.36733
X0.61200 Y1.36667
X0.58600 Y1.36667
X0.58600 Y1.36733
X0.58267 Y1.36733
X0.58267 Y1.36800
X0.58067 Y1.36800
X0.58067 Y1.36867
X0.57067 Y1.36867
X0.57067 Y1.36800
X0.56867 Y1.36800
X0.56867 Y1.36733
X0.56733 Y1.36733
X0.56733 Y1.36667
X0.56600 Y1.36667
X0.56600 Y1.36600
X0.56533 Y1.36600
X0.56533 Y1.36467
X0.56467 Y1.36467
X0.56467 Y1.36333
X0.56400 Y1.36333
X0.56400 Y1.36133
X0.56333 Y1.36133
X0.56333 Y1.33600
X0.56400 Y1.33600
X0.56400 Y1.33400
X0.56467 Y1.33400
X0.56467 Y1.33267
X0.56533 Y1.33267
X0.56533 Y1.33133
X0.56600 Y1.33133
X0.56600 Y1.33067
X0.56733 Y1.33067
X0.56733 Y1.33000
X0.56867 Y1.33000
X0.56867 Y1.32933
X0.57067 Y1.32933
X0.57067 Y1.32867
X0.57533 Y1.32867
X0.57533 Y1.32800
X0.57467 Y1.32800
X0.57467 Y1.32733
X0.57400 Y1.32733
X0.57400 Y1.32667
X0.57333 Y1.32667
X0.57333 Y1.32600
X0.57267 Y1.32600
X0.57267 Y1.32533
X0.57200 Y1.32533
X0.57200 Y1.32467
X0.57133 Y1.32467
X0.57133 Y1.32400
X0.57067 Y1.32400
X0.57067 Y1.32333
X0.57000 Y1.32333
X0.57000 Y1.32267
X0.56933 Y1.32267
X0.56933 Y1.32200
X0.56867 Y1.32200
X0.56867 Y1.32133
X0.56800 Y1.32133
X0.56800 Y1.32067
X0.56733 Y1.32067
X0.56733 Y1.32000
X0.56667 Y1.32000
X0.56667 Y1.31933
X0.56600 Y1.31933
X0.56600 Y1.31867
X0.56533 Y1.31867
X0.56533 Y1.28200
X0.56600 Y1.28200
X0.56600 Y1.28133
X0.56667 Y1.28133
X0.56667 Y1.28067
X0.56733 Y1.28067
X0.56733 Y1.28000
X0.56800 Y1.28000
X0.56800 Y1.27933
X0.56867 Y1.27933
X0.56867 Y1.27867
X0.56933 Y1.27867
X0.56933 Y1.27800
X0.57000 Y1.27800
X0.57000 Y1.27733
X0.57067 Y1.27733
X0.57067 Y1.27667
X0.57133 Y1.27667
X0.57133 Y1.27600
X0.57200 Y1.27600
X0.57200 Y1.27533
X0.57267 Y1.27533
X0.57267 Y1.27467
X0.57333 Y1.27467
X0.57333 Y1.27400
X0.57400 Y1.27400
X0.57400 Y1.27333
X0.57467 Y1.27333
X0.57467 Y1.27267
X0.57533 Y1.27267
X0.57533 Y1.27200
X0.57600 Y1.27200
X0.57600 Y1.27133
X0.57067 Y1.27133
X0.57067 Y1.27067
X0.56867 Y1.27067
X0.56867 Y1.27000
X0.56733 Y1.27000
X0.56733 Y1.26933
X0.56600 Y1.26933
X0.56600 Y1.26867
X0.56533 Y1.26867
X0.56533 Y1.26733
X0.56467 Y1.26733
X0.56467 Y1.26600
X0.56400 Y1.26600
X0.56400 Y1.26400
X0.56333 Y1.26400
X0.56333 Y1.14933
X0.56267 Y1.14933
X0.56267 Y1.14533
X0.56200 Y1.14533
X0.56200 Y1.14333
X0.56133 Y1.14333
X0.56133 Y1.14267
X0.56067 Y1.14267
X0.56067 Y1.14200
X0.56000 Y1.14200
X0.56000 Y1.14067
X0.55933 Y1.14067
X0.55933 Y1.14000
X0.55867 Y1.14000
X0.55867 Y1.13933
X0.55800 Y1.13933
X0.55800 Y1.13867
X0.55733 Y1.13867
X0.55733 Y1.13800
X0.55667 Y1.13800
X0.55667 Y1.13733
X0.55600 Y1.13733
X0.55600 Y1.13667
X0.55533 Y1.13667
X0.55533 Y1.13600
X0.55467 Y1.13600
X0.55467 Y1.13533
X0.55400 Y1.13533
X0.55400 Y1.13467
X0.55333 Y1.13467
X0.55333 Y1.13400
X0.55267 Y1.13400
X0.55267 Y1.13333
X0.55200 Y1.13333
X0.55200 Y1.13267
X0.55133 Y1.13267
X0.55133 Y1.13200
X0.55067 Y1.13200
X0.55067 Y1.13133
X0.55000 Y1.13133
X0.55000 Y1.13067
X0.54933 Y1.13067
X0.54933 Y1.13000
X0.54867 Y1.13000
X0.54867 Y1.12933
X0.54800 Y1.12933
X0.54800 Y1.12867
X0.54733 Y1.12867
X0.54733 Y1.12800
X0.54667 Y1.12800
X0.54667 Y1.12733
X0.54600 Y1.12733
X0.54600 Y1.12667
X0.54533 Y1.12667
X0.54533 Y1.12600
X0.54467 Y1.12600
X0.54467 Y1.12533
X0.54400 Y1.12533
X0.54400 Y1.12467
X0.54333 Y1.12467
X0.54333 Y1.12400
X0.54267 Y1.12400
X0.54267 Y1.12333
X0.54200 Y1.12333
X0.54200 Y1.12267
X0.54133 Y1.12267
X0.54133 Y1.12200
X0.54067 Y1.12200
X0.54067 Y1.12133
X0.54000 Y1.12133
X0.54000 Y1.12067
X0.53933 Y1.12067
X0.53933 Y1.12000
X0.53867 Y1.12000
X0.53867 Y1.11933
X0.53800 Y1.11933
X0.53800 Y1.11867
X0.53733 Y1.11867
X0.53733 Y1.11800
X0.53667 Y1.11800
X0.53667 Y1.11733
X0.53600 Y1.11733
X0.53600 Y1.11667
X0.53533 Y1.11667
X0.53533 Y1.11600
X0.53467 Y1.11600
X0.53467 Y1.11533
X0.53400 Y1.11533
X0.53400 Y1.11467
X0.53333 Y1.11467
X0.53333 Y1.11400
X0.53267 Y1.11400
X0.53267 Y1.11333
X0.53200 Y1.11333
X0.53200 Y1.11267
X0.53133 Y1.11267
X0.53133 Y1.11200
X0.53067 Y1.11200
X0.53067 Y1.11133
X0.53000 Y1.11133
X0.53000 Y1.11067
X0.52933 Y1.11067
X0.52933 Y1.11000
X0.52867 Y1.11000
X0.52867 Y1.10933
X0.52800 Y1.10933
X0.52800 Y1.10867
X0.52733 Y1.10867
X0.52733 Y1.10800
X0.52667 Y1.10800
X0.52667 Y1.10733
X0.52600 Y1.10733
X0.52600 Y1.10667
X0.52533 Y1.10667
X0.52533 Y1.10600
X0.52467 Y1.10600
X0.52467 Y1.10533
X0.52400 Y1.10533
X0.52400 Y1.10467
X0.52333 Y1.10467
X0.52333 Y1.10400
X0.52267 Y1.10400
X0.52267 Y1.10333
X0.52200 Y1.10333
X0.52200 Y1.10267
X0.52133 Y1.10267
X0.52133 Y1.10200
X0.52067 Y1.10200
X0.52067 Y1.10133
X0.52000 Y1.10133
X0.52000 Y1.10067
X0.51933 Y1.10067
X0.51933 Y1.10000
X0.51867 Y1.10000
X0.51867 Y1.09933
X0.51800 Y1.09933
X0.51800 Y1.09867
X0.51733 Y1.09867
X0.51733 Y1.09800
X0.51667 Y1.09800
X0.51667 Y1.09733
X0.51600 Y1.09733
X0.51600 Y1.09667
X0.51533 Y1.09667
X0.51533 Y1.09600
X0.51467 Y1.09600
X0.51467 Y1.09533
X0.51400 Y1.09533
X0.51400 Y1.09467
X0.51333 Y1.09467
X0.51333 Y1.09400
X0.51267 Y1.09400
X0.51267 Y1.09333
X0.51200 Y1.09333
X0.51200 Y1.09267
X0.51133 Y1.09267
X0.51133 Y1.09200
X0.51067 Y1.09200
X0.51067 Y1.09133
X0.51000 Y1.09133
X0.51000 Y1.09067
X0.50933 Y1.09067
X0.50933 Y1.09000
X0.50867 Y1.09000
X0.50867 Y1.08933
X0.50800 Y1.08933
X0.50800 Y1.08867
X0.50733 Y1.08867
X0.50733 Y1.08800
X0.50667 Y1.08800
X0.50667 Y1.08733
X0.50600 Y1.08733
X0.50600 Y1.08667
X0.50533 Y1.08667
X0.50533 Y1.08600
X0.50467 Y1.08600
X0.50467 Y1.08533
X0.50400 Y1.08533
X0.50400 Y1.08467
X0.50333 Y1.08467
X0.50333 Y1.08400
X0.50267 Y1.08400
X0.50267 Y1.08333
X0.50200 Y1.08333
X0.50200 Y1.08267
X0.50133 Y1.08267
X0.50133 Y1.08200
X0.50067 Y1.08200
X0.50067 Y1.08133
X0.50000 Y1.08133
X0.50000 Y1.08067
X0.49933 Y1.08067
X0.49933 Y1.08000
X0.49867 Y1.08000
X0.49867 Y1.07933
X0.49800 Y1.07933
X0.49800 Y1.07867
X0.49733 Y1.07867
X0.49733 Y1.07800
X0.49667 Y1.07800
X0.49667 Y1.07733
X0.49600 Y1.07733
X0.49600 Y1.07667
X0.49533 Y1.07667
X0.49533 Y1.07600
X0.49467 Y1.07600
X0.49467 Y1.07533
X0.49400 Y1.07533
X0.49400 Y1.07467
X0.49333 Y1.07467
X0.49333 Y1.07400
X0.49267 Y1.07400
X0.49267 Y1.07333
X0.49200 Y1.07333
X0.49200 Y1.07267
X0.49133 Y1.07267
X0.49133 Y1.07200
X0.49067 Y1.07200
X0.49067 Y1.07133
X0.49000 Y1.07133
X0.49000 Y1.07067
X0.48933 Y1.07067
X0.48933 Y1.07000
X0.48867 Y1.07000
X0.48867 Y1.06933
X0.48800 Y1.06933
X0.48800 Y1.06867
X0.48733 Y1.06867
X0.48733 Y1.06800
X0.48667 Y1.06800
X0.48667 Y1.06733
X0.48600 Y1.06733
X0.48600 Y1.06667
X0.48533 Y1.06667
X0.48533 Y1.06600
X0.48467 Y1.06600
X0.48467 Y1.06533
X0.48400 Y1.06533
X0.48400 Y1.06467
X0.48333 Y1.06467
X0.48333 Y1.06400
X0.48267 Y1.06400
X0.48267 Y1.06333
X0.48200 Y1.06333
X0.48200 Y1.06267
X0.48133 Y1.06267
X0.48133 Y1.06200
X0.48067 Y1.06200
X0.48067 Y1.06133
X0.48000 Y1.06133
X0.48000 Y1.06067
X0.47933 Y1.06067
X0.47933 Y1.06000
X0.47867 Y1.06000
X0.47867 Y1.05933
X0.47800 Y1.05933
X0.47800 Y1.05867
X0.47733 Y1.05867
X0.47733 Y1.05800
X0.47667 Y1.05800
X0.47667 Y1.05733
X0.47600 Y1.05733
X0.47600 Y1.05667
X0.47533 Y1.05667
X0.47533 Y1.05600
X0.47467 Y1.05600
X0.47467 Y1.05533
X0.47400 Y1.05533
X0.47400 Y1.05467
X0.47333 Y1.05467
X0.47333 Y1.05400
X0.47267 Y1.05400
X0.47267 Y1.05333
X0.47200 Y1.05333
X0.47200 Y1.05267
X0.47133 Y1.05267
X0.47133 Y1.05200
X0.47067 Y1.05200
X0.47067 Y1.05133
X0.47000 Y1.05133
X0.47000 Y1.05067
X0.46933 Y1.05067
X0.46933 Y1.05000
X0.46867 Y1.05000
X0.46867 Y1.04933
X0.46800 Y1.04933
X0.46800 Y1.04867
X0.46733 Y1.04867
X0.46733 Y1.04800
X0.46667 Y1.04800
X0.46667 Y1.04733
X0.46600 Y1.04733
X0.46600 Y1.04667
X0.46533 Y1.04667
X0.46533 Y1.04600
X0.46467 Y1.04600
X0.46467 Y1.04533
X0.46400 Y1.04533
X0.46400 Y1.04467
X0.46333 Y1.04467
X0.46333 Y1.04400
X0.46267 Y1.04400
X0.46267 Y1.04333
X0.46200 Y1.04333
X0.46200 Y1.04267
X0.46133 Y1.04267
X0.46133 Y1.04200
X0.46067 Y1.04200
X0.46067 Y1.04133
X0.46000 Y1.04133
X0.46000 Y1.04067
X0.45933 Y1.04067
X0.45933 Y1.04000
X0.45867 Y1.04000
X0.45867 Y1.03933
X0.45800 Y1.03933
X0.45800 Y1.03867
X0.45733 Y1.03867
X0.45733 Y1.03800
X0.45667 Y1.03800
X0.45667 Y1.03733
X0.45600 Y1.03733
X0.45600 Y1.03667
X0.45533 Y1.03667
X0.45533 Y1.03600
X0.45467 Y1.03600
X0.45467 Y1.03533
X0.45400 Y1.03533
X0.45400 Y1.03467
X0.45333 Y1.03467
X0.45333 Y1.03400
X0.45267 Y1.03400
X0.45267 Y1.03333
X0.45200 Y1.03333
X0.45200 Y1.03267
X0.45133 Y1.03267
X0.45133 Y1.03200
X0.45067 Y1.03200
X0.45067 Y1.03133
X0.45000 Y1.03133
X0.45000 Y1.03067
X0.44933 Y1.03067
X0.44933 Y1.03000
X0.44867 Y1.03000
X0.44867 Y1.02933
X0.44800 Y1.02933
X0.44800 Y1.02867
X0.44733 Y1.02867
X0.44733 Y1.02800
X0.44667 Y1.02800
X0.44667 Y1.02733
X0.44600 Y1.02733
X0.44600 Y1.02667
X0.44533 Y1.02667
X0.44533 Y1.02600
X0.44467 Y1.02600
X0.44467 Y1.02533
X0.44400 Y1.02533
X0.44400 Y1.02467
X0.44333 Y1.02467
X0.44333 Y1.02400
X0.44267 Y1.02400
X0.44267 Y1.02333
X0.44200 Y1.02333
X0.44200 Y1.02267
X0.44133 Y1.02267
X0.44133 Y1.02200
X0.44067 Y1.02200
X0.44067 Y1.02133
X0.44000 Y1.02133
X0.44000 Y1.02067
X0.43933 Y1.02067
X0.43933 Y1.02000
X0.43867 Y1.02000
X0.43867 Y1.01933
X0.43800 Y1.01933
X0.43800 Y1.01867
X0.43733 Y1.01867
X0.43733 Y1.01800
X0.43667 Y1.01800
X0.43667 Y1.01733
X0.43600 Y1.01733
X0.43600 Y1.01667
X0.43533 Y1.01667
X0.43533 Y1.01600
X0.43467 Y1.01600
X0.43467 Y1.01533
X0.43400 Y1.01533
X0.43400 Y1.01467
X0.43333 Y1.01467
X0.43333 Y1.01400
X0.43267 Y1.01400
X0.43267 Y1.01333
X0.43200 Y1.01333
X0.43200 Y1.01267
X0.43133 Y1.01267
X0.43133 Y1.01200
X0.43067 Y1.01200
X0.43067 Y1.01133
X0.43000 Y1.01133
X0.43000 Y1.01067
X0.42933 Y1.01067
X0.42933 Y1.01000
X0.42867 Y1.01000
X0.42867 Y1.00933
X0.42800 Y1.00933
X0.42800 Y1.00867
X0.42733 Y1.00867
X0.42733 Y1.00800
X0.42667 Y1.00800
X0.42667 Y1.00733
X0.42600 Y1.00733
X0.42600 Y1.00667
X0.42533 Y1.00667
X0.42533 Y1.00600
X0.42467 Y1.00600
X0.42467 Y1.00533
X0.42400 Y1.00533
X0.42400 Y1.00467
X0.42333 Y1.00467
X0.42333 Y1.00400
X0.42267 Y1.00400
X0.42267 Y1.00333
X0.42200 Y1.00333
X0.42200 Y1.00267
X0.42133 Y1.00267
X0.42133 Y1.00200
X0.42067 Y1.00200
X0.42067 Y1.00133
X0.42000 Y1.00133
X0.42000 Y1.00067
X0.41933 Y1.00067
X0.41933 Y1.00000
X0.41867 Y1.00000
X0.41867 Y0.99933
X0.41800 Y0.99933
X0.41800 Y0.99867
X0.41733 Y0.99867
X0.41733 Y0.99800
X0.41667 Y0.99800
X0.41667 Y0.99733
X0.41600 Y0.99733
X0.41600 Y0.99667
X0.41533 Y0.99667
X0.41533 Y0.99600
X0.41467 Y0.99600
X0.41467 Y0.99533
X0.41400 Y0.99533
X0.41400 Y0.99467
X0.41333 Y0.99467
X0.41333 Y0.99400
X0.41267 Y0.99400
X0.41267 Y0.99333
X0.41200 Y0.99333
X0.41200 Y0.99267
X0.41133 Y0.99267
X0.41133 Y0.99200
X0.41067 Y0.99200
X0.41067 Y0.99133
X0.41000 Y0.99133
X0.41000 Y0.99067
X0.40933 Y0.99067
X0.40933 Y0.99000
X0.40867 Y0.99000
X0.40867 Y0.98933
X0.40800 Y0.98933
X0.40800 Y0.98867
X0.40733 Y0.98867
X0.40733 Y0.98800
X0.40667 Y0.98800
X0.40667 Y0.98733
X0.40600 Y0.98733
X0.40600 Y0.98667
X0.40533 Y0.98667
X0.40533 Y0.98600
X0.40467 Y0.98600
X0.40467 Y0.98533
X0.40400 Y0.98533
X0.40400 Y0.98467
X0.40333 Y0.98467
X0.40333 Y0.98400
X0.40267 Y0.98400
X0.40267 Y0.98333
X0.40200 Y0.98333
X0.40200 Y0.98267
X0.40133 Y0.98267
X0.40133 Y0.98200
X0.40067 Y0.98200
X0.40067 Y0.98133
X0.40000 Y0.98133
X0.40000 Y0.98067
X0.39933 Y0.98067
X0.39933 Y0.98000
X0.39867 Y0.98000
X0.39867 Y0.97933
X0.39800 Y0.97933
X0.39800 Y0.97867
X0.39733 Y0.97867
X0.39733 Y0.97800
X0.39667 Y0.97800
X0.39667 Y0.97733
X0.39600 Y0.97733
X0.39600 Y0.97667
X0.39533 Y0.97667
X0.39533 Y0.97600
X0.39467 Y0.97600
X0.39467 Y0.97533
X0.39400 Y0.97533
X0.39400 Y0.97467
X0.39333 Y0.97467
X0.39333 Y0.97400
X0.39267 Y0.97400
X0.39267 Y0.97333
X0.39200 Y0.97333
X0.39200 Y0.97267
X0.39133 Y0.97267
X0.39133 Y0.97200
X0.39067 Y0.97200
X0.39067 Y0.97133
X0.39000 Y0.97133
X0.39000 Y0.97067
X0.38933 Y0.97067
X0.38933 Y0.97000
X0.38867 Y0.97000
X0.38867 Y0.96933
X0.38800 Y0.96933
X0.38800 Y0.96867
X0.38733 Y0.96867
X0.38733 Y0.96800
X0.38667 Y0.96800
X0.38667 Y0.96733
X0.38600 Y0.96733
X0.38600 Y0.96667
X0.38533 Y0.96667
X0.38533 Y0.96600
X0.38467 Y0.96600
X0.38467 Y0.96533
X0.38400 Y0.96533
X0.38400 Y0.96467
X0.38333 Y0.96467
X0.38333 Y0.96400
X0.38267 Y0.96400
X0.38267 Y0.96333
X0.38200 Y0.96333
X0.38200 Y0.96267
X0.38133 Y0.96267
X0.38133 Y0.96200
X0.38067 Y0.96200
X0.38067 Y0.96133
X0.38000 Y0.96133
X0.38000 Y0.96067
X0.37933 Y0.96067
X0.37933 Y0.96000
X0.37867 Y0.96000
X0.37867 Y0.95933
X0.37800 Y0.95933
X0.37800 Y0.95867
X0.37733 Y0.95867
X0.37733 Y0.95800
X0.37667 Y0.95800
X0.37667 Y0.95733
X0.37600 Y0.95733
X0.37600 Y0.95667
X0.37533 Y0.95667
X0.37533 Y0.95600
X0.37467 Y0.95600
X0.37467 Y0.95533
X0.37400 Y0.95533
X0.37400 Y0.95467
X0.37333 Y0.95467
X0.37333 Y0.95400
X0.37267 Y0.95400
X0.37267 Y0.95333
X0.37200 Y0.95333
X0.37200 Y0.95267
X0.37133 Y0.95267
X0.37133 Y0.95200
X0.37067 Y0.95200
X0.37067 Y0.95133
X0.37000 Y0.95133
X0.37000 Y0.95067
X0.36933 Y0.95067
X0.36933 Y0.95000
X0.36867 Y0.95000
X0.36867 Y0.94933
X0.36800 Y0.94933
X0.36800 Y0.94867
X0.36733 Y0.94867
X0.36733 Y0.94800
X0.36667 Y0.94800
X0.36667 Y0.94733
X0.36600 Y0.94733
X0.36600 Y0.94667
X0.36533 Y0.94667
X0.36533 Y0.94600
X0.36467 Y0.94600
X0.36467 Y0.94533
X0.36400 Y0.94533
X0.36400 Y0.94467
X0.36333 Y0.94467
X0.36333 Y0.94400
X0.36267 Y0.94400
X0.36267 Y0.94333
X0.36200 Y0.94333
X0.36200 Y0.94267
X0.36133 Y0.94267
X0.36133 Y0.94200
X0.36067 Y0.94200
X0.36067 Y0.94133
X0.36000 Y0.94133
X0.36000 Y0.94067
X0.35933 Y0.94067
X0.35933 Y0.94000
X0.35867 Y0.94000
X0.35867 Y0.93933
X0.35800 Y0.93933
X0.35800 Y0.93867
X0.35733 Y0.93867
X0.35733 Y0.93800
X0.35667 Y0.93800
X0.35667 Y0.93733
X0.35600 Y0.93733
X0.35600 Y0.93667
X0.35533 Y0.93667
X0.35533 Y0.93600
X0.35467 Y0.93600
X0.35467 Y0.93533
X0.35400 Y0.93533
X0.35400 Y0.93467
X0.35333 Y0.93467
X0.35333 Y0.93400
X0.35267 Y0.93400
X0.35267 Y0.93333
X0.35200 Y0.93333
X0.35200 Y0.93267
X0.35133 Y0.93267
X0.35133 Y0.93200
X0.35067 Y0.93200
X0.35067 Y0.93133
X0.35000 Y0.93133
X0.35000 Y0.93067
X0.34933 Y0.93067
X0.34933 Y0.93000
X0.34867 Y0.93000
X0.34867 Y0.92933
X0.34800 Y0.92933
X0.34800 Y0.92867
X0.34733 Y0.92867
X0.34733 Y0.92800
X0.34667 Y0.92800
X0.34667 Y0.92733
X0.34600 Y0.92733
X0.34600 Y0.92667
X0.34533 Y0.92667
X0.34533 Y0.92600
X0.34467 Y0.92600
X0.34467 Y0.92533
X0.34400 Y0.92533
X0.34400 Y0.92467
X0.34333 Y0.92467
X0.34333 Y0.92400
X0.34267 Y0.92400
X0.34267 Y0.92333
X0.34200 Y0.92333
X0.34200 Y0.92267
X0.34133 Y0.92267
X0.34133 Y0.92200
X0.34067 Y0.92200
X0.34067 Y0.92133
X0.34000 Y0.92133
X0.34000 Y0.92067
X0.33933 Y0.92067
X0.33933 Y0.92000
X0.33867 Y0.92000
X0.33867 Y0.91933
X0.33800 Y0.91933
X0.33800 Y0.91867
X0.33733 Y0.91867
X0.33733 Y0.91800
X0.33667 Y0.91800
X0.33667 Y0.91733
X0.33600 Y0.91733
X0.33600 Y0.91667
X0.33533 Y0.91667
X0.33533 Y0.91600
X0.33467 Y0.91600
X0.33467 Y0.91533
X0.33400 Y0.91533
X0.33400 Y0.91467
X0.33333 Y0.91467
X0.33333 Y0.91400
X0.33267 Y0.91400
X0.33267 Y0.91333
X0.33200 Y0.91333
X0.33200 Y0.91267
X0.33133 Y0.91267
X0.33133 Y0.91200
X0.33067 Y0.91200
X0.33067 Y0.91133
X0.33000 Y0.91133
X0.33000 Y0.91067
X0.32933 Y0.91067
X0.32933 Y0.91000
X0.32867 Y0.91000
X0.32867 Y0.90933
X0.32800 Y0.90933
X0.32800 Y0.90867
X0.32733 Y0.90867
X0.32733 Y0.90800
X0.32667 Y0.90800
X0.32667 Y0.90733
X0.32600 Y0.90733
X0.32600 Y0.90667
X0.32533 Y0.90667
X0.32533 Y0.90600
X0.32467 Y0.90600
X0.32467 Y0.90533
X0.32400 Y0.90533
X0.32400 Y0.90467
X0.32333 Y0.90467
X0.32333 Y0.90400
X0.32267 Y0.90400
X0.32267 Y0.90333
X0.32200 Y0.90333
X0.32200 Y0.90267
X0.32133 Y0.90267
X0.32133 Y0.90200
X0.32067 Y0.90200
X0.32067 Y0.90133
X0.32000 Y0.90133
X0.32000 Y0.90067
X0.31933 Y0.90067
X0.31933 Y0.90000
X0.31867 Y0.90000
X0.31867 Y0.89933
X0.31800 Y0.89933
X0.31800 Y0.89867
X0.31733 Y0.89867
X0.31733 Y0.89800
X0.31667 Y0.89800
X0.31667 Y0.89733
X0.31600 Y0.89733
X0.31600 Y0.89600
X0.31533 Y0.89600
X0.31533 Y0.89467
X0.31467 Y0.89467
X0.31467 Y0.89400
X0.31400 Y0.89400
X0.31400 Y0.89200
X0.31333 Y0.89200
X0.31333 Y0.79533
X0.31400 Y0.79533
X0.31400 Y0.79333
X0.31467 Y0.79333
X0.31467 Y0.79200
X0.31533 Y0.79200
X0.31533 Y0.79067
X0.31600 Y0.79067
X0.31600 Y0.79000
X0.31733 Y0.79000
X0.31733 Y0.78933
X0.31867 Y0.78933
X0.31867 Y0.78867
X0.32067 Y0.78867
X0.32067 Y0.78800
X0.33467 Y0.78800
X0.33467 Y0.78867
X0.33667 Y0.78867
X0.33667 Y0.78933
X0.33800 Y0.78933
X0.33800 Y0.79000
X0.33933 Y0.79000
X0.33933 Y0.79067
X0.34000 Y0.79067
X0.34000 Y0.79200
X0.34067 Y0.79200
X0.34067 Y0.79267
X0.34133 Y0.79267
X0.34133 Y0.79333
X0.34200 Y0.79333
X0.34200 Y0.79467
X0.34267 Y0.79467
X0.34267 Y0.79667
X0.34333 Y0.79667
X0.34333 Y0.79800
X0.34400 Y0.79800
X0.34400 Y0.79933
X0.34467 Y0.79933
X0.34467 Y0.80067
X0.34533 Y0.80067
X0.34533 Y0.80200
X0.34600 Y0.80200
X0.34600 Y0.80400
X0.34667 Y0.80400
X0.34667 Y0.80533
X0.34733 Y0.80533
X0.34733 Y0.80667
X0.34800 Y0.80667
X0.34800 Y0.80800
X0.34867 Y0.80800
X0.34867 Y0.80933
X0.34933 Y0.80933
X0.34933 Y0.81133
X0.35000 Y0.81133
X0.35000 Y0.81267
X0.35067 Y0.81267
X0.35067 Y0.81400
X0.35133 Y0.81400
X0.35133 Y0.81533
X0.35200 Y0.81533
X0.35200 Y0.81667
X0.35267 Y0.81667
X0.35267 Y0.81867
X0.35333 Y0.81867
X0.35333 Y0.82000
X0.35400 Y0.82000
X0.35400 Y0.82133
X0.35467 Y0.82133
X0.35467 Y0.82267
X0.35533 Y0.82267
X0.35533 Y0.82400
X0.35600 Y0.82400
X0.35600 Y0.82600
X0.35667 Y0.82600
X0.35667 Y0.82733
X0.35733 Y0.82733
X0.35733 Y0.82867
X0.35800 Y0.82867
X0.35800 Y0.83000
X0.35867 Y0.83000
X0.35867 Y0.83133
X0.35933 Y0.83133
X0.35933 Y0.83333
X0.36000 Y0.83333
X0.36000 Y0.83467
X0.36067 Y0.83467
X0.36067 Y0.83600
X0.36133 Y0.83600
X0.36133 Y0.83733
X0.36200 Y0.83733
X0.36200 Y0.83800
X0.36267 Y0.83800
X0.36267 Y0.83867
X0.36333 Y0.83867
X0.36333 Y0.83933
X0.36400 Y0.83933
X0.36400 Y0.84000
X0.36467 Y0.84000
X0.36467 Y0.84133
X0.36533 Y0.84133
X0.36533 Y0.84200
X0.36600 Y0.84200
X0.36600 Y0.84267
X0.36667 Y0.84267
X0.36667 Y0.84333
X0.36733 Y0.84333
X0.36733 Y0.84400
X0.36800 Y0.84400
X0.36800 Y0.84467
X0.36867 Y0.84467
X0.36867 Y0.84600
X0.36933 Y0.84600
X0.36933 Y0.84667
X0.37000 Y0.84667
X0.37000 Y0.84733
X0.37067 Y0.84733
X0.37067 Y0.84800
X0.37133 Y0.84800
X0.37133 Y0.84867
X0.37200 Y0.84867
X0.37200 Y0.84933
X0.37267 Y0.84933
X0.37267 Y0.85067
X0.37333 Y0.85067
X0.37333 Y0.85133
X0.37400 Y0.85133
X0.37400 Y0.85200
X0.37467 Y0.85200
X0.37467 Y0.85267
X0.37533 Y0.85267
X0.37533 Y0.85333
X0.37600 Y0.85333
X0.37600 Y0.85400
X0.37667 Y0.85400
X0.37667 Y0.85467
X0.37733 Y0.85467
X0.37733 Y0.85600
X0.37800 Y0.85600
X0.37800 Y0.85667
X0.37867 Y0.85667
X0.37867 Y0.85733
X0.37933 Y0.85733
X0.37933 Y0.85800
X0.38000 Y0.85800
X0.38000 Y0.85867
X0.38067 Y0.85867
X0.38067 Y0.85933
X0.38133 Y0.85933
X0.38133 Y0.86000
X0.38200 Y0.86000
X0.38200 Y0.86133
X0.38267 Y0.86133
X0.38267 Y0.86200
X0.38333 Y0.86200
X0.38333 Y0.86267
X0.38400 Y0.86267
X0.38400 Y0.86333
X0.38467 Y0.86333
X0.38467 Y0.86400
X0.38533 Y0.86400
X0.38533 Y0.86533
X0.38600 Y0.86533
X0.38600 Y0.86600
X0.38667 Y0.86600
X0.38667 Y0.86667
X0.38733 Y0.86667
X0.38733 Y0.86733
X0.38800 Y0.86733
X0.38800 Y0.86800
X0.38867 Y0.86800
X0.38867 Y0.86867
X0.38933 Y0.86867
X0.38933 Y0.87000
X0.39000 Y0.87000
X0.39000 Y0.87067
X0.39067 Y0.87067
X0.39067 Y0.87133
X0.39133 Y0.87133
X0.39133 Y0.87200
X0.39200 Y0.87200
X0.39200 Y0.87267
X0.39267 Y0.87267
X0.39267 Y0.87333
X0.39333 Y0.87333
X0.39333 Y0.87400
X0.39400 Y0.87400
X0.39400 Y0.87467
X0.39533 Y0.87467
X0.39533 Y0.87533
X0.39600 Y0.87533
X0.39600 Y0.87600
X0.39733 Y0.87600
X0.39733 Y0.87667
X0.39800 Y0.87667
X0.39800 Y0.87733
X0.39933 Y0.87733
X0.39933 Y0.87800
X0.40067 Y0.87800
X0.40067 Y0.87867
X0.40133 Y0.87867
X0.40133 Y0.87933
X0.40267 Y0.87933
X0.40267 Y0.88000
X0.40333 Y0.88000
X0.40333 Y0.88067
X0.40467 Y0.88067
X0.40467 Y0.88133
X0.40533 Y0.88133
X0.40533 Y0.88200
X0.40667 Y0.88200
X0.40667 Y0.88267
X0.40800 Y0.88267
X0.40800 Y0.88333
X0.40867 Y0.88333
X0.40867 Y0.88400
X0.41000 Y0.88400
X0.41000 Y0.88467
X0.41067 Y0.88467
X0.41067 Y0.88533
X0.41200 Y0.88533
X0.41200 Y0.88600
X0.41333 Y0.88600
X0.41333 Y0.88667
X0.41400 Y0.88667
X0.41400 Y0.88733
X0.41533 Y0.88733
X0.41533 Y0.88800
X0.41600 Y0.88800
X0.41600 Y0.88867
X0.41733 Y0.88867
X0.41733 Y0.88933
X0.41800 Y0.88933
X0.41800 Y0.89000
X0.41933 Y0.89000
X0.41933 Y0.89067
X0.42067 Y0.89067
X0.42067 Y0.89133
X0.42133 Y0.89133
X0.42133 Y0.89200
X0.42267 Y0.89200
X0.42267 Y0.89267
X0.42333 Y0.89267
X0.42333 Y0.89333
X0.42467 Y0.89333
X0.42467 Y0.89400
X0.42600 Y0.89400
X0.42600 Y0.89467
X0.42667 Y0.89467
X0.42667 Y0.89533
X0.42800 Y0.89533
X0.42800 Y0.89600
X0.42867 Y0.89600
X0.42867 Y0.89667
X0.43000 Y0.89667
X0.43000 Y0.89733
X0.43133 Y0.89733
X0.43133 Y0.89800
X0.43200 Y0.89800
X0.43200 Y0.89867
X0.43333 Y0.89867
X0.43333 Y0.89933
X0.43400 Y0.89933
X0.43400 Y0.90000
X0.43600 Y0.90000
X0.43600 Y0.90067
X0.43800 Y0.90067
X0.43800 Y0.90133
X0.44067 Y0.90133
X0.44067 Y0.90200
X0.44267 Y0.90200
X0.44267 Y0.90267
X0.44467 Y0.90267
X0.44467 Y0.90333
X0.44733 Y0.90333
X0.44733 Y0.90400
X0.44933 Y0.90400
X0.44933 Y0.90467
X0.45133 Y0.90467
X0.45133 Y0.90533
X0.45400 Y0.90533
X0.45400 Y0.90600
X0.45600 Y0.90600
X0.45600 Y0.90667
X0.45800 Y0.90667
X0.45800 Y0.90733
X0.46067 Y0.90733
X0.46067 Y0.90800
X0.46267 Y0.90800
X0.46267 Y0.90867
X0.46533 Y0.90867
X0.46533 Y0.90933
X0.46733 Y0.90933
X0.46733 Y0.91000
X0.46933 Y0.91000
X0.46933 Y0.91067
X0.47200 Y0.91067
X0.47200 Y0.91133
X0.47400 Y0.91133
X0.47400 Y0.91200
X0.47600 Y0.91200
X0.47600 Y0.91267
X0.47867 Y0.91267
X0.47867 Y0.91333
X0.48067 Y0.91333
X0.48067 Y0.91400
X0.51933 Y0.91400
X0.51933 Y0.91333
X0.52133 Y0.91333
X0.52133 Y0.91267
X0.52400 Y0.91267
X0.52400 Y0.91200
X0.52600 Y0.91200
X0.52600 Y0.91133
X0.52800 Y0.91133
X0.52800 Y0.91067
X0.53000 Y0.91067
X0.53000 Y0.91000
X0.53267 Y0.91000
X0.53267 Y0.90933
X0.53467 Y0.90933
X0.53467 Y0.90867
X0.53667 Y0.90867
X0.53667 Y0.90800
X0.53933 Y0.90800
X0.53933 Y0.90733
X0.54133 Y0.90733
X0.54133 Y0.90667
X0.54333 Y0.90667
X0.54333 Y0.90600
X0.54600 Y0.90600
X0.54600 Y0.90533
X0.54800 Y0.90533
X0.54800 Y0.90467
X0.55000 Y0.90467
X0.55000 Y0.90400
X0.55267 Y0.90400
X0.55267 Y0.90333
X0.55467 Y0.90333
X0.55467 Y0.90267
X0.55667 Y0.90267
X0.55667 Y0.90200
X0.55933 Y0.90200
X0.55933 Y0.90133
X0.56133 Y0.90133
X0.56133 Y0.90067
X0.56333 Y0.90067
X0.56333 Y0.90000
X0.56533 Y0.90000
X0.56533 Y0.89933
X0.56600 Y0.89933
X0.56600 Y0.89867
X0.56733 Y0.89867
X0.56733 Y0.89800
X0.56800 Y0.89800
X0.56800 Y0.89733
X0.56933 Y0.89733
X0.56933 Y0.89667
X0.57067 Y0.89667
X0.57067 Y0.89600
X0.57133 Y0.89600
X0.57133 Y0.89533
X0.57267 Y0.89533
X0.57267 Y0.89467
X0.57333 Y0.89467
X0.57333 Y0.89400
X0.57467 Y0.89400
X0.57467 Y0.89333
X0.57600 Y0.89333
X0.57600 Y0.89267
X0.57667 Y0.89267
X0.57667 Y0.89200
X0.57800 Y0.89200
X0.57800 Y0.89133
X0.57867 Y0.89133
X0.57867 Y0.89067
X0.58000 Y0.89067
X0.58000 Y0.89000
X0.58133 Y0.89000
X0.58133 Y0.88933
X0.58200 Y0.88933
X0.58200 Y0.88867
X0.58333 Y0.88867
X0.58333 Y0.88800
X0.58400 Y0.88800
X0.58400 Y0.88733
X0.58533 Y0.88733
X0.58533 Y0.88667
X0.58600 Y0.88667
X0.58600 Y0.88600
X0.58733 Y0.88600
X0.58733 Y0.88533
X0.58867 Y0.88533
X0.58867 Y0.88467
X0.58933 Y0.88467
X0.58933 Y0.88400
X0.59067 Y0.88400
X0.59067 Y0.88333
X0.59133 Y0.88333
X0.59133 Y0.88267
X0.59267 Y0.88267
X0.59267 Y0.88200
X0.59400 Y0.88200
X0.59400 Y0.88133
X0.59467 Y0.88133
X0.59467 Y0.88067
X0.59600 Y0.88067
X0.59600 Y0.88000
X0.59667 Y0.88000
X0.59667 Y0.87933
X0.59800 Y0.87933
X0.59800 Y0.87867
X0.59867 Y0.87867
X0.59867 Y0.87800
X0.60000 Y0.87800
X0.60000 Y0.87733
X0.60133 Y0.87733
X0.60133 Y0.87667
X0.60200 Y0.87667
X0.60200 Y0.87600
X0.60333 Y0.87600
X0.60333 Y0.87533
X0.60400 Y0.87533
X0.60400 Y0.87467
X0.60533 Y0.87467
X0.60533 Y0.87400
X0.60600 Y0.87400
X0.60600 Y0.87333
X0.60667 Y0.87333
X0.60667 Y0.87267
X0.60733 Y0.87267
X0.60733 Y0.87200
X0.60800 Y0.87200
X0.60800 Y0.87133
X0.60867 Y0.87133
X0.60867 Y0.87067
X0.60933 Y0.87067
X0.60933 Y0.87000
X0.61000 Y0.87000
X0.61000 Y0.86867
X0.61067 Y0.86867
X0.61067 Y0.86800
X0.61133 Y0.86800
X0.61133 Y0.86733
X0.61200 Y0.86733
X0.61200 Y0.86667
X0.61267 Y0.86667
X0.61267 Y0.86600
X0.61333 Y0.86600
X0.61333 Y0.86533
X0.61400 Y0.86533
X0.61400 Y0.86400
X0.61467 Y0.86400
X0.61467 Y0.86333
X0.61533 Y0.86333
X0.61533 Y0.86267
X0.61600 Y0.86267
X0.61600 Y0.86200
X0.61667 Y0.86200
X0.61667 Y0.86133
X0.61733 Y0.86133
X0.61733 Y0.86067
X0.61800 Y0.86067
X0.61800 Y0.85933
X0.61867 Y0.85933
X0.61867 Y0.85867
X0.61933 Y0.85867
X0.61933 Y0.85800
X0.62000 Y0.85800
X0.62000 Y0.85733
X0.62067 Y0.85733
X0.62067 Y0.85667
X0.62133 Y0.85667
X0.62133 Y0.85600
X0.62200 Y0.85600
X0.62200 Y0.85467
X0.62267 Y0.85467
X0.62267 Y0.85400
X0.62333 Y0.85400
X0.62333 Y0.85333
X0.62400 Y0.85333
X0.62400 Y0.85267
X0.62467 Y0.85267
X0.62467 Y0.85200
X0.62533 Y0.85200
X0.62533 Y0.85133
X0.62600 Y0.85133
X0.62600 Y0.85067
X0.62667 Y0.85067
X0.62667 Y0.84933
X0.62733 Y0.84933
X0.62733 Y0.84867
X0.62800 Y0.84867
X0.62800 Y0.84800
X0.62867 Y0.84800
X0.62867 Y0.84733
X0.62933 Y0.84733
X0.62933 Y0.84667
X0.63000 Y0.84667
X0.63000 Y0.84600
X0.63067 Y0.84600
X0.63067 Y0.84467
X0.63133 Y0.84467
X0.63133 Y0.84400
X0.63200 Y0.84400
X0.63200 Y0.84333
X0.63267 Y0.84333
X0.63267 Y0.84267
X0.63333 Y0.84267
X0.63333 Y0.84200
X0.63400 Y0.84200
X0.63400 Y0.84133
X0.63467 Y0.84133
X0.63467 Y0.84000
X0.63533 Y0.84000
X0.63533 Y0.83933
X0.63600 Y0.83933
X0.63600 Y0.83867
X0.63667 Y0.83867
X0.63667 Y0.83800
X0.63733 Y0.83800
X0.63733 Y0.83733
X0.63800 Y0.83733
X0.63800 Y0.83600
X0.63867 Y0.83600
X0.63867 Y0.83467
X0.63933 Y0.83467
X0.63933 Y0.83333
X0.64000 Y0.83333
X0.64000 Y0.83133
X0.64067 Y0.83133
X0.64067 Y0.83000
X0.64133 Y0.83000
X0.64133 Y0.82867
X0.64200 Y0.82867
X0.64200 Y0.82733
X0.64267 Y0.82733
X0.64267 Y0.82600
X0.64333 Y0.82600
X0.64333 Y0.82400
X0.64400 Y0.82400
X0.64400 Y0.82267
X0.64467 Y0.82267
X0.64467 Y0.82133
X0.64533 Y0.82133
X0.64533 Y0.82000
X0.64600 Y0.82000
X0.64600 Y0.81867
X0.64667 Y0.81867
X0.64667 Y0.81667
X0.64733 Y0.81667
X0.64733 Y0.81533
X0.64800 Y0.81533
X0.64800 Y0.81400
X0.64867 Y0.81400
X0.64867 Y0.81267
X0.64933 Y0.81267
X0.64933 Y0.81133
X0.65000 Y0.81133
X0.65000 Y0.81000
X0.65067 Y0.81000
X0.65067 Y0.80800
X0.65133 Y0.80800
X0.65133 Y0.80667
X0.65200 Y0.80667
X0.65200 Y0.80533
X0.65267 Y0.80533
X0.65267 Y0.80400
X0.65333 Y0.80400
X0.65333 Y0.80267
X0.65400 Y0.80267
X0.65400 Y0.80067
X0.65467 Y0.80067
X0.65467 Y0.79933
X0.65533 Y0.79933
X0.65533 Y0.79800
X0.65600 Y0.79800
X0.65600 Y0.79667
X0.65667 Y0.79667
X0.65667 Y0.79533
X0.65733 Y0.79533
X0.65733 Y0.79333
X0.65800 Y0.79333
X0.65800 Y0.79200
X0.65867 Y0.79200
X0.65867 Y0.78733
X0.65933 Y0.78733
X0.65933 Y0.78267
X0.66000 Y0.78267
X0.66000 Y0.77800
X0.66067 Y0.77800
X0.66067 Y0.77333
X0.66133 Y0.77333
X0.66133 Y0.76867
X0.66200 Y0.76867
X0.66200 Y0.76400
X0.66267 Y0.76400
X0.66267 Y0.75933
X0.66333 Y0.75933
X0.66333 Y0.75467
X0.66400 Y0.75467
X0.66400 Y0.75067
X0.66467 Y0.75067
X0.66467 Y0.75000
X0.66400 Y0.75000
X0.66400 Y0.74600
X0.66333 Y0.74600
X0.66333 Y0.74133
X0.66267 Y0.74133
X0.66267 Y0.73667
X0.66200 Y0.73667
X0.66200 Y0.73200
X0.66133 Y0.73200
X0.66133 Y0.72733
X0.66067 Y0.72733
X0.66067 Y0.72267
X0.66000 Y0.72267
X0.66000 Y0.71800
X0.65933 Y0.71800
X0.65933 Y0.71333
X0.65867 Y0.71333
X0.65867 Y0.70867
X0.65800 Y0.70867
X0.65800 Y0.70733
X0.65733 Y0.70733
X0.65733 Y0.70533
X0.65667 Y0.70533
X0.65667 Y0.70400
X0.65600 Y0.70400
X0.65600 Y0.70267
X0.65533 Y0.70267
X0.65533 Y0.70133
X0.65467 Y0.70133
X0.65467 Y0.70000
X0.65400 Y0.70000
X0.65400 Y0.69800
X0.65333 Y0.69800
X0.65333 Y0.69667
X0.65267 Y0.69667
X0.65267 Y0.69533
X0.65200 Y0.69533
X0.65200 Y0.69400
X0.65133 Y0.69400
X0.65133 Y0.69267
X0.65067 Y0.69267
X0.65067 Y0.69067
X0.65000 Y0.69067
X0.65000 Y0.68933
X0.64933 Y0.68933
X0.64933 Y0.68800
X0.64867 Y0.68800
X0.64867 Y0.68667
X0.64800 Y0.68667
X0.64800 Y0.68533
X0.64733 Y0.68533
X0.64733 Y0.68400
X0.64667 Y0.68400
X0.64667 Y0.68200
X0.64600 Y0.68200
X0.64600 Y0.68067
X0.64533 Y0.68067
X0.64533 Y0.67933
X0.64467 Y0.67933
X0.64467 Y0.67800
X0.64400 Y0.67800
X0.64400 Y0.67667
X0.64333 Y0.67667
X0.64333 Y0.67467
X0.64267 Y0.67467
X0.64267 Y0.67333
X0.64200 Y0.67333
X0.64200 Y0.67200
X0.64133 Y0.67200
X0.64133 Y0.67067
X0.64067 Y0.67067
X0.64067 Y0.66933
X0.64000 Y0.66933
X0.64000 Y0.66733
X0.63933 Y0.66733
X0.63933 Y0.66600
X0.63867 Y0.66600
X0.63867 Y0.66467
X0.63800 Y0.66467
X0.63800 Y0.66333
X0.63733 Y0.66333
X0.63733 Y0.66267
X0.63667 Y0.66267
X0.63667 Y0.66200
X0.63600 Y0.66200
X0.63600 Y0.66133
X0.63533 Y0.66133
X0.63533 Y0.66067
X0.63467 Y0.66067
X0.63467 Y0.65933
X0.63400 Y0.65933
X0.63400 Y0.65867
X0.63333 Y0.65867
X0.63333 Y0.65800
X0.63267 Y0.65800
X0.63267 Y0.65733
X0.63200 Y0.65733
X0.63200 Y0.65667
X0.63133 Y0.65667
X0.63133 Y0.65600
X0.63067 Y0.65600
X0.63067 Y0.65467
X0.63000 Y0.65467
X0.63000 Y0.65400
X0.62933 Y0.65400
X0.62933 Y0.65333
X0.62867 Y0.65333
X0.62867 Y0.65267
X0.62800 Y0.65267
X0.62800 Y0.65200
X0.62733 Y0.65200
X0.62733 Y0.65133
X0.62667 Y0.65133
X0.62667 Y0.65000
X0.62600 Y0.65000
X0.62600 Y0.64933
X0.62533 Y0.64933
X0.62533 Y0.64867
X0.62467 Y0.64867
X0.62467 Y0.64800
X0.62400 Y0.64800
X0.62400 Y0.64733
X0.62333 Y0.64733
X0.62333 Y0.64667
X0.62267 Y0.64667
X0.62267 Y0.64600
X0.62200 Y0.64600
X0.62200 Y0.64467
X0.62133 Y0.64467
X0.62133 Y0.64400
X0.62067 Y0.64400
X0.62067 Y0.64333
X0.62000 Y0.64333
X0.62000 Y0.64267
X0.61933 Y0.64267
X0.61933 Y0.64200
X0.61867 Y0.64200
X0.61867 Y0.64133
X0.61800 Y0.64133
X0.61800 Y0.64000
X0.61733 Y0.64000
X0.61733 Y0.63933
X0.61667 Y0.63933
X0.61667 Y0.63867
X0.61600 Y0.63867
X0.61600 Y0.63800
X0.61533 Y0.63800
X0.61533 Y0.63733
X0.61467 Y0.63733
X0.61467 Y0.63667
X0.61400 Y0.63667
X0.61400 Y0.63533
X0.61333 Y0.63533
X0.61333 Y0.63467
X0.61267 Y0.63467
X0.61267 Y0.63400
X0.61200 Y0.63400
X0.61200 Y0.63333
X0.61133 Y0.63333
X0.61133 Y0.63267
X0.61067 Y0.63267
X0.61067 Y0.63200
X0.61000 Y0.63200
X0.61000 Y0.63067
X0.60933 Y0.63067
X0.60933 Y0.63000
X0.60867 Y0.63000
X0.60867 Y0.62933
X0.60800 Y0.62933
X0.60800 Y0.62867
X0.60733 Y0.62867
X0.60733 Y0.62800
X0.60667 Y0.62800
X0.60667 Y0.62733
X0.60600 Y0.62733
X0.60600 Y0.62667
X0.60533 Y0.62667
X0.60533 Y0.62600
X0.60400 Y0.62600
X0.60400 Y0.62533
X0.60333 Y0.62533
X0.60333 Y0.62467
X0.60200 Y0.62467
X0.60200 Y0.62400
X0.60133 Y0.62400
X0.60133 Y0.62333
X0.60000 Y0.62333
X0.60000 Y0.62267
X0.59933 Y0.62267
X0.59933 Y0.62200
X0.59800 Y0.62200
X0.59800 Y0.62133
X0.59733 Y0.62133
X0.59733 Y0.62067
X0.59600 Y0.62067
X0.59600 Y0.62000
X0.59533 Y0.62000
X0.59533 Y0.61933
X0.59400 Y0.61933
X0.59400 Y0.61867
X0.59267 Y0.61867
X0.59267 Y0.61800
X0.59200 Y0.61800
X0.59200 Y0.61733
X0.59067 Y0.61733
X0.59067 Y0.61667
X0.59000 Y0.61667
X0.59000 Y0.61600
X0.58867 Y0.61600
X0.58867 Y0.61533
X0.58800 Y0.61533
X0.58800 Y0.61467
X0.58667 Y0.61467
X0.58667 Y0.61400
X0.58600 Y0.61400
X0.58600 Y0.61333
X0.58467 Y0.61333
X0.58467 Y0.61267
X0.58400 Y0.61267
X0.58400 Y0.61200
X0.58267 Y0.61200
X0.58267 Y0.61133
X0.58133 Y0.61133
X0.58133 Y0.61067
X0.58067 Y0.61067
X0.58067 Y0.61000
X0.57933 Y0.61000
X0.57933 Y0.60933
X0.57867 Y0.60933
X0.57867 Y0.60867
X0.57733 Y0.60867
X0.57733 Y0.60800
X0.57667 Y0.60800
X0.57667 Y0.60733
X0.57533 Y0.60733
X0.57533 Y0.60667
X0.57467 Y0.60667
X0.57467 Y0.60600
X0.57333 Y0.60600
X0.57333 Y0.60533
X0.57267 Y0.60533
X0.57267 Y0.60467
X0.57133 Y0.60467
X0.57133 Y0.60400
X0.57000 Y0.60400
X0.57000 Y0.60333
X0.56933 Y0.60333
X0.56933 Y0.60267
X0.56800 Y0.60267
X0.56800 Y0.60200
X0.56733 Y0.60200
X0.56733 Y0.60133
X0.56600 Y0.60133
X0.56600 Y0.60067
X0.56533 Y0.60067
X0.56533 Y0.60000
X0.56333 Y0.60000
X0.56333 Y0.59933
X0.56133 Y0.59933
X0.56133 Y0.59867
X0.55933 Y0.59867
X0.55933 Y0.59800
X0.55667 Y0.59800
X0.55667 Y0.59733
X0.55467 Y0.59733
X0.55467 Y0.59667
X0.55267 Y0.59667
X0.55267 Y0.59600
X0.55000 Y0.59600
X0.55000 Y0.59533
X0.54800 Y0.59533
X0.54800 Y0.59467
X0.54600 Y0.59467
X0.54600 Y0.59400
X0.54333 Y0.59400
X0.54333 Y0.59333
X0.54133 Y0.59333
X0.54133 Y0.59267
X0.53933 Y0.59267
X0.53933 Y0.59200
X0.53667 Y0.59200
X0.53667 Y0.59133
X0.53467 Y0.59133
X0.53467 Y0.59067
X0.53267 Y0.59067
X0.53267 Y0.59000
X0.53000 Y0.59000
X0.53000 Y0.58933
X0.52800 Y0.58933
X0.52800 Y0.58867
X0.52600 Y0.58867
X0.52600 Y0.58800
X0.52400 Y0.58800
X0.52400 Y0.58733
X0.52133 Y0.58733
X0.52133 Y0.58667
X0.51933 Y0.58667
X0.51933 Y0.58600
X0.48067 Y0.58600
X0.48067 Y0.58667
X0.47867 Y0.58667
X0.47867 Y0.58733
X0.47600 Y0.58733
X0.47600 Y0.58800
X0.47400 Y0.58800
X0.47400 Y0.58867
X0.47200 Y0.58867
X0.47200 Y0.58933
X0.46933 Y0.58933
X0.46933 Y0.59000
X0.46733 Y0.59000
X0.46733 Y0.59067
X0.46533 Y0.59067
X0.46533 Y0.59133
X0.46267 Y0.59133
X0.46267 Y0.59200
X0.46067 Y0.59200
X0.46067 Y0.59267
X0.45800 Y0.59267
X0.45800 Y0.59333
X0.45600 Y0.59333
X0.45600 Y0.59400
X0.45400 Y0.59400
X0.45400 Y0.59467
X0.45133 Y0.59467
X0.45133 Y0.59533
X0.44933 Y0.59533
X0.44933 Y0.59600
X0.44733 Y0.59600
X0.44733 Y0.59667
X0.44467 Y0.59667
X0.44467 Y0.59733
X0.44267 Y0.59733
X0.44267 Y0.59800
X0.44067 Y0.59800
X0.44067 Y0.59867
X0.43800 Y0.59867
X0.43800 Y0.59933
X0.43600 Y0.59933
X0.43600 Y0.60000
X0.43400 Y0.60000
X0.43400 Y0.60067
X0.43333 Y0.60067
X0.43333 Y0.60133
X0.43200 Y0.60133
X0.43200 Y0.60200
X0.43133 Y0.60200
X0.43133 Y0.60267
X0.43000 Y0.60267
X0.43000 Y0.60333
X0.42933 Y0.60333
X0.42933 Y0.60400
X0.42800 Y0.60400
X0.42800 Y0.60467
X0.42667 Y0.60467
X0.42667 Y0.60533
X0.42600 Y0.60533
X0.42600 Y0.60600
X0.42467 Y0.60600
X0.42467 Y0.60667
X0.42400 Y0.60667
X0.42400 Y0.60733
X0.42267 Y0.60733
X0.42267 Y0.60800
X0.42200 Y0.60800
X0.42200 Y0.60867
X0.42067 Y0.60867
X0.42067 Y0.60933
X0.42000 Y0.60933
X0.42000 Y0.61000
X0.41867 Y0.61000
X0.41867 Y0.61067
X0.41800 Y0.61067
X0.41800 Y0.61133
X0.41667 Y0.61133
X0.41667 Y0.61200
X0.41533 Y0.61200
X0.41533 Y0.61267
X0.41467 Y0.61267
X0.41467 Y0.61333
X0.41333 Y0.61333
X0.41333 Y0.61400
X0.41267 Y0.61400
X0.41267 Y0.61467
X0.41133 Y0.61467
X0.41133 Y0.61533
X0.41067 Y0.61533
X0.41067 Y0.61600
X0.40933 Y0.61600
X0.40933 Y0.61667
X0.40867 Y0.61667
X0.40867 Y0.61733
X0.40733 Y0.61733
X0.40733 Y0.61800
X0.40667 Y0.61800
X0.40667 Y0.61867
X0.40533 Y0.61867
X0.40533 Y0.61933
X0.40400 Y0.61933
X0.40400 Y0.62000
X0.40333 Y0.62000
X0.40333 Y0.62067
X0.40200 Y0.62067
X0.40200 Y0.62133
X0.40133 Y0.62133
X0.40133 Y0.62200
X0.40000 Y0.62200
X0.40000 Y0.62267
X0.39933 Y0.62267
X0.39933 Y0.62333
X0.39800 Y0.62333
X0.39800 Y0.62400
X0.39733 Y0.62400
X0.39733 Y0.62467
X0.39600 Y0.62467
X0.39600 Y0.62533
X0.39533 Y0.62533
X0.39533 Y0.62600
X0.39400 Y0.62600
X0.39400 Y0.62667
X0.39333 Y0.62667
X0.39333 Y0.62733
