( pcb2gcode 1.1.4 )

( This file uses a mill head of 0.0236 to drill the 4bit sizes. )

G94     ( Inches per minute feed rate. )
G20     ( Units == INCHES.             )
G90     ( Absolute coordinates.        )
S20000  ( RPM spindle speed.           )

F3.00000
#50=-0.08000 ; zwork
#51=0.08000 ; zsafe
#52=0.10000 ; stepsize
G0 X1.70420 Y0.80000
G1 Z[#50+0*#52]
G2 I-0.00420 J0
G0 Z0.08000

G0 X1.60420 Y0.80000
G1 Z[#50+0*#52]
G2 I-0.00420 J0
G0 Z0.08000

G0 X1.50420 Y0.80000
G1 Z[#50+0*#52]
G2 I-0.00420 J0
G0 Z0.08000

G0 X1.40420 Y0.80000
G1 Z[#50+0*#52]
G2 I-0.00420 J0
G0 Z0.08000

G0 X1.30420 Y0.80000
G1 Z[#50+0*#52]
G2 I-0.00420 J0
G0 Z0.08000

G0 X1.20420 Y0.80000
G1 Z[#50+0*#52]
G2 I-0.00420 J0
G0 Z0.08000

G0 X1.10420 Y0.80000
G1 Z[#50+0*#52]
G2 I-0.00420 J0
G0 Z0.08000

G0 X1.00420 Y0.80000
G1 Z[#50+0*#52]
G2 I-0.00420 J0
G0 Z0.08000

G0 X0.90420 Y0.80000
G1 Z[#50+0*#52]
G2 I-0.00420 J0
G0 Z0.08000

G0 X0.90420 Y0.95000
G1 Z[#50+0*#52]
G2 I-0.00420 J0
G0 Z0.08000

G0 X0.90420 Y1.05000
G1 Z[#50+0*#52]
G2 I-0.00420 J0
G0 Z0.08000

G0 X1.00420 Y1.05000
G1 Z[#50+0*#52]
G2 I-0.00420 J0
G0 Z0.08000

G0 X1.00420 Y0.95000
G1 Z[#50+0*#52]
G2 I-0.00420 J0
G0 Z0.08000

G0 X1.10420 Y0.95000
G1 Z[#50+0*#52]
G2 I-0.00420 J0
G0 Z0.08000

G0 X1.10420 Y1.05000
G1 Z[#50+0*#52]
G2 I-0.00420 J0
G0 Z0.08000

G0 X1.20420 Y1.05000
G1 Z[#50+0*#52]
G2 I-0.00420 J0
G0 Z0.08000

G0 X1.20420 Y0.95000
G1 Z[#50+0*#52]
G2 I-0.00420 J0
G0 Z0.08000

G0 X1.30420 Y0.95000
G1 Z[#50+0*#52]
G2 I-0.00420 J0
G0 Z0.08000

G0 X1.30420 Y1.05000
G1 Z[#50+0*#52]
G2 I-0.00420 J0
G0 Z0.08000

G0 X1.40420 Y1.05000
G1 Z[#50+0*#52]
G2 I-0.00420 J0
G0 Z0.08000

G0 X1.40420 Y0.95000
G1 Z[#50+0*#52]
G2 I-0.00420 J0
G0 Z0.08000

G0 X1.50420 Y0.95000
G1 Z[#50+0*#52]
G2 I-0.00420 J0
G0 Z0.08000

G0 X1.50420 Y1.05000
G1 Z[#50+0*#52]
G2 I-0.00420 J0
G0 Z0.08000

G0 X1.60420 Y1.05000
G1 Z[#50+0*#52]
G2 I-0.00420 J0
G0 Z0.08000

G0 X1.60420 Y0.95000
G1 Z[#50+0*#52]
G2 I-0.00420 J0
G0 Z0.08000

G0 X1.40420 Y0.45000
G1 Z[#50+0*#52]
G2 I-0.00420 J0
G0 Z0.08000

G0 X1.30420 Y0.45000
G1 Z[#50+0*#52]
G2 I-0.00420 J0
G0 Z0.08000

G0 X1.20420 Y0.45000
G1 Z[#50+0*#52]
G2 I-0.00420 J0
G0 Z0.08000

G0 X1.10420 Y0.45000
G1 Z[#50+0*#52]
G2 I-0.00420 J0
G0 Z0.08000

G0 X1.00420 Y0.45000
G1 Z[#50+0*#52]
G2 I-0.00420 J0
G0 Z0.08000

G0 X0.90420 Y0.45000
G1 Z[#50+0*#52]
G2 I-0.00420 J0
G0 Z0.08000

G0 X0.80420 Y0.45000
G1 Z[#50+0*#52]
G2 I-0.00420 J0
G0 Z0.08000

G0 X0.42920 Y1.80000
G1 Z[#50+0*#52]
G2 I-0.00420 J0
G0 Z0.08000

G0 X0.52920 Y1.90000
G1 Z[#50+0*#52]
G2 I-0.00420 J0
G0 Z0.08000

G0 X0.52920 Y2.30000
G1 Z[#50+0*#52]
G2 I-0.00420 J0
G0 Z0.08000

G0 X0.42920 Y2.30000
G1 Z[#50+0*#52]
G2 I-0.00420 J0
G0 Z0.08000

G0 X0.80420 Y2.60000
G1 Z[#50+0*#52]
G2 I-0.00420 J0
G0 Z0.08000

G0 X0.80420 Y2.70000
G1 Z[#50+0*#52]
G2 I-0.00420 J0
G0 Z0.08000

G0 X1.00420 Y2.70000
G1 Z[#50+0*#52]
G2 I-0.00420 J0
G0 Z0.08000

G0 X1.00420 Y2.60000
G1 Z[#50+0*#52]
G2 I-0.00420 J0
G0 Z0.08000

G0 X1.00620 Y2.10000
G1 Z[#50+0*#52]
G2 I-0.00620 J0
G0 Z0.08000

G0 X1.00620 Y2.00000
G1 Z[#50+0*#52]
G2 I-0.00620 J0
G0 Z0.08000

G0 X1.10620 Y2.00000
G1 Z[#50+0*#52]
G2 I-0.00620 J0
G0 Z0.08000

G0 X1.10620 Y2.10000
G1 Z[#50+0*#52]
G2 I-0.00620 J0
G0 Z0.08000

G0 X1.20620 Y2.10000
G1 Z[#50+0*#52]
G2 I-0.00620 J0
G0 Z0.08000

G0 X1.20620 Y2.00000
G1 Z[#50+0*#52]
G2 I-0.00620 J0
G0 Z0.08000

G0 X0.90620 Y2.00000
G1 Z[#50+0*#52]
G2 I-0.00620 J0
G0 Z0.08000

G0 X0.90620 Y2.10000
G1 Z[#50+0*#52]
G2 I-0.00620 J0
G0 Z0.08000

G0 X0.80620 Y2.10000
G1 Z[#50+0*#52]
G2 I-0.00620 J0
G0 Z0.08000

G0 X0.80620 Y2.00000
G1 Z[#50+0*#52]
G2 I-0.00620 J0
G0 Z0.08000

G0 X1.25820 Y2.55000
G1 Z[#50+0*#52]
G2 I-0.00820 J0
G0 Z0.08000

G0 X1.35820 Y2.55000
G1 Z[#50+0*#52]
G2 I-0.00820 J0
G0 Z0.08000

G0 X1.45820 Y2.55000
G1 Z[#50+0*#52]
G2 I-0.00820 J0
G0 Z0.08000

G0 X1.65820 Y2.55000
G1 Z[#50+0*#52]
G2 I-0.00820 J0
G0 Z0.08000

G0 X1.75820 Y2.55000
G1 Z[#50+0*#52]
G2 I-0.00820 J0
G0 Z0.08000

G0 X1.85820 Y2.55000
G1 Z[#50+0*#52]
G2 I-0.00820 J0
G0 Z0.08000

G0 X1.90820 Y2.35000
G1 Z[#50+0*#52]
G2 I-0.00820 J0
G0 Z0.08000

G0 X1.90820 Y2.25000
G1 Z[#50+0*#52]
G2 I-0.00820 J0
G0 Z0.08000

G0 X1.90820 Y2.15000
G1 Z[#50+0*#52]
G2 I-0.00820 J0
G0 Z0.08000

G0 X1.90820 Y2.05000
G1 Z[#50+0*#52]
G2 I-0.00820 J0
G0 Z0.08000

G0 X1.90820 Y1.95000
G1 Z[#50+0*#52]
G2 I-0.00820 J0
G0 Z0.08000

G0 X1.90820 Y1.85000
G1 Z[#50+0*#52]
G2 I-0.00820 J0
G0 Z0.08000

G0 X1.90820 Y1.75000
G1 Z[#50+0*#52]
G2 I-0.00820 J0
G0 Z0.08000

G0 X1.90820 Y1.65000
G1 Z[#50+0*#52]
G2 I-0.00820 J0
G0 Z0.08000

G0 X1.90820 Y1.55000
G1 Z[#50+0*#52]
G2 I-0.00820 J0
G0 Z0.08000

G0 X1.90820 Y1.45000
G1 Z[#50+0*#52]
G2 I-0.00820 J0
G0 Z0.08000

G0 X1.90820 Y1.35000
G1 Z[#50+0*#52]
G2 I-0.00820 J0
G0 Z0.08000

G0 X1.90820 Y1.25000
G1 Z[#50+0*#52]
G2 I-0.00820 J0
G0 Z0.08000

G0 X1.90820 Y1.15000
G1 Z[#50+0*#52]
G2 I-0.00820 J0
G0 Z0.08000

G0 X1.90820 Y1.05000
G1 Z[#50+0*#52]
G2 I-0.00820 J0
G0 Z0.08000

G0 X1.90820 Y0.95000
G1 Z[#50+0*#52]
G2 I-0.00820 J0
G0 Z0.08000

G0 X1.90820 Y0.85000
G1 Z[#50+0*#52]
G2 I-0.00820 J0
G0 Z0.08000

G0 X1.90820 Y0.75000
G1 Z[#50+0*#52]
G2 I-0.00820 J0
G0 Z0.08000

G0 X1.90820 Y0.65000
G1 Z[#50+0*#52]
G2 I-0.00820 J0
G0 Z0.08000

G0 X1.90820 Y0.55000
G1 Z[#50+0*#52]
G2 I-0.00820 J0
G0 Z0.08000

G0 X1.90820 Y0.45000
G1 Z[#50+0*#52]
G2 I-0.00820 J0
G0 Z0.08000

G0 X2.00820 Y0.45000
G1 Z[#50+0*#52]
G2 I-0.00820 J0
G0 Z0.08000

G0 X2.00820 Y0.55000
G1 Z[#50+0*#52]
G2 I-0.00820 J0
G0 Z0.08000

G0 X2.00820 Y0.65000
G1 Z[#50+0*#52]
G2 I-0.00820 J0
G0 Z0.08000

G0 X2.00820 Y0.75000
G1 Z[#50+0*#52]
G2 I-0.00820 J0
G0 Z0.08000

G0 X2.00820 Y0.85000
G1 Z[#50+0*#52]
G2 I-0.00820 J0
G0 Z0.08000

G0 X2.00820 Y0.95000
G1 Z[#50+0*#52]
G2 I-0.00820 J0
G0 Z0.08000

G0 X2.00820 Y1.05000
G1 Z[#50+0*#52]
G2 I-0.00820 J0
G0 Z0.08000

G0 X2.00820 Y1.15000
G1 Z[#50+0*#52]
G2 I-0.00820 J0
G0 Z0.08000

G0 X2.00820 Y1.25000
G1 Z[#50+0*#52]
G2 I-0.00820 J0
G0 Z0.08000

G0 X2.00820 Y1.35000
G1 Z[#50+0*#52]
G2 I-0.00820 J0
G0 Z0.08000

G0 X2.00820 Y1.45000
G1 Z[#50+0*#52]
G2 I-0.00820 J0
G0 Z0.08000

G0 X2.00820 Y1.55000
G1 Z[#50+0*#52]
G2 I-0.00820 J0
G0 Z0.08000

G0 X2.00820 Y1.65000
G1 Z[#50+0*#52]
G2 I-0.00820 J0
G0 Z0.08000

G0 X2.00820 Y1.75000
G1 Z[#50+0*#52]
G2 I-0.00820 J0
G0 Z0.08000

G0 X2.00820 Y1.85000
G1 Z[#50+0*#52]
G2 I-0.00820 J0
G0 Z0.08000

G0 X2.00820 Y1.95000
G1 Z[#50+0*#52]
G2 I-0.00820 J0
G0 Z0.08000

G0 X2.00820 Y2.05000
G1 Z[#50+0*#52]
G2 I-0.00820 J0
G0 Z0.08000

G0 X2.00820 Y2.15000
G1 Z[#50+0*#52]
G2 I-0.00820 J0
G0 Z0.08000

G0 X2.00820 Y2.25000
G1 Z[#50+0*#52]
G2 I-0.00820 J0
G0 Z0.08000

G0 X2.00820 Y2.35000
G1 Z[#50+0*#52]
G2 I-0.00820 J0
G0 Z0.08000

G0 X0.30820 Y2.35000
G1 Z[#50+0*#52]
G2 I-0.00820 J0
G0 Z0.08000

G0 X0.30820 Y2.25000
G1 Z[#50+0*#52]
G2 I-0.00820 J0
G0 Z0.08000

G0 X0.30820 Y2.15000
G1 Z[#50+0*#52]
G2 I-0.00820 J0
G0 Z0.08000

G0 X0.30820 Y2.05000
G1 Z[#50+0*#52]
G2 I-0.00820 J0
G0 Z0.08000

G0 X0.30820 Y1.95000
G1 Z[#50+0*#52]
G2 I-0.00820 J0
G0 Z0.08000

G0 X0.30820 Y1.85000
G1 Z[#50+0*#52]
G2 I-0.00820 J0
G0 Z0.08000

G0 X0.30820 Y1.75000
G1 Z[#50+0*#52]
G2 I-0.00820 J0
G0 Z0.08000

G0 X0.30820 Y1.65000
G1 Z[#50+0*#52]
G2 I-0.00820 J0
G0 Z0.08000

G0 X0.30820 Y1.55000
G1 Z[#50+0*#52]
G2 I-0.00820 J0
G0 Z0.08000

G0 X0.30820 Y1.45000
G1 Z[#50+0*#52]
G2 I-0.00820 J0
G0 Z0.08000

G0 X0.30820 Y1.35000
G1 Z[#50+0*#52]
G2 I-0.00820 J0
G0 Z0.08000

G0 X0.30820 Y1.25000
G1 Z[#50+0*#52]
G2 I-0.00820 J0
G0 Z0.08000

G0 X0.30820 Y1.15000
G1 Z[#50+0*#52]
G2 I-0.00820 J0
G0 Z0.08000

G0 X0.30820 Y1.05000
G1 Z[#50+0*#52]
G2 I-0.00820 J0
G0 Z0.08000

G0 X0.30820 Y0.95000
G1 Z[#50+0*#52]
G2 I-0.00820 J0
G0 Z0.08000

G0 X0.30820 Y0.85000
G1 Z[#50+0*#52]
G2 I-0.00820 J0
G0 Z0.08000

G0 X0.30820 Y0.75000
G1 Z[#50+0*#52]
G2 I-0.00820 J0
G0 Z0.08000

G0 X0.30820 Y0.65000
G1 Z[#50+0*#52]
G2 I-0.00820 J0
G0 Z0.08000

G0 X0.30820 Y0.55000
G1 Z[#50+0*#52]
G2 I-0.00820 J0
G0 Z0.08000

G0 X0.30820 Y0.45000
G1 Z[#50+0*#52]
G2 I-0.00820 J0
G0 Z0.08000

G0 X0.20820 Y0.45000
G1 Z[#50+0*#52]
G2 I-0.00820 J0
G0 Z0.08000

G0 X0.20820 Y0.55000
G1 Z[#50+0*#52]
G2 I-0.00820 J0
G0 Z0.08000

G0 X0.20820 Y0.65000
G1 Z[#50+0*#52]
G2 I-0.00820 J0
G0 Z0.08000

G0 X0.20820 Y0.75000
G1 Z[#50+0*#52]
G2 I-0.00820 J0
G0 Z0.08000

G0 X0.20820 Y0.85000
G1 Z[#50+0*#52]
G2 I-0.00820 J0
G0 Z0.08000

G0 X0.20820 Y0.95000
G1 Z[#50+0*#52]
G2 I-0.00820 J0
G0 Z0.08000

G0 X0.20820 Y1.05000
G1 Z[#50+0*#52]
G2 I-0.00820 J0
G0 Z0.08000

G0 X0.20820 Y1.15000
G1 Z[#50+0*#52]
G2 I-0.00820 J0
G0 Z0.08000

G0 X0.20820 Y1.25000
G1 Z[#50+0*#52]
G2 I-0.00820 J0
G0 Z0.08000

G0 X0.20820 Y1.35000
G1 Z[#50+0*#52]
G2 I-0.00820 J0
G0 Z0.08000

G0 X0.20820 Y1.45000
G1 Z[#50+0*#52]
G2 I-0.00820 J0
G0 Z0.08000

G0 X0.20820 Y1.55000
G1 Z[#50+0*#52]
G2 I-0.00820 J0
G0 Z0.08000

G0 X0.20820 Y1.65000
G1 Z[#50+0*#52]
G2 I-0.00820 J0
G0 Z0.08000

G0 X0.20820 Y1.75000
G1 Z[#50+0*#52]
G2 I-0.00820 J0
G0 Z0.08000

G0 X0.20820 Y1.85000
G1 Z[#50+0*#52]
G2 I-0.00820 J0
G0 Z0.08000

G0 X0.20820 Y1.95000
G1 Z[#50+0*#52]
G2 I-0.00820 J0
G0 Z0.08000

G0 X0.20820 Y2.05000
G1 Z[#50+0*#52]
G2 I-0.00820 J0
G0 Z0.08000

G0 X0.20820 Y2.15000
G1 Z[#50+0*#52]
G2 I-0.00820 J0
G0 Z0.08000

G0 X0.20820 Y2.25000
G1 Z[#50+0*#52]
G2 I-0.00820 J0
G0 Z0.08000

G0 X0.20820 Y2.35000
G1 Z[#50+0*#52]
G2 I-0.00820 J0
G0 Z0.08000

G0 X2.04725 Y0.20000
G1 Z[#50+0*#52]
G2 I-0.04725 J0
G0 Z0.08000

G0 X0.24725 Y2.60000
G1 Z[#50+0*#52]
G2 I-0.04725 J0
G0 Z0.08000

G00 Z0.80000 ( All done -- retract )

M9 ( Coolant off. )
M2 ( Program end. )

