( pcb2gcode 1.1.4 )

( This file uses 4 drill bit sizes. )

G94     ( Inches per minute feed rate. )
G20     ( Units == INCHES.             )
G90     ( Absolute coordinates.        )
S20000  ( RPM spindle speed.           )

G00 Z0.80000 ( Retract )
T1
M5      ( Spindle stop.                )
M6      ( Tool change.                 )
(MSG, CHANGE TOOL BIT: to drill size 0.03200 inch)
M0      ( Temporary machine stop.      )
M3      ( Spindle on clockwise.        )

G81 R0.08000 Z-0.08000 F3.00000 X1.51800 Y0.61800
X1.41800 Y0.61800
X1.31800 Y0.61800
X1.21800 Y0.61800
X1.11800 Y0.61800
X1.01800 Y0.61800
X0.91800 Y0.61800
X0.91800 Y0.96800
X0.81800 Y0.96800
X0.71800 Y0.96800
X0.61800 Y0.96800
X0.71800 Y1.11800
X0.71800 Y1.21800
X0.81800 Y1.21800
X0.81800 Y1.11800
X0.91800 Y1.11800
X0.91800 Y1.21800
X1.01800 Y1.21800
X1.01800 Y1.11800
X1.11800 Y1.11800
X1.11800 Y1.21800
X1.21800 Y1.21800
X1.21800 Y1.11800
X1.31800 Y1.11800
X1.31800 Y1.21800
X1.41800 Y1.21800
X1.41800 Y1.11800
X1.41800 Y0.96800
X1.31800 Y0.96800
X1.21800 Y0.96800
X1.11800 Y0.96800
X1.01800 Y0.96800
X1.79300 Y2.06800
X1.89300 Y1.96800
X1.89300 Y2.46800
X1.79300 Y2.46800
X1.51800 Y2.76800
X1.51800 Y2.86800
X1.31800 Y2.86800
X1.31800 Y2.76800


G00 Z0.80000 ( Retract )
T2
M5      ( Spindle stop.                )
M6      ( Tool change.                 )
(MSG, CHANGE TOOL BIT: to drill size 0.03600 inch)
M0      ( Temporary machine stop.      )
M3      ( Spindle on clockwise.        )

G81 R0.08000 Z-0.08000 F3.00000 X1.31800 Y2.26800
X1.31800 Y2.16800
X1.21800 Y2.16800
X1.21800 Y2.26800
X1.11800 Y2.26800
X1.11800 Y2.16800
X1.41800 Y2.16800
X1.41800 Y2.26800
X1.51800 Y2.26800
X1.51800 Y2.16800


G00 Z0.80000 ( Retract )
T3
M5      ( Spindle stop.                )
M6      ( Tool change.                 )
(MSG, CHANGE TOOL BIT: to drill size 0.04000 inch)
M0      ( Temporary machine stop.      )
M3      ( Spindle on clockwise.        )

G81 R0.08000 Z-0.08000 F3.00000 X2.11800 Y0.61800
X2.11800 Y0.71800
X2.11800 Y0.81800
X2.11800 Y0.91800
X2.11800 Y1.01800
X2.11800 Y1.11800
X2.11800 Y1.21800
X2.11800 Y1.31800
X2.11800 Y1.41800
X2.11800 Y1.51800
X2.11800 Y1.61800
X2.11800 Y1.71800
X2.11800 Y1.81800
X2.11800 Y1.91800
X2.11800 Y2.01800
X2.11800 Y2.11800
X2.11800 Y2.21800
X2.11800 Y2.31800
X2.11800 Y2.41800
X2.11800 Y2.51800
X2.01800 Y2.51800
X2.01800 Y2.41800
X2.01800 Y2.31800
X2.01800 Y2.21800
X2.01800 Y2.11800
X2.01800 Y2.01800
X2.01800 Y1.91800
X2.01800 Y1.81800
X2.01800 Y1.71800
X2.01800 Y1.61800
X2.01800 Y1.51800
X2.01800 Y1.41800
X2.01800 Y1.31800
X2.01800 Y1.21800
X2.01800 Y1.11800
X2.01800 Y1.01800
X2.01800 Y0.91800
X2.01800 Y0.81800
X2.01800 Y0.71800
X2.01800 Y0.61800
X1.06800 Y2.71800
X0.96800 Y2.71800
X0.86800 Y2.71800
X0.66800 Y2.71800
X0.56800 Y2.71800
X0.46800 Y2.71800
X0.41800 Y2.51800
X0.41800 Y2.41800
X0.41800 Y2.31800
X0.41800 Y2.21800
X0.41800 Y2.11800
X0.41800 Y2.01800
X0.41800 Y1.91800
X0.41800 Y1.81800
X0.41800 Y1.71800
X0.41800 Y1.61800
X0.41800 Y1.51800
X0.41800 Y1.41800
X0.41800 Y1.31800
X0.41800 Y1.21800
X0.41800 Y1.11800
X0.41800 Y1.01800
X0.41800 Y0.91800
X0.41800 Y0.81800
X0.41800 Y0.71800
X0.41800 Y0.61800
X0.31800 Y0.61800
X0.31800 Y0.71800
X0.31800 Y0.81800
X0.31800 Y0.91800
X0.31800 Y1.01800
X0.31800 Y1.11800
X0.31800 Y1.21800
X0.31800 Y1.31800
X0.31800 Y1.41800
X0.31800 Y1.51800
X0.31800 Y1.61800
X0.31800 Y1.71800
X0.31800 Y1.81800
X0.31800 Y1.91800
X0.31800 Y2.01800
X0.31800 Y2.11800
X0.31800 Y2.21800
X0.31800 Y2.31800
X0.31800 Y2.41800
X0.31800 Y2.51800


G00 Z0.80000 ( Retract )
T4
M5      ( Spindle stop.                )
M6      ( Tool change.                 )
(MSG, CHANGE TOOL BIT: to drill size 0.11810 inch)
M0      ( Temporary machine stop.      )
M3      ( Spindle on clockwise.        )

G81 R0.08000 Z-0.08000 F3.00000 X0.31800 Y0.36800
X2.11800 Y2.76800


G00 Z0.80000 ( All done -- retract )

M9 ( Coolant off. )
M2 ( Program end. )

