( pcb2gcode 1.1.4 )

G94     ( Inches per minute feed rate. )
G20     ( Units == INCHES.             )
G90     ( Absolute coordinates.        )
S30000  ( RPM spindle speed.           )
M3      ( Spindle on clockwise.        )

G64 P0.00500 ( set maximum deviation from commanded toolpath )

G04 P0 ( dwell for no time -- G64 should not smooth over this point )
G00 Z0.08000 ( retract )

G00 X0.11700 Y3.07860 ( rapid move to begin. )
G01 Z-0.00800 F6.00000 ( plunge. )
G04 P0 ( dwell for no time -- G64 should not smooth over this point )
X0.11700 Y3.07860
X0.11600 Y3.07860
X0.11600 Y0.43260
X0.11700 Y0.43260
X0.11700 Y0.43060
X0.11800 Y0.43060
X0.11800 Y0.42860
X0.12000 Y0.42860
X0.12000 Y0.42760
X0.12200 Y0.42760
X0.12200 Y0.42660
X0.13700 Y0.42660
X0.13700 Y0.42760
X0.13900 Y0.42760
X0.13900 Y0.42860
X0.14100 Y0.42860
X0.14100 Y0.43060
X0.14200 Y0.43060
X0.14200 Y0.43160
X0.14300 Y0.43160
X0.14300 Y0.43460
X0.14400 Y0.43460
X0.14400 Y0.43560
X0.14500 Y0.43560
X0.14500 Y0.43760
X0.14600 Y0.43760
X0.14600 Y0.43860
X0.14700 Y0.43860
X0.14700 Y0.44060
X0.14800 Y0.44060
X0.14800 Y0.44160
X0.14900 Y0.44160
X0.14900 Y0.44360
X0.15000 Y0.44360
X0.15000 Y0.44460
X0.15100 Y0.44460
X0.15100 Y0.44660
X0.15200 Y0.44660
X0.15200 Y0.44760
X0.15300 Y0.44760
X0.15300 Y0.44860
X0.15400 Y0.44860
X0.15400 Y0.45060
X0.15500 Y0.45060
X0.15500 Y0.45160
X0.15600 Y0.45160
X0.15600 Y0.45360
X0.15700 Y0.45360
X0.15700 Y0.45460
X0.15800 Y0.45460
X0.15800 Y0.45660
X0.15900 Y0.45660
X0.15900 Y0.45760
X0.16000 Y0.45760
X0.16000 Y0.45960
X0.16100 Y0.45960
X0.16100 Y0.46060
X0.16200 Y0.46060
X0.16200 Y0.46260
X0.16300 Y0.46260
X0.16300 Y0.46360
X0.16400 Y0.46360
X0.16400 Y0.46560
X0.16500 Y0.46560
X0.16500 Y0.46660
X0.16600 Y0.46660
X0.16600 Y0.46760
X0.16700 Y0.46760
X0.16700 Y0.46960
X0.16800 Y0.46960
X0.16800 Y0.47060
X0.16900 Y0.47060
X0.16900 Y0.47260
X0.17000 Y0.47260
X0.17000 Y0.47360
X0.17100 Y0.47360
X0.17100 Y0.47460
X0.17200 Y0.47460
X0.17200 Y0.47560
X0.17400 Y0.47560
X0.17400 Y0.47660
X0.17500 Y0.47660
X0.17500 Y0.47760
X0.17600 Y0.47760
X0.17600 Y0.47860
X0.17700 Y0.47860
X0.17700 Y0.47960
X0.17900 Y0.47960
X0.17900 Y0.48060
X0.18000 Y0.48060
X0.18000 Y0.48160
X0.18100 Y0.48160
X0.18100 Y0.48260
X0.18300 Y0.48260
X0.18300 Y0.48360
X0.18400 Y0.48360
X0.18400 Y0.48460
X0.18500 Y0.48460
X0.18500 Y0.48560
X0.18600 Y0.48560
X0.18600 Y0.48660
X0.18800 Y0.48660
X0.18800 Y0.48760
X0.18900 Y0.48760
X0.18900 Y0.48860
X0.19000 Y0.48860
X0.19000 Y0.48960
X0.19100 Y0.48960
X0.19100 Y0.49060
X0.19300 Y0.49060
X0.19300 Y0.49160
X0.19400 Y0.49160
X0.19400 Y0.49260
X0.19500 Y0.49260
X0.19500 Y0.49360
X0.19600 Y0.49360
X0.19600 Y0.49460
X0.19800 Y0.49460
X0.19800 Y0.49560
X0.19900 Y0.49560
X0.19900 Y0.49660
X0.20000 Y0.49660
X0.20000 Y0.49760
X0.20100 Y0.49760
X0.20100 Y0.49860
X0.20300 Y0.49860
X0.20300 Y0.49960
X0.20400 Y0.49960
X0.20400 Y0.50060
X0.20500 Y0.50060
X0.20500 Y0.50160
X0.20600 Y0.50160
X0.20600 Y0.50260
X0.20800 Y0.50260
X0.20800 Y0.50360
X0.21100 Y0.50360
X0.21100 Y0.50460
X0.21400 Y0.50460
X0.21400 Y0.50560
X0.21600 Y0.50560
X0.21600 Y0.50660
X0.21900 Y0.50660
X0.21900 Y0.50760
X0.22100 Y0.50760
X0.22100 Y0.50860
X0.22400 Y0.50860
X0.22400 Y0.50960
X0.22700 Y0.50960
X0.22700 Y0.51060
X0.22900 Y0.51060
X0.22900 Y0.51160
X0.23200 Y0.51160
X0.23200 Y0.51260
X0.23500 Y0.51260
X0.23500 Y0.51360
X0.23700 Y0.51360
X0.23700 Y0.51460
X0.24000 Y0.51460
X0.24000 Y0.51560
X0.24200 Y0.51560
X0.24200 Y0.51660
X0.24500 Y0.51660
X0.24500 Y0.51760
X0.24800 Y0.51760
X0.24800 Y0.51860
X0.25000 Y0.51860
X0.25000 Y0.51960
X0.25700 Y0.51960
X0.25700 Y0.52060
X0.26900 Y0.52060
X0.26900 Y0.52160
X0.28200 Y0.52160
X0.28200 Y0.52260
X0.29500 Y0.52260
X0.29500 Y0.52160
X0.29900 Y0.52160
X0.29900 Y0.52060
X0.30400 Y0.52060
X0.30400 Y0.51960
X0.30800 Y0.51960
X0.30800 Y0.51860
X0.31300 Y0.51860
X0.31300 Y0.51760
X0.31700 Y0.51760
X0.31700 Y0.51660
X0.32200 Y0.51660
X0.32200 Y0.51560
X0.32600 Y0.51560
X0.32600 Y0.51460
X0.33000 Y0.51460
X0.33000 Y0.51360
X0.33500 Y0.51360
X0.33500 Y0.51260
X0.33700 Y0.51260
X0.33700 Y0.51160
X0.33800 Y0.51160
X0.33800 Y0.51060
X0.34000 Y0.51060
X0.34000 Y0.50960
X0.34200 Y0.50960
X0.34200 Y0.50860
X0.34400 Y0.50860
X0.34400 Y0.50760
X0.34500 Y0.50760
X0.34500 Y0.50660
X0.34700 Y0.50660
X0.34700 Y0.50560
X0.34900 Y0.50560
X0.34900 Y0.50460
X0.35000 Y0.50460
X0.35000 Y0.50360
X0.35200 Y0.50360
X0.35200 Y0.50260
X0.35400 Y0.50260
X0.35400 Y0.50160
X0.35600 Y0.50160
X0.35600 Y0.50060
X0.35700 Y0.50060
X0.35700 Y0.49960
X0.35900 Y0.49960
X0.35900 Y0.49860
X0.36100 Y0.49860
X0.36100 Y0.49760
X0.36200 Y0.49760
X0.36200 Y0.49660
X0.36400 Y0.49660
X0.36400 Y0.49560
X0.36600 Y0.49560
X0.36600 Y0.49460
X0.36800 Y0.49460
X0.36800 Y0.49360
X0.36900 Y0.49360
X0.36900 Y0.49260
X0.37100 Y0.49260
X0.37100 Y0.49160
X0.37300 Y0.49160
X0.37300 Y0.49060
X0.37500 Y0.49060
X0.37500 Y0.48960
X0.37600 Y0.48960
X0.37600 Y0.48860
X0.37700 Y0.48860
X0.37700 Y0.48760
X0.37800 Y0.48760
X0.37800 Y0.48660
X0.37900 Y0.48660
X0.37900 Y0.48560
X0.38000 Y0.48560
X0.38000 Y0.48460
X0.38100 Y0.48460
X0.38100 Y0.48360
X0.38200 Y0.48360
X0.38200 Y0.48260
X0.38300 Y0.48260
X0.38300 Y0.48060
X0.38400 Y0.48060
X0.38400 Y0.47960
X0.38500 Y0.47960
X0.38500 Y0.47860
X0.38600 Y0.47860
X0.38600 Y0.47760
X0.38700 Y0.47760
X0.38700 Y0.47660
X0.38800 Y0.47660
X0.38800 Y0.47560
X0.38900 Y0.47560
X0.38900 Y0.47460
X0.39000 Y0.47460
X0.39000 Y0.47360
X0.39100 Y0.47360
X0.39100 Y0.47260
X0.39200 Y0.47260
X0.39200 Y0.47160
X0.39300 Y0.47160
X0.39300 Y0.47060
X0.39400 Y0.47060
X0.39400 Y0.46860
X0.39500 Y0.46860
X0.39500 Y0.46760
X0.39600 Y0.46760
X0.39600 Y0.46660
X0.39700 Y0.46660
X0.39700 Y0.46560
X0.39800 Y0.46560
X0.39800 Y0.46460
X0.39900 Y0.46460
X0.39900 Y0.46360
X0.40000 Y0.46360
X0.40000 Y0.46260
X0.40100 Y0.46260
X0.40100 Y0.46160
X0.40200 Y0.46160
X0.40200 Y0.46060
X0.40300 Y0.46060
X0.40300 Y0.45960
X0.40400 Y0.45960
X0.40400 Y0.45860
X0.40500 Y0.45860
X0.40500 Y0.45760
X0.40600 Y0.45760
X0.40600 Y0.45560
X0.40700 Y0.45560
X0.40700 Y0.45460
X0.40800 Y0.45460
X0.40800 Y0.45360
X0.40900 Y0.45360
X0.40900 Y0.45160
X0.41000 Y0.45160
X0.41000 Y0.44960
X0.41100 Y0.44960
X0.41100 Y0.44760
X0.41200 Y0.44760
X0.41200 Y0.44560
X0.41300 Y0.44560
X0.41300 Y0.44360
X0.41400 Y0.44360
X0.41400 Y0.44160
X0.41500 Y0.44160
X0.41500 Y0.43960
X0.41600 Y0.43960
X0.41600 Y0.43760
X0.41700 Y0.43760
X0.41700 Y0.43560
X0.41800 Y0.43560
X0.41800 Y0.43360
X0.41900 Y0.43360
X0.41900 Y0.43160
X0.42000 Y0.43160
X0.42000 Y0.42960
X0.42100 Y0.42960
X0.42100 Y0.42660
X0.42200 Y0.42660
X0.42200 Y0.42460
X0.42300 Y0.42460
X0.42300 Y0.42260
X0.42400 Y0.42260
X0.42400 Y0.42060
X0.42500 Y0.42060
X0.42500 Y0.41860
X0.42600 Y0.41860
X0.42600 Y0.41660
X0.42700 Y0.41660
X0.42700 Y0.41460
X0.42800 Y0.41460
X0.42800 Y0.41260
X0.42900 Y0.41260
X0.42900 Y0.40960
X0.43000 Y0.40960
X0.43000 Y0.40260
X0.43100 Y0.40260
X0.43100 Y0.39560
X0.43200 Y0.39560
X0.43200 Y0.38860
X0.43300 Y0.38860
X0.43300 Y0.38160
X0.43400 Y0.38160
X0.43400 Y0.37460
X0.43500 Y0.37460
X0.43500 Y0.36560
X0.43400 Y0.36560
X0.43400 Y0.35860
X0.43300 Y0.35860
X0.43300 Y0.35160
X0.43200 Y0.35160
X0.43200 Y0.34360
X0.43100 Y0.34360
X0.43100 Y0.33660
X0.43000 Y0.33660
X0.43000 Y0.32960
X0.42900 Y0.32960
X0.42900 Y0.32660
X0.42800 Y0.32660
X0.42800 Y0.32460
X0.42700 Y0.32460
X0.42700 Y0.32260
X0.42600 Y0.32260
X0.42600 Y0.32060
X0.42500 Y0.32060
X0.42500 Y0.31860
X0.42400 Y0.31860
X0.42400 Y0.31660
X0.42300 Y0.31660
X0.42300 Y0.31460
X0.42200 Y0.31460
X0.42200 Y0.31260
X0.42100 Y0.31260
X0.42100 Y0.30960
X0.42000 Y0.30960
X0.42000 Y0.30760
X0.41900 Y0.30760
X0.41900 Y0.30560
X0.41800 Y0.30560
X0.41800 Y0.30360
X0.41700 Y0.30360
X0.41700 Y0.30160
X0.41600 Y0.30160
X0.41600 Y0.29960
X0.41500 Y0.29960
X0.41500 Y0.29760
X0.41400 Y0.29760
X0.41400 Y0.29560
X0.41300 Y0.29560
X0.41300 Y0.29360
X0.41200 Y0.29360
X0.41200 Y0.29160
X0.41100 Y0.29160
X0.41100 Y0.28960
X0.41000 Y0.28960
X0.41000 Y0.28760
X0.40900 Y0.28760
X0.40900 Y0.28560
X0.40800 Y0.28560
X0.40800 Y0.28460
X0.40700 Y0.28460
X0.40700 Y0.28360
X0.40600 Y0.28360
X0.40600 Y0.28160
X0.40500 Y0.28160
X0.40500 Y0.28060
X0.40400 Y0.28060
X0.40400 Y0.27960
X0.40300 Y0.27960
X0.40300 Y0.27860
X0.40200 Y0.27860
X0.40200 Y0.27760
X0.40100 Y0.27760
X0.40100 Y0.27660
X0.40000 Y0.27660
X0.40000 Y0.27560
X0.39900 Y0.27560
X0.39900 Y0.27460
X0.39800 Y0.27460
X0.39800 Y0.27360
X0.39700 Y0.27360
X0.39700 Y0.27260
X0.39600 Y0.27260
X0.39600 Y0.27160
X0.39500 Y0.27160
X0.39500 Y0.27060
X0.39400 Y0.27060
X0.39400 Y0.26860
X0.39300 Y0.26860
X0.39300 Y0.26760
X0.39200 Y0.26760
X0.39200 Y0.26660
X0.39100 Y0.26660
X0.39100 Y0.26560
X0.39000 Y0.26560
X0.39000 Y0.26460
X0.38900 Y0.26460
X0.38900 Y0.26360
X0.38800 Y0.26360
X0.38800 Y0.26260
X0.38700 Y0.26260
X0.38700 Y0.26160
X0.38600 Y0.26160
X0.38600 Y0.26060
X0.38500 Y0.26060
X0.38500 Y0.25960
X0.38400 Y0.25960
X0.38400 Y0.25860
X0.38300 Y0.25860
X0.38300 Y0.25660
X0.38200 Y0.25660
X0.38200 Y0.25560
X0.38100 Y0.25560
X0.38100 Y0.25460
X0.38000 Y0.25460
X0.38000 Y0.25360
X0.37900 Y0.25360
X0.37900 Y0.25260
X0.37800 Y0.25260
X0.37800 Y0.25160
X0.37700 Y0.25160
X0.37700 Y0.25060
X0.37600 Y0.25060
X0.37600 Y0.24960
X0.37400 Y0.24960
X0.37400 Y0.24860
X0.37300 Y0.24860
X0.37300 Y0.24760
X0.37100 Y0.24760
X0.37100 Y0.24660
X0.36900 Y0.24660
X0.36900 Y0.24560
X0.36700 Y0.24560
X0.36700 Y0.24460
X0.36500 Y0.24460
X0.36500 Y0.24360
X0.36400 Y0.24360
X0.36400 Y0.24260
X0.36200 Y0.24260
X0.36200 Y0.24160
X0.36000 Y0.24160
X0.36000 Y0.24060
X0.35800 Y0.24060
X0.35800 Y0.23960
X0.35600 Y0.23960
X0.35600 Y0.23860
X0.35500 Y0.23860
X0.35500 Y0.23760
X0.35300 Y0.23760
X0.35300 Y0.23660
X0.35100 Y0.23660
X0.35100 Y0.23560
X0.34900 Y0.23560
X0.34900 Y0.23460
X0.34700 Y0.23460
X0.34700 Y0.23360
X0.34600 Y0.23360
X0.34600 Y0.23260
X0.34400 Y0.23260
X0.34400 Y0.23160
X0.34200 Y0.23160
X0.34200 Y0.23060
X0.34000 Y0.23060
X0.34000 Y0.22960
X0.33900 Y0.22960
X0.33900 Y0.22760
X0.33800 Y0.22760
X0.33800 Y0.22560
X0.33700 Y0.22560
X0.33700 Y0.21060
X0.33800 Y0.21060
X0.33800 Y0.20860
X0.33900 Y0.20860
X0.33900 Y0.20660
X0.34100 Y0.20660
X0.34100 Y0.20560
X0.34300 Y0.20560
X0.34300 Y0.20460
X2.17800 Y0.20460
X2.17800 Y0.20560
X2.18000 Y0.20560
X2.18000 Y0.20660
X2.18200 Y0.20660
X2.18200 Y0.20860
X2.18300 Y0.20860
X2.18300 Y0.21060
X2.18400 Y0.21060
X2.18400 Y2.68260
X2.18300 Y2.68260
X2.18300 Y2.68460
X2.18200 Y2.68460
X2.18200 Y2.68660
X2.18000 Y2.68660
X2.18000 Y2.68760
X2.17800 Y2.68760
X2.17800 Y2.68860
X2.16300 Y2.68860
X2.16300 Y2.68760
X2.16100 Y2.68760
X2.16100 Y2.68660
X2.15900 Y2.68660
X2.15900 Y2.68560
X2.15800 Y2.68560
X2.15800 Y2.68460
X2.15700 Y2.68460
X2.15700 Y2.68360
X2.15600 Y2.68360
X2.15600 Y2.68160
X2.15500 Y2.68160
X2.15500 Y2.68060
X2.15400 Y2.68060
X2.15400 Y2.67960
X2.15300 Y2.67960
X2.15300 Y2.67860
X2.15200 Y2.67860
X2.15200 Y2.67760
X2.15100 Y2.67760
X2.15100 Y2.67660
X2.15000 Y2.67660
X2.15000 Y2.67560
X2.14900 Y2.67560
X2.14900 Y2.67460
X2.14800 Y2.67460
X2.14800 Y2.67360
X2.14700 Y2.67360
X2.14700 Y2.67260
X2.14600 Y2.67260
X2.14600 Y2.67160
X2.14500 Y2.67160
X2.14500 Y2.67060
X2.14400 Y2.67060
X2.14400 Y2.66960
X2.14300 Y2.66960
X2.14300 Y2.66760
X2.14200 Y2.66760
X2.14200 Y2.66660
X2.14100 Y2.66660
X2.14100 Y2.66560
X2.14000 Y2.66560
X2.14000 Y2.66460
X2.13900 Y2.66460
X2.13900 Y2.66360
X2.13800 Y2.66360
X2.13800 Y2.66260
X2.13700 Y2.66260
X2.13700 Y2.66160
X2.13600 Y2.66160
X2.13600 Y2.66060
X2.13500 Y2.66060
X2.13500 Y2.65960
X2.13400 Y2.65960
X2.13400 Y2.65860
X2.13300 Y2.65860
X2.13300 Y2.65660
X2.13200 Y2.65660
X2.13200 Y2.65560
X2.13100 Y2.65560
X2.13100 Y2.65460
X2.13000 Y2.65460
X2.13000 Y2.65360
X2.12900 Y2.65360
X2.12900 Y2.65260
X2.12800 Y2.65260
X2.12800 Y2.65160
X2.12700 Y2.65160
X2.12700 Y2.65060
X2.12600 Y2.65060
X2.12600 Y2.64960
X2.12500 Y2.64960
X2.12500 Y2.64860
X2.12300 Y2.64860
X2.12300 Y2.64760
X2.12100 Y2.64760
X2.12100 Y2.64660
X2.11900 Y2.64660
X2.11900 Y2.64560
X2.11800 Y2.64560
X2.11800 Y2.64460
X2.11600 Y2.64460
X2.11600 Y2.64360
X2.11400 Y2.64360
X2.11400 Y2.64260
X2.11300 Y2.64260
X2.11300 Y2.64160
X2.11100 Y2.64160
X2.11100 Y2.64060
X2.10900 Y2.64060
X2.10900 Y2.63960
X2.10700 Y2.63960
X2.10700 Y2.63860
X2.10600 Y2.63860
X2.10600 Y2.63760
X2.10400 Y2.63760
X2.10400 Y2.63660
X2.10200 Y2.63660
X2.10200 Y2.63560
X2.10000 Y2.63560
X2.10000 Y2.63460
X2.09900 Y2.63460
X2.09900 Y2.63360
X2.09700 Y2.63360
X2.09700 Y2.63260
X2.09500 Y2.63260
X2.09500 Y2.63160
X2.09400 Y2.63160
X2.09400 Y2.63060
X2.09200 Y2.63060
X2.09200 Y2.62960
X2.09000 Y2.62960
X2.09000 Y2.62860
X2.08800 Y2.62860
X2.08800 Y2.62760
X2.08700 Y2.62760
X2.08700 Y2.62660
X2.08500 Y2.62660
X2.08500 Y2.62560
X2.08000 Y2.62560
X2.08000 Y2.62460
X2.07400 Y2.62460
X2.07400 Y2.62360
X2.07200 Y2.62360
X2.07200 Y2.62260
X2.06700 Y2.62260
X2.06700 Y2.62160
X2.06300 Y2.62160
X2.06300 Y2.62060
X2.05800 Y2.62060
X2.05800 Y2.61960
X2.05400 Y2.61960
X2.05400 Y2.61860
X2.04900 Y2.61860
X2.04900 Y2.61760
X2.04500 Y2.61760
X2.04500 Y2.61660
X2.03100 Y2.61660
X2.03100 Y2.61760
X2.01900 Y2.61760
X2.01900 Y2.61860
X2.00600 Y2.61860
X2.00600 Y2.61960
X2.00000 Y2.61960
X2.00000 Y2.62060
X1.99800 Y2.62060
X1.99800 Y2.62160
X1.99500 Y2.62160
X1.99500 Y2.62260
X1.99200 Y2.62260
X1.99200 Y2.62360
X1.99000 Y2.62360
X1.99000 Y2.62460
X1.98700 Y2.62460
X1.98700 Y2.62560
X1.98500 Y2.62560
X1.98500 Y2.62660
X1.98200 Y2.62660
X1.98200 Y2.62760
X1.97900 Y2.62760
X1.97900 Y2.62860
X1.97700 Y2.62860
X1.97700 Y2.62960
X1.97400 Y2.62960
X1.97400 Y2.63060
X1.97100 Y2.63060
X1.97100 Y2.63160
X1.96900 Y2.63160
X1.96900 Y2.63260
X1.96600 Y2.63260
X1.96600 Y2.63360
X1.96400 Y2.63360
X1.96400 Y2.63460
X1.96100 Y2.63460
X1.96100 Y2.63560
X1.95800 Y2.63560
X1.95800 Y2.63660
X1.95700 Y2.63660
X1.95700 Y2.63760
X1.95500 Y2.63760
X1.95500 Y2.63860
X1.95400 Y2.63860
X1.95400 Y2.63960
X1.95300 Y2.63960
X1.95300 Y2.64060
X1.95100 Y2.64060
X1.95100 Y2.64160
X1.95000 Y2.64160
X1.95000 Y2.64260
X1.94900 Y2.64260
X1.94900 Y2.64360
X1.94800 Y2.64360
X1.94800 Y2.64460
X1.94600 Y2.64460
X1.94600 Y2.64560
X1.94500 Y2.64560
X1.94500 Y2.64660
X1.94400 Y2.64660
X1.94400 Y2.64760
X1.94300 Y2.64760
X1.94300 Y2.64860
X1.94100 Y2.64860
X1.94100 Y2.64960
X1.94000 Y2.64960
X1.94000 Y2.65060
X1.93900 Y2.65060
X1.93900 Y2.65160
X1.93800 Y2.65160
X1.93800 Y2.65260
X1.93700 Y2.65260
X1.93700 Y2.65360
X1.93500 Y2.65360
X1.93500 Y2.65460
X1.93400 Y2.65460
X1.93400 Y2.65560
X1.93300 Y2.65560
X1.93300 Y2.65660
X1.93100 Y2.65660
X1.93100 Y2.65760
X1.93000 Y2.65760
X1.93000 Y2.65860
X1.92900 Y2.65860
X1.92900 Y2.65960
X1.92700 Y2.65960
X1.92700 Y2.66060
X1.92600 Y2.66060
X1.92600 Y2.66160
X1.92500 Y2.66160
X1.92500 Y2.66260
X1.92400 Y2.66260
X1.92400 Y2.66360
X1.92200 Y2.66360
X1.92200 Y2.66460
X1.92100 Y2.66460
X1.92100 Y2.66560
X1.92000 Y2.66560
X1.92000 Y2.66660
X1.91900 Y2.66660
X1.91900 Y2.66860
X1.91800 Y2.66860
X1.91800 Y2.66960
X1.91700 Y2.66960
X1.91700 Y2.67160
X1.91600 Y2.67160
X1.91600 Y2.67260
X1.91500 Y2.67260
X1.91500 Y2.67460
X1.91400 Y2.67460
X1.91400 Y2.67560
X1.91300 Y2.67560
X1.91300 Y2.67760
X1.91200 Y2.67760
X1.91200 Y2.67860
X1.91100 Y2.67860
X1.91100 Y2.68060
X1.91000 Y2.68060
X1.91000 Y2.68160
X1.90900 Y2.68160
X1.90900 Y2.68360
X1.90800 Y2.68360
X1.90800 Y2.68560
X1.90700 Y2.68560
X1.90700 Y2.68660
X1.90600 Y2.68660
X1.90600 Y2.68760
X1.90500 Y2.68760
X1.90500 Y2.68960
X1.90400 Y2.68960
X1.90400 Y2.69060
X1.90300 Y2.69060
X1.90300 Y2.69260
X1.90200 Y2.69260
X1.90200 Y2.69360
X1.90100 Y2.69360
X1.90100 Y2.69560
X1.90000 Y2.69560
X1.90000 Y2.69660
X1.89900 Y2.69660
X1.89900 Y2.69860
X1.89800 Y2.69860
X1.89800 Y2.69960
X1.89700 Y2.69960
X1.89700 Y2.70160
X1.89600 Y2.70160
X1.89600 Y2.70260
X1.89500 Y2.70260
X1.89500 Y2.70460
X1.89400 Y2.70460
X1.89400 Y2.70560
X1.89300 Y2.70560
X1.89300 Y2.70860
X1.89200 Y2.70860
X1.89200 Y2.71160
X1.89100 Y2.71160
X1.89100 Y2.71460
X1.89000 Y2.71460
X1.89000 Y2.71860
X1.88900 Y2.71860
X1.88900 Y2.72160
X1.88800 Y2.72160
X1.88800 Y2.72460
X1.88700 Y2.72460
X1.88700 Y2.72760
X1.88600 Y2.72760
X1.88600 Y2.73060
X1.88500 Y2.73060
X1.88500 Y2.73460
X1.88400 Y2.73460
X1.88400 Y2.73760
X1.88300 Y2.73760
X1.88300 Y2.74060
X1.88200 Y2.74060
X1.88200 Y2.74360
X1.88100 Y2.74360
X1.88100 Y2.74660
X1.88000 Y2.74660
X1.88000 Y2.75060
X1.87900 Y2.75060
X1.87900 Y2.78960
X1.88000 Y2.78960
X1.88000 Y2.79360
X1.88100 Y2.79360
X1.88100 Y2.79660
X1.88200 Y2.79660
X1.88200 Y2.79960
X1.88300 Y2.79960
X1.88300 Y2.80260
X1.88400 Y2.80260
X1.88400 Y2.80560
X1.88500 Y2.80560
X1.88500 Y2.80960
X1.88600 Y2.80960
X1.88600 Y2.81260
X1.88700 Y2.81260
X1.88700 Y2.81560
X1.88800 Y2.81560
X1.88800 Y2.81860
X1.88900 Y2.81860
X1.88900 Y2.82160
X1.89000 Y2.82160
X1.89000 Y2.82460
X1.89100 Y2.82460
X1.89100 Y2.82860
X1.89200 Y2.82860
X1.89200 Y2.83160
X1.89300 Y2.83160
X1.89300 Y2.83460
X1.89400 Y2.83460
X1.89400 Y2.83560
X1.89500 Y2.83560
X1.89500 Y2.83660
X1.89600 Y2.83660
X1.89600 Y2.83860
X1.89700 Y2.83860
X1.89700 Y2.84060
X1.89800 Y2.84060
X1.89800 Y2.84160
X1.89900 Y2.84160
X1.89900 Y2.84360
X1.90000 Y2.84360
X1.90000 Y2.84460
X1.90100 Y2.84460
X1.90100 Y2.84660
X1.90200 Y2.84660
X1.90200 Y2.84760
X1.90300 Y2.84760
X1.90300 Y2.84860
X1.90400 Y2.84860
X1.90400 Y2.85060
X1.90500 Y2.85060
X1.90500 Y2.85160
X1.90600 Y2.85160
X1.90600 Y2.85260
X1.90700 Y2.85260
X1.90700 Y2.85460
X1.90800 Y2.85460
X1.90800 Y2.85660
X1.90900 Y2.85660
X1.90900 Y2.85760
X1.91000 Y2.85760
X1.91000 Y2.85960
X1.91100 Y2.85960
X1.91100 Y2.86060
X1.91200 Y2.86060
X1.91200 Y2.86260
X1.91300 Y2.86260
X1.91300 Y2.86360
X1.91400 Y2.86360
X1.91400 Y2.86560
X1.91500 Y2.86560
X1.91500 Y2.86660
X1.91600 Y2.86660
X1.91600 Y2.86760
X1.91700 Y2.86760
X1.91700 Y2.86860
X1.91800 Y2.86860
X1.91800 Y2.87060
X1.91900 Y2.87060
X1.91900 Y2.87260
X1.92000 Y2.87260
X1.92000 Y2.87360
X1.92100 Y2.87360
X1.92100 Y2.87460
X1.92200 Y2.87460
X1.92200 Y2.87560
X1.92400 Y2.87560
X1.92400 Y2.87660
X1.92500 Y2.87660
X1.92500 Y2.87760
X1.92600 Y2.87760
X1.92600 Y2.87860
X1.92700 Y2.87860
X1.92700 Y2.87960
X1.92900 Y2.87960
X1.92900 Y2.88060
X1.93000 Y2.88060
X1.93000 Y2.88160
X1.93100 Y2.88160
X1.93100 Y2.88260
X1.93300 Y2.88260
X1.93300 Y2.88360
X1.93400 Y2.88360
X1.93400 Y2.88460
X1.93500 Y2.88460
X1.93500 Y2.88560
X1.93600 Y2.88560
X1.93600 Y2.88660
X1.93800 Y2.88660
X1.93800 Y2.88760
X1.93900 Y2.88760
X1.93900 Y2.88860
X1.94000 Y2.88860
X1.94000 Y2.88960
X1.94100 Y2.88960
X1.94100 Y2.89060
X1.94300 Y2.89060
X1.94300 Y2.89160
X1.94400 Y2.89160
X1.94400 Y2.89260
X1.94500 Y2.89260
X1.94500 Y2.89360
X1.94600 Y2.89360
X1.94600 Y2.89460
X1.94800 Y2.89460
X1.94800 Y2.89560
X1.94900 Y2.89560
X1.94900 Y2.89660
X1.95000 Y2.89660
X1.95000 Y2.89760
X1.95100 Y2.89760
X1.95100 Y2.89860
X1.95300 Y2.89860
X1.95300 Y2.89960
X1.95400 Y2.89960
X1.95400 Y2.90060
X1.95500 Y2.90060
X1.95500 Y2.90160
X1.95600 Y2.90160
X1.95600 Y2.90260
X1.95800 Y2.90260
X1.95800 Y2.90360
X1.96100 Y2.90360
X1.96100 Y2.90460
X1.96400 Y2.90460
X1.96400 Y2.90560
X1.96600 Y2.90560
X1.96600 Y2.90660
X1.96900 Y2.90660
X1.96900 Y2.90760
X1.97100 Y2.90760
X1.97100 Y2.90860
X1.97400 Y2.90860
X1.97400 Y2.90960
X1.97700 Y2.90960
X1.97700 Y2.91060
X1.97900 Y2.91060
X1.97900 Y2.91160
X1.98200 Y2.91160
X1.98200 Y2.91260
X1.98500 Y2.91260
X1.98500 Y2.91360
X1.98700 Y2.91360
X1.98700 Y2.91460
X1.99000 Y2.91460
X1.99000 Y2.91560
X1.99200 Y2.91560
X1.99200 Y2.91660
X1.99500 Y2.91660
X1.99500 Y2.91760
X1.99800 Y2.91760
X1.99800 Y2.91860
X2.00000 Y2.91860
X2.00000 Y2.91960
X2.00700 Y2.91960
X2.00700 Y2.92060
X2.01900 Y2.92060
X2.01900 Y2.92160
X2.03200 Y2.92160
X2.03200 Y2.92260
X2.04500 Y2.92260
X2.04500 Y2.92160
X2.04900 Y2.92160
X2.04900 Y2.92060
X2.05400 Y2.92060
X2.05400 Y2.91960
X2.05800 Y2.91960
X2.05800 Y2.91860
X2.06300 Y2.91860
X2.06300 Y2.91760
X2.06700 Y2.91760
X2.06700 Y2.91660
X2.07200 Y2.91660
X2.07200 Y2.91560
X2.07600 Y2.91560
X2.07600 Y2.91460
X2.08000 Y2.91460
X2.08000 Y2.91360
X2.08500 Y2.91360
X2.08500 Y2.91260
X2.08700 Y2.91260
X2.08700 Y2.91160
X2.08800 Y2.91160
X2.08800 Y2.91060
X2.09000 Y2.91060
X2.09000 Y2.90960
X2.09200 Y2.90960
X2.09200 Y2.90860
X2.09400 Y2.90860
X2.09400 Y2.90760
X2.09500 Y2.90760
X2.09500 Y2.90660
X2.09700 Y2.90660
X2.09700 Y2.90560
X2.09900 Y2.90560
X2.09900 Y2.90460
X2.10000 Y2.90460
X2.10000 Y2.90360
X2.10200 Y2.90360
X2.10200 Y2.90260
X2.10400 Y2.90260
X2.10400 Y2.90160
X2.10600 Y2.90160
X2.10600 Y2.90060
X2.10700 Y2.90060
X2.10700 Y2.89960
X2.10900 Y2.89960
X2.10900 Y2.89860
X2.11100 Y2.89860
X2.11100 Y2.89760
X2.11200 Y2.89760
X2.11200 Y2.89660
X2.11400 Y2.89660
X2.11400 Y2.89560
X2.11600 Y2.89560
X2.11600 Y2.89460
X2.11800 Y2.89460
X2.11800 Y2.89360
X2.11900 Y2.89360
X2.11900 Y2.89260
X2.12100 Y2.89260
X2.12100 Y2.89160
X2.12300 Y2.89160
X2.12300 Y2.89060
X2.12500 Y2.89060
X2.12500 Y2.88960
X2.12600 Y2.88960
X2.12600 Y2.88860
X2.12700 Y2.88860
X2.12700 Y2.88760
X2.12800 Y2.88760
X2.12800 Y2.88660
X2.12900 Y2.88660
X2.12900 Y2.88560
X2.13000 Y2.88560
X2.13000 Y2.88460
X2.13100 Y2.88460
X2.13100 Y2.88360
X2.13200 Y2.88360
X2.13200 Y2.88260
X2.13300 Y2.88260
X2.13300 Y2.88060
X2.13400 Y2.88060
X2.13400 Y2.87960
X2.13500 Y2.87960
X2.13500 Y2.87860
X2.13600 Y2.87860
X2.13600 Y2.87760
X2.13700 Y2.87760
X2.13700 Y2.87660
X2.13800 Y2.87660
X2.13800 Y2.87560
X2.13900 Y2.87560
X2.13900 Y2.87460
X2.14000 Y2.87460
X2.14000 Y2.87360
X2.14100 Y2.87360
X2.14100 Y2.87260
X2.14200 Y2.87260
X2.14200 Y2.87160
X2.14300 Y2.87160
X2.14300 Y2.87060
X2.14400 Y2.87060
X2.14400 Y2.86860
X2.14500 Y2.86860
X2.14500 Y2.86760
X2.14600 Y2.86760
X2.14600 Y2.86660
X2.14700 Y2.86660
X2.14700 Y2.86560
X2.14800 Y2.86560
X2.14800 Y2.86460
X2.14900 Y2.86460
X2.14900 Y2.86360
X2.15000 Y2.86360
X2.15000 Y2.86260
X2.15100 Y2.86260
X2.15100 Y2.86160
X2.15200 Y2.86160
X2.15200 Y2.86060
X2.15300 Y2.86060
X2.15300 Y2.85960
X2.15400 Y2.85960
X2.15400 Y2.85860
X2.15500 Y2.85860
X2.15500 Y2.85760
X2.15600 Y2.85760
X2.15600 Y2.85560
X2.15700 Y2.85560
X2.15700 Y2.85460
X2.15800 Y2.85460
X2.15800 Y2.85360
X2.15900 Y2.85360
X2.15900 Y2.85260
X2.16100 Y2.85260
X2.16100 Y2.85160
X2.16300 Y2.85160
X2.16300 Y2.85060
X2.17800 Y2.85060
X2.17800 Y2.85160
X2.18000 Y2.85160
X2.18000 Y2.85260
X2.18200 Y2.85260
X2.18200 Y2.85460
X2.18300 Y2.85460
X2.18300 Y2.85660
X2.18400 Y2.85660
X2.18400 Y3.07860
X2.18300 Y3.07860
X2.18300 Y3.08060
X2.18200 Y3.08060
X2.18200 Y3.08260
X2.18000 Y3.08260
X2.18000 Y3.08360
X2.17800 Y3.08360
X2.17800 Y3.08460
X0.12200 Y3.08460
X0.12200 Y3.08360
X0.12000 Y3.08360
X0.12000 Y3.08260
X0.11800 Y3.08260
X0.11800 Y3.08060
X0.11700 Y3.08060
X0.11700 Y3.07860
G04 P0 ( dwell for no time -- G64 should not smooth over this point )
G00 Z0.08000 ( retract )

G00 X1.35800 Y2.90060 ( rapid move to begin. )
G01 Z-0.00800 F6.00000 ( plunge. )
G04 P0 ( dwell for no time -- G64 should not smooth over this point )
X1.35800 Y2.90060
X1.35700 Y2.90060
X1.35700 Y2.89960
X1.35600 Y2.89960
X1.35600 Y2.89860
X1.35500 Y2.89860
X1.35500 Y2.89760
X1.35400 Y2.89760
X1.35400 Y2.89660
X1.35300 Y2.89660
X1.35300 Y2.89560
X1.35100 Y2.89560
X1.35100 Y2.89360
X1.35000 Y2.89360
X1.35000 Y2.89260
X1.34900 Y2.89260
X1.34900 Y2.89160
X1.15700 Y2.89160
X1.15700 Y2.89260
X1.15600 Y2.89260
X1.15600 Y2.89360
X1.15500 Y2.89360
X1.15500 Y2.89460
X1.15400 Y2.89460
X1.15400 Y2.89560
X1.15300 Y2.89560
X1.15300 Y2.89660
X1.15200 Y2.89660
X1.15200 Y2.89760
X1.15100 Y2.89760
X1.15100 Y2.89860
X1.15000 Y2.89860
X1.15000 Y2.89960
X1.14900 Y2.89960
X1.14900 Y2.90060
X1.14800 Y2.90060
X1.14800 Y2.90160
X1.11600 Y2.90160
X1.11600 Y2.90060
X1.11500 Y2.90060
X1.11500 Y2.89960
X1.11400 Y2.89960
X1.11400 Y2.89860
X1.11300 Y2.89860
X1.11300 Y2.89760
X1.11200 Y2.89760
X1.11200 Y2.89660
X1.11100 Y2.89660
X1.11100 Y2.89560
X1.10900 Y2.89560
X1.10900 Y2.89460
X1.10800 Y2.89460
X1.10800 Y2.89360
X1.10700 Y2.89360
X1.10700 Y2.89260
X1.10600 Y2.89260
X1.10600 Y2.89160
X0.37300 Y2.89160
X0.37300 Y2.89060
X0.37000 Y2.89060
X0.37000 Y2.88960
X0.36800 Y2.88960
X0.36800 Y2.88860
X0.36700 Y2.88860
X0.36700 Y2.88760
X0.36600 Y2.88760
X0.36600 Y2.88660
X0.36500 Y2.88660
X0.36500 Y2.88560
X0.36400 Y2.88560
X0.36400 Y2.88460
X0.36300 Y2.88460
X0.36300 Y2.88360
X0.36200 Y2.88360
X0.36200 Y2.88260
X0.36100 Y2.88260
X0.36100 Y2.88160
X0.36000 Y2.88160
X0.36000 Y2.88060
X0.35900 Y2.88060
X0.35900 Y2.87960
X0.35800 Y2.87960
X0.35800 Y2.87860
X0.35700 Y2.87860
X0.35700 Y2.87760
X0.35600 Y2.87760
X0.35600 Y2.87660
X0.35500 Y2.87660
X0.35500 Y2.87560
X0.35400 Y2.87560
X0.35400 Y2.87460
X0.35300 Y2.87460
X0.35300 Y2.87360
X0.35200 Y2.87360
X0.35200 Y2.87260
X0.35100 Y2.87260
X0.35100 Y2.87160
X0.35000 Y2.87160
X0.35000 Y2.87060
X0.34900 Y2.87060
X0.34900 Y2.86960
X0.34800 Y2.86960
X0.34800 Y2.86860
X0.34700 Y2.86860
X0.34700 Y2.86760
X0.34600 Y2.86760
X0.34600 Y2.86660
X0.34500 Y2.86660
X0.34500 Y2.86560
X0.34400 Y2.86560
X0.34400 Y2.86460
X0.34300 Y2.86460
X0.34300 Y2.86360
X0.34200 Y2.86360
X0.34200 Y2.86260
X0.34100 Y2.86260
X0.34100 Y2.86160
X0.34000 Y2.86160
X0.34000 Y2.86060
X0.33900 Y2.86060
X0.33900 Y2.85960
X0.33800 Y2.85960
X0.33800 Y2.85760
X0.33600 Y2.85760
X0.33600 Y2.85660
X0.33500 Y2.85660
X0.33500 Y2.85560
X0.33400 Y2.85560
X0.33400 Y2.85460
X0.33300 Y2.85460
X0.33300 Y2.85360
X0.33200 Y2.85360
X0.33200 Y2.85260
X0.33100 Y2.85260
X0.33100 Y2.85160
X0.33000 Y2.85160
X0.33000 Y2.85060
X0.32900 Y2.85060
X0.32900 Y2.84960
X0.32800 Y2.84960
X0.32800 Y2.84860
X0.32700 Y2.84860
X0.32700 Y2.84760
X0.32600 Y2.84760
X0.32600 Y2.84660
X0.32500 Y2.84660
X0.32500 Y2.84560
X0.32400 Y2.84560
X0.32400 Y2.84460
X0.32300 Y2.84460
X0.32300 Y2.84360
X0.32200 Y2.84360
X0.32200 Y2.84160
X0.32000 Y2.84160
X0.32000 Y2.84060
X0.31900 Y2.84060
X0.31900 Y2.83960
X0.31800 Y2.83960
X0.31800 Y2.83860
X0.31700 Y2.83860
X0.31700 Y2.83760
X0.31600 Y2.83760
X0.31600 Y2.83660
X0.31500 Y2.83660
X0.31500 Y2.83560
X0.31400 Y2.83560
X0.31400 Y2.83460
X0.31300 Y2.83460
X0.31300 Y2.83360
X0.31200 Y2.83360
X0.31200 Y2.83260
X0.31100 Y2.83260
X0.31100 Y2.83160
X0.31000 Y2.83160
X0.31000 Y2.83060
X0.30900 Y2.83060
X0.30900 Y2.82960
X0.30800 Y2.82960
X0.30800 Y2.82860
X0.30700 Y2.82860
X0.30700 Y2.82760
X0.30600 Y2.82760
X0.30600 Y2.82560
X0.30400 Y2.82560
X0.30400 Y2.82460
X0.30300 Y2.82460
X0.30300 Y2.82360
X0.30200 Y2.82360
X0.30200 Y2.82260
X0.30100 Y2.82260
X0.30100 Y2.82160
X0.30000 Y2.82160
X0.30000 Y2.82060
X0.29900 Y2.82060
X0.29900 Y2.81960
X0.29800 Y2.81960
X0.29800 Y2.81860
X0.29700 Y2.81860
X0.29700 Y2.81760
X0.29600 Y2.81760
X0.29600 Y2.81660
X0.29500 Y2.81660
X0.29500 Y2.81560
X0.29400 Y2.81560
X0.29400 Y2.81460
X0.29300 Y2.81460
X0.29300 Y2.81360
X0.29200 Y2.81360
X0.29200 Y2.81260
X0.29100 Y2.81260
X0.29100 Y2.81160
X0.29000 Y2.81160
X0.29000 Y2.81060
X0.28900 Y2.81060
X0.28900 Y2.80960
X0.28800 Y2.80960
X0.28800 Y2.80860
X0.28700 Y2.80860
X0.28700 Y2.80760
X0.28600 Y2.80760
X0.28600 Y2.80660
X0.28500 Y2.80660
X0.28500 Y2.80560
X0.28400 Y2.80560
X0.28400 Y2.80460
X0.28300 Y2.80460
X0.28300 Y2.80360
X0.28200 Y2.80360
X0.28200 Y2.80260
X0.28100 Y2.80260
X0.28100 Y2.80160
X0.28000 Y2.80160
X0.28000 Y2.80060
X0.27900 Y2.80060
X0.27900 Y2.79960
X0.27800 Y2.79960
X0.27800 Y2.79860
X0.27700 Y2.79860
X0.27700 Y2.79760
X0.27600 Y2.79760
X0.27600 Y2.79660
X0.27500 Y2.79660
X0.27500 Y2.79560
X0.27400 Y2.79560
X0.27400 Y2.79460
X0.27300 Y2.79460
X0.27300 Y2.79360
X0.27200 Y2.79360
X0.27200 Y2.79260
X0.27100 Y2.79260
X0.27100 Y2.79160
X0.27000 Y2.79160
X0.27000 Y2.79060
X0.26900 Y2.79060
X0.26900 Y2.78960
X0.26800 Y2.78960
X0.26800 Y2.78860
X0.26700 Y2.78860
X0.26700 Y2.78760
X0.26600 Y2.78760
X0.26600 Y2.78660
X0.26500 Y2.78660
X0.26500 Y2.78560
X0.26400 Y2.78560
X0.26400 Y2.78460
X0.26300 Y2.78460
X0.26300 Y2.78360
X0.26200 Y2.78360
X0.26200 Y2.78260
X0.26100 Y2.78260
X0.26100 Y2.78160
X0.26000 Y2.78160
X0.26000 Y2.78060
X0.25900 Y2.78060
X0.25900 Y2.77960
X0.25800 Y2.77960
X0.25800 Y2.77860
X0.25700 Y2.77860
X0.25700 Y2.77760
X0.25600 Y2.77760
X0.25600 Y2.77660
X0.25500 Y2.77660
X0.25500 Y2.77560
X0.25400 Y2.77560
X0.25400 Y2.77460
X0.25300 Y2.77460
X0.25300 Y2.77360
X0.25200 Y2.77360
X0.25200 Y2.77260
X0.25100 Y2.77260
X0.25100 Y2.77160
X0.25000 Y2.77160
X0.25000 Y2.77060
X0.24900 Y2.77060
X0.24900 Y2.76960
X0.24800 Y2.76960
X0.24800 Y2.76860
X0.24700 Y2.76860
X0.24700 Y2.76760
X0.24600 Y2.76760
X0.24600 Y2.76660
X0.24500 Y2.76660
X0.24500 Y2.76560
X0.24400 Y2.76560
X0.24400 Y2.76460
X0.24300 Y2.76460
X0.24300 Y2.76360
X0.24200 Y2.76360
X0.24200 Y2.76260
X0.24100 Y2.76260
X0.24100 Y2.76160
X0.24000 Y2.76160
X0.24000 Y2.76060
X0.23900 Y2.76060
X0.23900 Y2.75960
X0.23800 Y2.75960
X0.23800 Y2.75860
X0.23700 Y2.75860
X0.23700 Y2.75760
X0.23600 Y2.75760
X0.23600 Y2.75660
X0.23500 Y2.75660
X0.23500 Y2.75560
X0.23400 Y2.75560
X0.23400 Y2.75460
X0.23300 Y2.75460
X0.23300 Y2.75360
X0.23200 Y2.75360
X0.23200 Y2.75260
X0.23100 Y2.75260
X0.23100 Y2.75160
X0.23000 Y2.75160
X0.23000 Y2.75060
X0.22900 Y2.75060
X0.22900 Y2.74960
X0.22800 Y2.74960
X0.22800 Y2.74860
X0.22700 Y2.74860
X0.22700 Y2.74660
X0.22500 Y2.74660
X0.22500 Y2.74560
X0.22400 Y2.74560
X0.22400 Y2.74460
X0.22300 Y2.74460
X0.22300 Y2.74360
X0.22200 Y2.74360
X0.22200 Y2.74260
X0.22100 Y2.74260
X0.22100 Y2.74160
X0.22000 Y2.74160
X0.22000 Y2.74060
X0.21900 Y2.74060
X0.21900 Y2.73960
X0.21800 Y2.73960
X0.21800 Y2.73860
X0.21700 Y2.73860
X0.21700 Y2.73760
X0.21600 Y2.73760
X0.21600 Y2.73660
X0.21500 Y2.73660
X0.21500 Y2.73560
X0.21400 Y2.73560
X0.21400 Y2.73460
X0.21300 Y2.73460
X0.21300 Y2.73360
X0.21200 Y2.73360
X0.21200 Y2.73160
X0.21100 Y2.73160
X0.21100 Y2.72860
X0.21000 Y2.72860
X0.21000 Y2.55160
X0.20900 Y2.55160
X0.20900 Y2.55060
X0.20800 Y2.55060
X0.20800 Y2.54960
X0.20700 Y2.54960
X0.20700 Y2.54860
X0.20600 Y2.54860
X0.20600 Y2.54660
X0.20500 Y2.54660
X0.20500 Y2.54560
X0.20400 Y2.54560
X0.20400 Y2.54460
X0.20300 Y2.54460
X0.20300 Y2.54360
X0.20200 Y2.54360
X0.20200 Y2.54260
X0.20100 Y2.54260
X0.20100 Y2.54060
X0.19900 Y2.54060
X0.19900 Y2.53960
X0.19800 Y2.53960
X0.19800 Y2.53860
X0.19700 Y2.53860
X0.19700 Y2.53760
X0.19600 Y2.53760
X0.19600 Y2.50260
X0.19700 Y2.50260
X0.19700 Y2.50160
X0.19800 Y2.50160
X0.19800 Y2.50060
X0.19900 Y2.50060
X0.19900 Y2.49960
X0.20000 Y2.49960
X0.20000 Y2.49860
X0.20100 Y2.49860
X0.20100 Y2.49760
X0.20200 Y2.49760
X0.20200 Y2.49660
X0.20300 Y2.49660
X0.20300 Y2.49560
X0.20400 Y2.49560
X0.20400 Y2.49460
X0.20500 Y2.49460
X0.20500 Y2.49360
X0.20600 Y2.49360
X0.20600 Y2.49260
X0.20700 Y2.49260
X0.20700 Y2.49160
X0.20800 Y2.49160
X0.20800 Y2.49060
X0.20900 Y2.49060
X0.20900 Y2.48960
X0.21000 Y2.48960
X0.21000 Y2.48860
X0.21100 Y2.48860
X0.21100 Y2.48760
X0.21200 Y2.48760
X0.21200 Y2.48660
X0.21300 Y2.48660
X0.21300 Y2.48560
X0.21400 Y2.48560
X0.21400 Y2.48460
X0.24900 Y2.48460
X0.24900 Y2.48560
X0.25000 Y2.48560
X0.25000 Y2.48660
X0.25100 Y2.48660
X0.25100 Y2.48760
X0.25200 Y2.48760
X0.25200 Y2.48860
X0.25300 Y2.48860
X0.25300 Y2.48960
X0.25400 Y2.48960
X0.25400 Y2.49060
X0.25500 Y2.49060
X0.25500 Y2.49160
X0.25600 Y2.49160
X0.25600 Y2.49260
X0.25700 Y2.49260
X0.25700 Y2.49360
X0.25800 Y2.49360
X0.25800 Y2.49460
X0.26000 Y2.49460
X0.26000 Y2.49560
X0.26100 Y2.49560
X0.26100 Y2.49660
X0.26200 Y2.49660
X0.26200 Y2.49760
X0.26300 Y2.49760
X0.26300 Y2.49860
X0.30000 Y2.49860
X0.30000 Y2.49760
X0.30100 Y2.49760
X0.30100 Y2.49660
X0.30200 Y2.49660
X0.30200 Y2.49560
X0.30300 Y2.49560
X0.30300 Y2.49460
X0.30500 Y2.49460
X0.30500 Y2.49360
X0.30600 Y2.49360
X0.30600 Y2.49260
X0.30700 Y2.49260
X0.30700 Y2.49160
X0.30800 Y2.49160
X0.30800 Y2.49060
X0.30900 Y2.49060
X0.30900 Y2.48960
X0.31000 Y2.48960
X0.31000 Y2.48860
X0.31100 Y2.48860
X0.31100 Y2.48760
X0.31200 Y2.48760
X0.31200 Y2.48660
X0.31300 Y2.48660
X0.31300 Y2.48560
X0.31400 Y2.48560
X0.31400 Y2.48460
X0.34900 Y2.48460
X0.34900 Y2.48560
X0.35000 Y2.48560
X0.35000 Y2.48660
X0.35100 Y2.48660
X0.35100 Y2.48760
X0.35200 Y2.48760
X0.35200 Y2.48860
X0.35300 Y2.48860
X0.35300 Y2.48960
X0.35400 Y2.48960
X0.35400 Y2.49060
X0.35500 Y2.49060
X0.35500 Y2.49160
X0.35600 Y2.49160
X0.35600 Y2.49260
X0.35700 Y2.49260
X0.35700 Y2.49360
X0.35800 Y2.49360
X0.35800 Y2.49460
X0.35900 Y2.49460
X0.35900 Y2.49560
X0.36000 Y2.49560
X0.36000 Y2.49660
X0.36100 Y2.49660
X0.36100 Y2.49760
X0.36200 Y2.49760
X0.36200 Y2.49860
X0.36300 Y2.49860
X0.36300 Y2.49960
X0.36400 Y2.49960
X0.36400 Y2.50060
X0.36500 Y2.50060
X0.36500 Y2.50160
X0.36600 Y2.50160
X0.36600 Y2.50260
X0.36700 Y2.50260
X0.36700 Y2.53760
X0.36600 Y2.53760
X0.36600 Y2.53860
X0.36500 Y2.53860
X0.36500 Y2.53960
X0.36400 Y2.53960
X0.36400 Y2.54060
X0.36300 Y2.54060
X0.36300 Y2.54160
X0.36200 Y2.54160
X0.36200 Y2.54260
X0.36100 Y2.54260
X0.36100 Y2.54360
X0.36000 Y2.54360
X0.36000 Y2.54460
X0.35900 Y2.54460
X0.35900 Y2.54560
X0.35800 Y2.54560
X0.35800 Y2.54660
X0.35700 Y2.54660
X0.35700 Y2.54760
X0.35600 Y2.54760
X0.35600 Y2.54860
X0.35500 Y2.54860
X0.35500 Y2.54960
X0.35400 Y2.54960
X0.35400 Y2.55060
X0.35300 Y2.55060
X0.35300 Y2.55160
X0.35200 Y2.55160
X0.35200 Y2.55260
X0.35100 Y2.55260
X0.35100 Y2.55360
X0.35000 Y2.55360
X0.35000 Y2.55460
X0.34900 Y2.55460
X0.34900 Y2.55560
X0.31400 Y2.55560
X0.31400 Y2.55460
X0.31300 Y2.55460
X0.31300 Y2.55360
X0.31200 Y2.55360
X0.31200 Y2.55260
X0.31100 Y2.55260
X0.31100 Y2.55160
X0.31000 Y2.55160
X0.31000 Y2.55060
X0.30900 Y2.55060
X0.30900 Y2.54960
X0.30800 Y2.54960
X0.30800 Y2.54860
X0.30700 Y2.54860
X0.30700 Y2.54760
X0.30600 Y2.54760
X0.30600 Y2.54660
X0.30500 Y2.54660
X0.30500 Y2.54560
X0.30300 Y2.54560
X0.30300 Y2.54460
X0.30200 Y2.54460
X0.30200 Y2.54360
X0.30100 Y2.54360
X0.30100 Y2.54260
X0.30000 Y2.54260
X0.30000 Y2.54160
X0.26300 Y2.54160
X0.26300 Y2.54260
X0.26200 Y2.54260
X0.26200 Y2.54360
X0.26100 Y2.54360
X0.26100 Y2.54460
X0.26000 Y2.54460
X0.26000 Y2.54560
X0.25800 Y2.54560
X0.25800 Y2.54660
X0.25700 Y2.54660
X0.25700 Y2.54860
X0.25600 Y2.54860
X0.25600 Y2.54960
X0.25500 Y2.54960
X0.25500 Y2.55060
X0.25400 Y2.55060
X0.25400 Y2.55160
X0.25300 Y2.55160
X0.25300 Y2.70860
X0.25400 Y2.70860
X0.25400 Y2.70960
X0.25500 Y2.70960
X0.25500 Y2.71060
X0.25600 Y2.71060
X0.25600 Y2.71160
X0.25700 Y2.71160
X0.25700 Y2.71260
X0.25800 Y2.71260
X0.25800 Y2.71360
X0.25900 Y2.71360
X0.25900 Y2.71460
X0.26000 Y2.71460
X0.26000 Y2.71560
X0.26100 Y2.71560
X0.26100 Y2.71660
X0.26200 Y2.71660
X0.26200 Y2.71760
X0.26300 Y2.71760
X0.26300 Y2.71860
X0.26400 Y2.71860
X0.26400 Y2.71960
X0.26500 Y2.71960
X0.26500 Y2.72060
X0.26600 Y2.72060
X0.26600 Y2.72160
X0.26700 Y2.72160
X0.26700 Y2.72260
X0.26800 Y2.72260
X0.26800 Y2.72360
X0.26900 Y2.72360
X0.26900 Y2.72460
X0.27000 Y2.72460
X0.27000 Y2.72560
X0.27100 Y2.72560
X0.27100 Y2.72660
X0.27200 Y2.72660
X0.27200 Y2.72860
X0.27400 Y2.72860
X0.27400 Y2.72960
X0.27500 Y2.72960
X0.27500 Y2.73060
X0.27600 Y2.73060
X0.27600 Y2.73160
X0.27700 Y2.73160
X0.27700 Y2.73260
X0.27800 Y2.73260
X0.27800 Y2.73360
X0.27900 Y2.73360
X0.27900 Y2.73460
X0.28000 Y2.73460
X0.28000 Y2.73560
X0.28100 Y2.73560
X0.28100 Y2.73660
X0.28200 Y2.73660
X0.28200 Y2.73760
X0.28300 Y2.73760
X0.28300 Y2.73860
X0.28400 Y2.73860
X0.28400 Y2.73960
X0.28500 Y2.73960
X0.28500 Y2.74060
X0.28600 Y2.74060
X0.28600 Y2.74160
X0.28700 Y2.74160
X0.28700 Y2.74260
X0.28800 Y2.74260
X0.28800 Y2.74360
X0.28900 Y2.74360
X0.28900 Y2.74460
X0.29000 Y2.74460
X0.29000 Y2.74560
X0.29100 Y2.74560
X0.29100 Y2.74660
X0.29200 Y2.74660
X0.29200 Y2.74760
X0.29300 Y2.74760
X0.29300 Y2.74860
X0.29400 Y2.74860
X0.29400 Y2.74960
X0.29500 Y2.74960
X0.29500 Y2.75060
X0.29600 Y2.75060
X0.29600 Y2.75160
X0.29700 Y2.75160
X0.29700 Y2.75260
X0.29800 Y2.75260
X0.29800 Y2.75360
X0.29900 Y2.75360
X0.29900 Y2.75460
X0.30000 Y2.75460
X0.30000 Y2.75560
X0.30100 Y2.75560
X0.30100 Y2.75660
X0.30200 Y2.75660
X0.30200 Y2.75760
X0.30300 Y2.75760
X0.30300 Y2.75860
X0.30400 Y2.75860
X0.30400 Y2.75960
X0.30500 Y2.75960
X0.30500 Y2.76060
X0.30600 Y2.76060
X0.30600 Y2.76160
X0.30700 Y2.76160
X0.30700 Y2.76260
X0.30800 Y2.76260
X0.30800 Y2.76360
X0.30900 Y2.76360
X0.30900 Y2.76460
X0.31000 Y2.76460
X0.31000 Y2.76560
X0.31100 Y2.76560
X0.31100 Y2.76660
X0.31200 Y2.76660
X0.31200 Y2.76760
X0.31300 Y2.76760
X0.31300 Y2.76860
X0.31400 Y2.76860
X0.31400 Y2.76960
X0.31500 Y2.76960
X0.31500 Y2.77060
X0.31600 Y2.77060
X0.31600 Y2.77160
X0.31700 Y2.77160
X0.31700 Y2.77260
X0.31800 Y2.77260
X0.31800 Y2.77360
X0.31900 Y2.77360
X0.31900 Y2.77460
X0.32000 Y2.77460
X0.32000 Y2.77560
X0.32100 Y2.77560
X0.32100 Y2.77660
X0.32200 Y2.77660
X0.32200 Y2.77760
X0.32300 Y2.77760
X0.32300 Y2.77860
X0.32400 Y2.77860
X0.32400 Y2.77960
X0.32500 Y2.77960
X0.32500 Y2.78060
X0.32600 Y2.78060
X0.32600 Y2.78160
X0.32700 Y2.78160
X0.32700 Y2.78260
X0.32800 Y2.78260
X0.32800 Y2.78360
X0.32900 Y2.78360
X0.32900 Y2.78460
X0.33000 Y2.78460
X0.33000 Y2.78560
X0.33100 Y2.78560
X0.33100 Y2.78660
X0.33200 Y2.78660
X0.33200 Y2.78760
X0.33300 Y2.78760
X0.33300 Y2.78860
X0.33400 Y2.78860
X0.33400 Y2.78960
X0.33500 Y2.78960
X0.33500 Y2.79060
X0.33600 Y2.79060
X0.33600 Y2.79160
X0.33700 Y2.79160
X0.33700 Y2.79260
X0.33800 Y2.79260
X0.33800 Y2.79360
X0.33900 Y2.79360
X0.33900 Y2.79460
X0.34000 Y2.79460
X0.34000 Y2.79560
X0.34100 Y2.79560
X0.34100 Y2.79660
X0.34200 Y2.79660
X0.34200 Y2.79760
X0.34300 Y2.79760
X0.34300 Y2.79860
X0.34400 Y2.79860
X0.34400 Y2.79960
X0.34500 Y2.79960
X0.34500 Y2.80060
X0.34600 Y2.80060
X0.34600 Y2.80160
X0.34700 Y2.80160
X0.34700 Y2.80260
X0.34800 Y2.80260
X0.34800 Y2.80360
X0.34900 Y2.80360
X0.34900 Y2.80460
X0.35000 Y2.80460
X0.35000 Y2.80560
X0.35100 Y2.80560
X0.35100 Y2.80660
X0.35200 Y2.80660
X0.35200 Y2.80760
X0.35300 Y2.80760
X0.35300 Y2.80860
X0.35400 Y2.80860
X0.35400 Y2.80960
X0.35500 Y2.80960
X0.35500 Y2.81060
X0.35600 Y2.81060
X0.35600 Y2.81160
X0.35700 Y2.81160
X0.35700 Y2.81260
X0.35800 Y2.81260
X0.35800 Y2.81360
X0.35900 Y2.81360
X0.35900 Y2.81460
X0.36000 Y2.81460
X0.36000 Y2.81560
X0.36100 Y2.81560
X0.36100 Y2.81660
X0.36200 Y2.81660
X0.36200 Y2.81760
X0.36300 Y2.81760
X0.36300 Y2.81860
X0.36400 Y2.81860
X0.36400 Y2.81960
X0.36500 Y2.81960
X0.36500 Y2.82060
X0.36600 Y2.82060
X0.36600 Y2.82160
X0.36700 Y2.82160
X0.36700 Y2.82260
X0.36800 Y2.82260
X0.36800 Y2.82360
X0.36900 Y2.82360
X0.36900 Y2.82460
X0.37000 Y2.82460
X0.37000 Y2.82560
X0.37100 Y2.82560
X0.37100 Y2.82660
X0.37200 Y2.82660
X0.37200 Y2.82760
X0.37300 Y2.82760
X0.37300 Y2.82860
X0.37400 Y2.82860
X0.37400 Y2.82960
X0.37500 Y2.82960
X0.37500 Y2.83060
X0.37600 Y2.83060
X0.37600 Y2.83160
X0.37700 Y2.83160
X0.37700 Y2.83260
X0.37800 Y2.83260
X0.37800 Y2.83360
X0.37900 Y2.83360
X0.37900 Y2.83460
X0.38000 Y2.83460
X0.38000 Y2.83560
X0.38100 Y2.83560
X0.38100 Y2.83660
X0.38200 Y2.83660
X0.38200 Y2.83760
X0.38300 Y2.83760
X0.38300 Y2.83860
X0.38400 Y2.83860
X0.38400 Y2.83960
X0.38500 Y2.83960
X0.38500 Y2.84060
X0.38600 Y2.84060
X0.38600 Y2.84160
X0.38700 Y2.84160
X0.38700 Y2.84260
X0.38800 Y2.84260
X0.38800 Y2.84360
X0.38900 Y2.84360
X0.38900 Y2.84460
X0.39000 Y2.84460
X0.39000 Y2.84560
X0.39100 Y2.84560
X0.39100 Y2.84660
X0.39200 Y2.84660
X0.39200 Y2.84760
X0.39300 Y2.84760
X0.39300 Y2.84860
X0.46000 Y2.84860
X0.46000 Y2.78060
X0.45900 Y2.78060
X0.45900 Y2.77960
X0.45800 Y2.77960
X0.45800 Y2.77860
X0.45600 Y2.77860
X0.45600 Y2.77660
X0.45500 Y2.77660
X0.45500 Y2.77560
X0.45400 Y2.77560
X0.45400 Y2.77460
X0.45300 Y2.77460
X0.45300 Y2.77360
X0.45200 Y2.77360
X0.45200 Y2.77260
X0.45100 Y2.77260
X0.45100 Y2.77060
X0.45000 Y2.77060
X0.45000 Y2.76960
X0.44900 Y2.76960
X0.44900 Y2.76660
X0.44800 Y2.76660
X0.44800 Y2.76460
X0.44700 Y2.76460
X0.44700 Y2.75960
X0.44600 Y2.75960
X0.44600 Y2.68060
X0.44700 Y2.68060
X0.44700 Y2.67560
X0.44800 Y2.67560
X0.44800 Y2.67360
X0.44900 Y2.67360
X0.44900 Y2.67060
X0.45000 Y2.67060
X0.45000 Y2.66960
X0.45100 Y2.66960
X0.45100 Y2.66760
X0.45200 Y2.66760
X0.45200 Y2.66660
X0.45300 Y2.66660
X0.45300 Y2.66560
X0.45400 Y2.66560
X0.45400 Y2.66460
X0.45500 Y2.66460
X0.45500 Y2.66360
X0.45600 Y2.66360
X0.45600 Y2.66260
X0.45700 Y2.66260
X0.45700 Y2.66160
X0.45800 Y2.66160
X0.45800 Y2.66060
X0.45900 Y2.66060
X0.45900 Y2.65960
X0.46000 Y2.65960
X0.46000 Y2.65860
X0.46200 Y2.65860
X0.46200 Y2.65760
X0.46400 Y2.65760
X0.46400 Y2.65660
X0.46700 Y2.65660
X0.46700 Y2.65560
X0.47100 Y2.65560
X0.47100 Y2.65460
X0.49200 Y2.65460
X0.49200 Y2.65560
X0.49600 Y2.65560
X0.49600 Y2.65660
X0.49900 Y2.65660
X0.49900 Y2.65760
X0.50100 Y2.65760
X0.50100 Y2.65860
X0.50300 Y2.65860
X0.50300 Y2.65960
X0.50400 Y2.65960
X0.50400 Y2.66060
X0.50500 Y2.66060
X0.50500 Y2.66160
X0.50600 Y2.66160
X0.50600 Y2.66260
X0.50700 Y2.66260
X0.50700 Y2.66360
X0.50800 Y2.66360
X0.50800 Y2.66460
X0.50900 Y2.66460
X0.50900 Y2.66560
X0.51000 Y2.66560
X0.51000 Y2.66660
X0.51100 Y2.66660
X0.51100 Y2.66760
X0.51200 Y2.66760
X0.51200 Y2.66960
X0.51300 Y2.66960
X0.51300 Y2.67060
X0.51400 Y2.67060
X0.51400 Y2.67360
X0.51500 Y2.67360
X0.51500 Y2.67560
X0.51600 Y2.67560
X0.51600 Y2.68060
X0.51700 Y2.68060
X0.51700 Y2.75960
X0.51600 Y2.75960
X0.51600 Y2.76460
X0.51500 Y2.76460
X0.51500 Y2.76660
X0.51400 Y2.76660
X0.51400 Y2.76960
X0.51300 Y2.76960
X0.51300 Y2.77060
X0.51200 Y2.77060
X0.51200 Y2.77260
X0.51100 Y2.77260
X0.51100 Y2.77360
X0.51000 Y2.77360
X0.51000 Y2.77460
X0.50900 Y2.77460
X0.50900 Y2.77560
X0.50800 Y2.77560
X0.50800 Y2.77660
X0.50700 Y2.77660
X0.50700 Y2.77860
X0.50500 Y2.77860
X0.50500 Y2.77960
X0.50400 Y2.77960
X0.50400 Y2.78060
X0.50300 Y2.78060
X0.50300 Y2.84860
X0.86000 Y2.84860
X0.86000 Y2.78060
X0.85900 Y2.78060
X0.85900 Y2.77960
X0.85800 Y2.77960
X0.85800 Y2.77860
X0.85600 Y2.77860
X0.85600 Y2.77660
X0.85500 Y2.77660
X0.85500 Y2.77560
X0.85400 Y2.77560
X0.85400 Y2.77460
X0.85300 Y2.77460
X0.85300 Y2.77360
X0.85200 Y2.77360
X0.85200 Y2.77260
X0.85100 Y2.77260
X0.85100 Y2.77060
X0.85000 Y2.77060
X0.85000 Y2.76960
X0.84900 Y2.76960
X0.84900 Y2.76660
X0.84800 Y2.76660
X0.84800 Y2.76460
X0.84700 Y2.76460
X0.84700 Y2.75960
X0.84600 Y2.75960
X0.84600 Y2.68060
X0.84700 Y2.68060
X0.84700 Y2.67560
X0.84800 Y2.67560
X0.84800 Y2.67360
X0.84900 Y2.67360
X0.84900 Y2.67060
X0.85000 Y2.67060
X0.85000 Y2.66960
X0.85100 Y2.66960
X0.85100 Y2.66760
X0.85200 Y2.66760
X0.85200 Y2.66660
X0.85300 Y2.66660
X0.85300 Y2.66560
X0.85400 Y2.66560
X0.85400 Y2.66460
X0.85500 Y2.66460
X0.85500 Y2.66360
X0.85600 Y2.66360
X0.85600 Y2.66260
X0.85700 Y2.66260
X0.85700 Y2.66160
X0.85800 Y2.66160
X0.85800 Y2.66060
X0.85900 Y2.66060
X0.85900 Y2.65960
X0.86000 Y2.65960
X0.86000 Y2.65860
X0.86200 Y2.65860
X0.86200 Y2.65760
X0.86400 Y2.65760
X0.86400 Y2.65660
X0.86700 Y2.65660
X0.86700 Y2.65560
X0.87100 Y2.65560
X0.87100 Y2.65460
X0.89200 Y2.65460
X0.89200 Y2.65560
X0.89600 Y2.65560
X0.89600 Y2.65660
X0.89900 Y2.65660
X0.89900 Y2.65760
X0.90100 Y2.65760
X0.90100 Y2.65860
X0.90300 Y2.65860
X0.90300 Y2.65960
X0.90400 Y2.65960
X0.90400 Y2.66060
X0.90500 Y2.66060
X0.90500 Y2.66160
X0.90600 Y2.66160
X0.90600 Y2.66260
X0.90700 Y2.66260
X0.90700 Y2.66360
X0.90800 Y2.66360
X0.90800 Y2.66460
X0.90900 Y2.66460
X0.90900 Y2.66560
X0.91000 Y2.66560
X0.91000 Y2.66660
X0.91100 Y2.66660
X0.91100 Y2.66760
X0.91200 Y2.66760
X0.91200 Y2.66960
X0.91300 Y2.66960
X0.91300 Y2.67060
X0.91400 Y2.67060
X0.91400 Y2.67360
X0.91500 Y2.67360
X0.91500 Y2.67560
X0.91600 Y2.67560
X0.91600 Y2.68060
X0.91700 Y2.68060
X0.91700 Y2.75960
X0.91600 Y2.75960
X0.91600 Y2.76460
X0.91500 Y2.76460
X0.91500 Y2.76660
X0.91400 Y2.76660
X0.91400 Y2.76960
X0.91300 Y2.76960
X0.91300 Y2.77060
X0.91200 Y2.77060
X0.91200 Y2.77260
X0.91100 Y2.77260
X0.91100 Y2.77360
X0.91000 Y2.77360
X0.91000 Y2.77460
X0.90900 Y2.77460
X0.90900 Y2.77560
X0.90800 Y2.77560
X0.90800 Y2.77660
X0.90700 Y2.77660
X0.90700 Y2.77860
X0.90500 Y2.77860
X0.90500 Y2.77960
X0.90400 Y2.77960
X0.90400 Y2.78060
X0.90300 Y2.78060
X0.90300 Y2.84860
X1.10600 Y2.84860
X1.10600 Y2.84760
X1.10700 Y2.84760
X1.10700 Y2.84660
X1.10800 Y2.84660
X1.10800 Y2.84560
X1.10900 Y2.84560
X1.10900 Y2.84460
X1.11100 Y2.84460
X1.11100 Y2.84360
X1.11200 Y2.84360
X1.11200 Y2.84260
X1.11300 Y2.84260
X1.11300 Y2.84160
X1.11400 Y2.84160
X1.11400 Y2.84060
X1.11500 Y2.84060
X1.11500 Y2.83960
X1.11600 Y2.83960
X1.11600 Y2.83860
X1.14800 Y2.83860
X1.14800 Y2.83960
X1.14900 Y2.83960
X1.14900 Y2.84060
X1.15000 Y2.84060
X1.15000 Y2.84160
X1.15100 Y2.84160
X1.15100 Y2.84260
X1.15200 Y2.84260
X1.15200 Y2.84360
X1.15300 Y2.84360
X1.15300 Y2.84460
X1.15400 Y2.84460
X1.15400 Y2.84560
X1.15500 Y2.84560
X1.15500 Y2.84660
X1.15600 Y2.84660
X1.15600 Y2.84760
X1.15700 Y2.84760
X1.15700 Y2.84860
X1.34900 Y2.84860
X1.34900 Y2.84760
X1.35000 Y2.84760
X1.35000 Y2.84660
X1.35100 Y2.84660
X1.35100 Y2.84460
X1.35300 Y2.84460
X1.35300 Y2.84360
X1.35400 Y2.84360
X1.35400 Y2.84260
X1.35500 Y2.84260
X1.35500 Y2.84060
X1.35600 Y2.84060
X1.35600 Y2.83960
X1.35800 Y2.83960
X1.35800 Y2.83860
X1.35900 Y2.83860
X1.35900 Y2.83760
X1.36100 Y2.83760
X1.36100 Y2.83660
X1.36300 Y2.83660
X1.36300 Y2.83560
X1.36400 Y2.83560
X1.36400 Y2.83460
X1.37000 Y2.83460
X1.37000 Y2.83360
X1.39300 Y2.83360
X1.39300 Y2.83460
X1.39900 Y2.83460
X1.39900 Y2.83560
X1.40000 Y2.83560
X1.40000 Y2.83660
X1.40200 Y2.83660
X1.40200 Y2.83760
X1.40400 Y2.83760
X1.40400 Y2.83860
X1.40500 Y2.83860
X1.40500 Y2.83960
X1.40700 Y2.83960
X1.40700 Y2.84060
X1.40800 Y2.84060
X1.40800 Y2.84160
X1.40900 Y2.84160
X1.40900 Y2.84260
X1.41000 Y2.84260
X1.41000 Y2.84360
X1.41100 Y2.84360
X1.41100 Y2.84460
X1.41200 Y2.84460
X1.41200 Y2.84660
X1.41300 Y2.84660
X1.41300 Y2.84760
X1.41400 Y2.84760
X1.41400 Y2.84860
X1.57000 Y2.84860
X1.57000 Y2.84760
X1.57100 Y2.84760
X1.57100 Y2.84660
X1.57200 Y2.84660
X1.57200 Y2.84560
X1.57300 Y2.84560
X1.57300 Y2.84460
X1.57500 Y2.84460
X1.57500 Y2.84360
X1.57600 Y2.84360
X1.57600 Y2.84260
X1.57700 Y2.84260
X1.57700 Y2.84160
X1.57800 Y2.84160
X1.57800 Y2.84060
X1.57900 Y2.84060
X1.57900 Y2.83960
X1.58000 Y2.83960
X1.58000 Y2.83860
X1.58100 Y2.83860
X1.58100 Y2.83760
X1.58200 Y2.83760
X1.58200 Y2.83660
X1.58300 Y2.83660
X1.58300 Y2.83560
X1.58400 Y2.83560
X1.58400 Y2.83460
X1.58500 Y2.83460
X1.58500 Y2.83360
X1.58600 Y2.83360
X1.58600 Y2.83260
X1.58700 Y2.83260
X1.58700 Y2.83160
X1.58800 Y2.83160
X1.58800 Y2.83060
X1.58900 Y2.83060
X1.58900 Y2.82960
X1.59000 Y2.82960
X1.59000 Y2.82860
X1.59100 Y2.82860
X1.59100 Y2.82760
X1.59200 Y2.82760
X1.59200 Y2.82660
X1.59300 Y2.82660
X1.59300 Y2.82560
X1.59400 Y2.82560
X1.59400 Y2.82460
X1.59500 Y2.82460
X1.59500 Y2.82360
X1.59600 Y2.82360
X1.59600 Y2.82260
X1.59700 Y2.82260
X1.59700 Y2.82160
X1.59800 Y2.82160
X1.59800 Y2.82060
X1.59900 Y2.82060
X1.59900 Y2.81960
X1.60000 Y2.81960
X1.60000 Y2.81860
X1.60100 Y2.81860
X1.60100 Y2.81760
X1.60200 Y2.81760
X1.60200 Y2.81660
X1.60300 Y2.81660
X1.60300 Y2.81560
X1.60400 Y2.81560
X1.60400 Y2.81460
X1.60500 Y2.81460
X1.60500 Y2.81360
X1.60600 Y2.81360
X1.60600 Y2.81260
X1.60700 Y2.81260
X1.60700 Y2.81160
X1.60800 Y2.81160
X1.60800 Y2.81060
X1.60900 Y2.81060
X1.60900 Y2.80960
X1.61000 Y2.80960
X1.61000 Y2.80860
X1.61100 Y2.80860
X1.61100 Y2.80760
X1.61200 Y2.80760
X1.61200 Y2.80660
X1.61300 Y2.80660
X1.61300 Y2.80560
X1.61400 Y2.80560
X1.61400 Y2.80460
X1.61500 Y2.80460
X1.61500 Y2.80360
X1.61600 Y2.80360
X1.61600 Y2.80260
X1.61700 Y2.80260
X1.61700 Y2.80160
X1.61800 Y2.80160
X1.61800 Y2.80060
X1.61900 Y2.80060
X1.61900 Y2.79960
X1.62000 Y2.79960
X1.62000 Y2.79860
X1.62100 Y2.79860
X1.62100 Y2.79760
X1.62200 Y2.79760
X1.62200 Y2.79660
X1.62300 Y2.79660
X1.62300 Y2.79560
X1.62400 Y2.79560
X1.62400 Y2.79460
X1.62500 Y2.79460
X1.62500 Y2.79360
X1.62600 Y2.79360
X1.62600 Y2.79260
X1.62700 Y2.79260
X1.62700 Y2.79160
X1.62800 Y2.79160
X1.62800 Y2.79060
X1.62900 Y2.79060
X1.62900 Y2.78960
X1.63000 Y2.78960
X1.63000 Y2.78860
X1.63100 Y2.78860
X1.63100 Y2.78760
X1.63200 Y2.78760
X1.63200 Y2.78660
X1.63300 Y2.78660
X1.63300 Y2.78560
X1.63400 Y2.78560
X1.63400 Y2.78460
X1.63500 Y2.78460
X1.63500 Y2.78360
X1.63600 Y2.78360
X1.63600 Y2.78260
X1.63700 Y2.78260
X1.63700 Y2.78160
X1.63800 Y2.78160
X1.63800 Y2.78060
X1.63900 Y2.78060
X1.63900 Y2.77960
X1.64000 Y2.77960
X1.64000 Y2.77860
X1.64100 Y2.77860
X1.64100 Y2.77760
X1.64200 Y2.77760
X1.64200 Y2.77660
X1.64300 Y2.77660
X1.64300 Y2.77560
X1.64400 Y2.77560
X1.64400 Y2.77460
X1.64500 Y2.77460
X1.64500 Y2.77360
X1.64600 Y2.77360
X1.64600 Y2.77260
X1.64700 Y2.77260
X1.64700 Y2.77160
X1.64800 Y2.77160
X1.64800 Y2.77060
X1.64900 Y2.77060
X1.64900 Y2.76960
X1.65000 Y2.76960
X1.65000 Y2.76860
X1.65100 Y2.76860
X1.65100 Y2.76760
X1.65200 Y2.76760
X1.65200 Y2.76660
X1.65300 Y2.76660
X1.65300 Y2.76560
X1.65400 Y2.76560
X1.65400 Y2.76460
X1.65500 Y2.76460
X1.65500 Y2.76360
X1.65600 Y2.76360
X1.65600 Y2.76260
X1.65700 Y2.76260
X1.65700 Y2.76160
X1.65800 Y2.76160
X1.65800 Y2.76060
X1.65900 Y2.76060
X1.65900 Y2.75960
X1.66000 Y2.75960
X1.66000 Y2.75860
X1.66100 Y2.75860
X1.66100 Y2.75760
X1.66200 Y2.75760
X1.66200 Y2.75660
X1.66300 Y2.75660
X1.66300 Y2.75560
X1.66400 Y2.75560
X1.66400 Y2.75460
X1.66500 Y2.75460
X1.66500 Y2.75360
X1.66600 Y2.75360
X1.66600 Y2.75260
X1.66700 Y2.75260
X1.66700 Y2.75160
X1.66800 Y2.75160
X1.66800 Y2.75060
X1.66900 Y2.75060
X1.66900 Y2.74960
X1.67000 Y2.74960
X1.67000 Y2.74860
X1.67100 Y2.74860
X1.67100 Y2.74760
X1.67200 Y2.74760
X1.67200 Y2.74660
X1.67300 Y2.74660
X1.67300 Y2.74560
X1.67400 Y2.74560
X1.67400 Y2.74360
X1.67500 Y2.74360
X1.67500 Y2.74260
X1.67600 Y2.74260
X1.67600 Y2.74160
X1.67700 Y2.74160
X1.67700 Y2.74060
X1.67800 Y2.74060
X1.67800 Y2.73960
X1.67900 Y2.73960
X1.67900 Y2.73860
X1.68000 Y2.73860
X1.68000 Y2.73760
X1.68100 Y2.73760
X1.68100 Y2.73660
X1.68200 Y2.73660
X1.68200 Y2.73560
X1.68300 Y2.73560
X1.68300 Y2.73460
X1.68400 Y2.73460
X1.68400 Y2.73360
X1.68500 Y2.73360
X1.68500 Y2.73260
X1.68600 Y2.73260
X1.68600 Y2.73160
X1.68700 Y2.73160
X1.68700 Y2.73060
X1.68800 Y2.73060
X1.68800 Y2.72960
X1.68900 Y2.72960
X1.68900 Y2.72860
X1.69100 Y2.72860
X1.69100 Y2.72660
X1.69200 Y2.72660
X1.69200 Y2.72560
X1.69300 Y2.72560
X1.69300 Y2.72460
X1.69400 Y2.72460
X1.69400 Y2.72360
X1.69500 Y2.72360
X1.69500 Y2.72260
X1.69600 Y2.72260
X1.69600 Y2.72160
X1.69700 Y2.72160
X1.69700 Y2.72060
X1.69800 Y2.72060
X1.69800 Y2.71960
X1.69900 Y2.71960
X1.69900 Y2.71860
X1.70000 Y2.71860
X1.70000 Y2.71760
X1.70100 Y2.71760
X1.70100 Y2.71660
X1.70200 Y2.71660
X1.70200 Y2.71560
X1.70300 Y2.71560
X1.70300 Y2.71460
X1.70400 Y2.71460
X1.70400 Y2.71360
X1.70500 Y2.71360
X1.70500 Y2.71260
X1.70700 Y2.71260
X1.70700 Y2.71060
X1.70800 Y2.71060
X1.70800 Y2.70960
X1.70900 Y2.70960
X1.70900 Y2.70860
X1.71000 Y2.70860
X1.71000 Y2.70760
X1.71100 Y2.70760
X1.71100 Y2.70660
X1.71200 Y2.70660
X1.71200 Y2.70560
X1.71300 Y2.70560
X1.71300 Y2.70460
X1.71400 Y2.70460
X1.71400 Y2.70360
X1.71500 Y2.70360
X1.71500 Y2.70260
X1.71600 Y2.70260
X1.71600 Y2.70160
X1.71700 Y2.70160
X1.71700 Y2.70060
X1.71800 Y2.70060
X1.71800 Y2.69960
X1.71900 Y2.69960
X1.71900 Y2.69860
X1.72000 Y2.69860
X1.72000 Y2.69760
X1.72100 Y2.69760
X1.72100 Y2.69660
X1.72300 Y2.69660
X1.72300 Y2.69460
X1.72400 Y2.69460
X1.72400 Y2.69360
X1.72500 Y2.69360
X1.72500 Y2.69260
X1.72600 Y2.69260
X1.72600 Y2.69160
X1.72700 Y2.69160
X1.72700 Y2.69060
X1.72800 Y2.69060
X1.72800 Y2.68960
X1.72900 Y2.68960
X1.72900 Y2.68860
X1.73000 Y2.68860
X1.73000 Y2.68760
X1.73100 Y2.68760
X1.73100 Y2.68660
X1.73200 Y2.68660
X1.73200 Y2.68560
X1.73300 Y2.68560
X1.73300 Y2.68460
X1.73400 Y2.68460
X1.73400 Y2.68360
X1.73500 Y2.68360
X1.73500 Y2.68260
X1.73600 Y2.68260
X1.73600 Y2.68160
X1.73700 Y2.68160
X1.73700 Y2.68060
X1.73900 Y2.68060
X1.73900 Y2.67860
X1.74000 Y2.67860
X1.74000 Y2.67760
X1.74100 Y2.67760
X1.74100 Y2.67660
X1.74200 Y2.67660
X1.74200 Y2.67560
X1.74300 Y2.67560
X1.74300 Y2.67460
X1.74400 Y2.67460
X1.74400 Y2.67360
X1.74500 Y2.67360
X1.74500 Y2.67260
X1.74600 Y2.67260
X1.74600 Y2.67160
X1.74700 Y2.67160
X1.74700 Y2.67060
X1.74800 Y2.67060
X1.74800 Y2.66960
X1.74900 Y2.66960
X1.74900 Y2.66860
X1.75000 Y2.66860
X1.75000 Y2.66760
X1.75100 Y2.66760
X1.75100 Y2.66660
X1.75200 Y2.66660
X1.75200 Y2.66560
X1.75300 Y2.66560
X1.75300 Y2.66460
X1.75500 Y2.66460
X1.75500 Y2.66260
X1.75600 Y2.66260
X1.75600 Y2.66160
X1.75700 Y2.66160
X1.75700 Y2.66060
X1.75800 Y2.66060
X1.75800 Y2.65960
X1.75900 Y2.65960
X1.75900 Y2.65860
X1.76000 Y2.65860
X1.76000 Y2.65760
X1.76100 Y2.65760
X1.76100 Y2.65660
X1.76200 Y2.65660
X1.76200 Y2.65560
X1.76300 Y2.65560
X1.76300 Y2.65460
X1.76400 Y2.65460
X1.76400 Y2.65360
X1.76500 Y2.65360
X1.76500 Y2.65260
X1.76600 Y2.65260
X1.76600 Y2.65160
X1.76700 Y2.65160
X1.76700 Y2.65060
X1.76800 Y2.65060
X1.76800 Y2.64960
X1.76900 Y2.64960
X1.76900 Y2.64860
X1.77000 Y2.64860
X1.77000 Y2.64760
X1.77100 Y2.64760
X1.77100 Y2.64660
X1.77200 Y2.64660
X1.77200 Y2.64560
X1.77300 Y2.64560
X1.77300 Y2.64460
X1.77400 Y2.64460
X1.77400 Y2.64360
X1.77500 Y2.64360
X1.77500 Y2.64260
X1.77600 Y2.64260
X1.77600 Y2.64160
X1.77700 Y2.64160
X1.77700 Y2.64060
X1.77800 Y2.64060
X1.77800 Y2.63960
X1.77900 Y2.63960
X1.77900 Y2.63860
X1.78000 Y2.63860
X1.78000 Y2.63760
X1.78100 Y2.63760
X1.78100 Y2.63660
X1.78200 Y2.63660
X1.78200 Y2.63560
X1.78300 Y2.63560
X1.78300 Y2.63460
X1.78400 Y2.63460
X1.78400 Y2.63360
X1.78500 Y2.63360
X1.78500 Y2.63260
X1.78600 Y2.63260
X1.78600 Y2.63160
X1.78700 Y2.63160
X1.78700 Y2.63060
X1.78800 Y2.63060
X1.78800 Y2.62960
X1.78900 Y2.62960
X1.78900 Y2.62860
X1.79000 Y2.62860
X1.79000 Y2.62760
X1.79100 Y2.62760
X1.79100 Y2.62660
X1.79200 Y2.62660
X1.79200 Y2.62560
X1.79300 Y2.62560
X1.79300 Y2.62460
X1.79400 Y2.62460
X1.79400 Y2.62360
X1.79500 Y2.62360
X1.79500 Y2.62260
X1.79600 Y2.62260
X1.79600 Y2.62160
X1.79700 Y2.62160
X1.79700 Y2.62060
X1.79800 Y2.62060
X1.79800 Y2.61960
X1.79900 Y2.61960
X1.79900 Y2.61860
X1.80000 Y2.61860
X1.80000 Y2.61760
X1.80200 Y2.61760
X1.80200 Y2.61560
X1.80300 Y2.61560
X1.80300 Y2.61460
X1.80400 Y2.61460
X1.80400 Y2.61360
X1.80500 Y2.61360
X1.80500 Y2.61260
X1.80600 Y2.61260
X1.80600 Y2.61160
X1.80700 Y2.61160
X1.80700 Y2.61060
X1.80800 Y2.61060
X1.80800 Y2.60960
X1.80900 Y2.60960
X1.80900 Y2.60860
X1.81000 Y2.60860
X1.81000 Y2.60760
X1.81100 Y2.60760
X1.81100 Y2.60660
X1.81200 Y2.60660
X1.81200 Y2.60560
X1.81300 Y2.60560
X1.81300 Y2.60460
X1.81400 Y2.60460
X1.81400 Y2.60360
X1.81500 Y2.60360
X1.81500 Y2.60260
X1.81600 Y2.60260
X1.81600 Y2.60160
X1.81800 Y2.60160
X1.81800 Y2.59960
X1.81900 Y2.59960
X1.81900 Y2.59860
X1.82000 Y2.59860
X1.82000 Y2.59760
X1.82100 Y2.59760
X1.82100 Y2.59660
X1.82200 Y2.59660
X1.82200 Y2.59560
X1.82300 Y2.59560
X1.82300 Y2.59460
X1.82400 Y2.59460
X1.82400 Y2.59360
X1.82500 Y2.59360
X1.82500 Y2.59260
X1.82600 Y2.59260
X1.82600 Y2.59160
X1.82700 Y2.59160
X1.82700 Y2.59060
X1.82800 Y2.59060
X1.82800 Y2.58960
X1.82900 Y2.58960
X1.82900 Y2.58860
X1.83000 Y2.58860
X1.83000 Y2.58760
X1.83100 Y2.58760
X1.83100 Y2.58660
X1.83200 Y2.58660
X1.83200 Y2.58560
X1.83400 Y2.58560
X1.83400 Y2.58360
X1.83500 Y2.58360
X1.83500 Y2.58260
X1.83600 Y2.58260
X1.83600 Y2.58160
X1.83700 Y2.58160
X1.83700 Y2.58060
X1.83800 Y2.58060
X1.83800 Y2.57960
X1.83900 Y2.57960
X1.83900 Y2.57860
X1.84000 Y2.57860
X1.84000 Y2.57760
X1.84100 Y2.57760
X1.84100 Y2.57660
X1.84200 Y2.57660
X1.84200 Y2.57560
X1.84300 Y2.57560
X1.84300 Y2.57460
X1.84400 Y2.57460
X1.84400 Y2.57360
X1.84500 Y2.57360
X1.84500 Y2.57260
X1.84600 Y2.57260
X1.84600 Y2.57160
X1.84700 Y2.57160
X1.84700 Y2.57060
X1.84800 Y2.57060
X1.84800 Y2.56960
X1.85000 Y2.56960
X1.85000 Y2.56760
X1.85100 Y2.56760
X1.85100 Y2.56660
X1.85200 Y2.56660
X1.85200 Y2.56560
X1.85300 Y2.56560
X1.85300 Y2.56460
X1.85400 Y2.56460
X1.85400 Y2.56360
X1.85500 Y2.56360
X1.85500 Y2.56260
X1.85600 Y2.56260
X1.85600 Y2.56160
X1.85700 Y2.56160
X1.85700 Y2.56060
X1.85800 Y2.56060
X1.85800 Y2.55960
X1.85900 Y2.55960
X1.85900 Y2.55860
X1.86000 Y2.55860
X1.86000 Y2.55760
X1.86100 Y2.55760
X1.86100 Y2.55660
X1.86200 Y2.55660
X1.86200 Y2.55560
X1.86300 Y2.55560
X1.86300 Y2.55460
X1.86400 Y2.55460
X1.86400 Y2.55360
X1.86600 Y2.55360
X1.86600 Y2.55160
X1.86700 Y2.55160
X1.86700 Y2.55060
X1.86800 Y2.55060
X1.86800 Y2.54960
X1.86900 Y2.54960
X1.86900 Y2.54860
X1.87000 Y2.54860
X1.87000 Y2.54760
X1.87100 Y2.54760
X1.87100 Y2.54660
X1.87200 Y2.54660
X1.87200 Y2.54560
X1.87300 Y2.54560
X1.87300 Y2.54460
X1.87400 Y2.54460
X1.87400 Y2.54360
X1.87500 Y2.54360
X1.87500 Y2.54260
X1.87600 Y2.54260
X1.87600 Y2.54160
X1.87700 Y2.54160
X1.87700 Y2.54060
X1.87800 Y2.54060
X1.87800 Y2.53960
X1.87900 Y2.53960
X1.87900 Y2.53860
X1.88000 Y2.53860
X1.88000 Y2.53760
X1.88100 Y2.53760
X1.88100 Y2.53660
X1.88200 Y2.53660
X1.88200 Y2.53560
X1.88300 Y2.53560
X1.88300 Y2.53460
X1.88400 Y2.53460
X1.88400 Y2.53360
X1.88500 Y2.53360
X1.88500 Y2.53260
X1.88600 Y2.53260
X1.88600 Y2.53160
X1.88700 Y2.53160
X1.88700 Y2.53060
X1.88800 Y2.53060
X1.88800 Y2.52960
X1.88900 Y2.52960
X1.88900 Y2.52860
X1.89000 Y2.52860
X1.89000 Y2.52760
X1.89100 Y2.52760
X1.89100 Y2.52660
X1.89200 Y2.52660
X1.89200 Y2.52560
X1.89300 Y2.52560
X1.89300 Y2.52460
X1.89400 Y2.52460
X1.89400 Y2.52360
X1.89500 Y2.52360
X1.89500 Y2.52260
X1.89600 Y2.52260
X1.89600 Y2.50260
X1.89700 Y2.50260
X1.89700 Y2.50160
X1.89800 Y2.50160
X1.89800 Y2.50060
X1.89900 Y2.50060
X1.89900 Y2.49960
X1.90000 Y2.49960
X1.90000 Y2.49860
X1.90100 Y2.49860
X1.90100 Y2.49760
X1.90200 Y2.49760
X1.90200 Y2.49660
X1.90300 Y2.49660
X1.90300 Y2.49560
X1.90400 Y2.49560
X1.90400 Y2.49460
X1.90500 Y2.49460
X1.90500 Y2.49360
X1.90600 Y2.49360
X1.90600 Y2.49260
X1.90700 Y2.49260
X1.90700 Y2.49160
X1.90800 Y2.49160
X1.90800 Y2.49060
X1.90900 Y2.49060
X1.90900 Y2.48960
X1.91000 Y2.48960
X1.91000 Y2.48860
X1.91100 Y2.48860
X1.91100 Y2.48760
X1.91200 Y2.48760
X1.91200 Y2.48660
X1.91300 Y2.48660
X1.91300 Y2.48560
X1.91400 Y2.48560
X1.91400 Y2.48460
X1.94900 Y2.48460
X1.94900 Y2.48560
X1.95000 Y2.48560
X1.95000 Y2.48660
X1.95100 Y2.48660
X1.95100 Y2.48760
X1.95200 Y2.48760
X1.95200 Y2.48860
X1.95300 Y2.48860
X1.95300 Y2.48960
X1.95400 Y2.48960
X1.95400 Y2.49060
X1.95500 Y2.49060
X1.95500 Y2.49160
X1.95600 Y2.49160
X1.95600 Y2.49260
X1.95700 Y2.49260
X1.95700 Y2.49360
X1.95800 Y2.49360
X1.95800 Y2.49460
X1.96000 Y2.49460
X1.96000 Y2.49560
X1.96100 Y2.49560
X1.96100 Y2.49660
X1.96200 Y2.49660
X1.96200 Y2.49760
X1.96300 Y2.49760
X1.96300 Y2.49860
X2.00000 Y2.49860
X2.00000 Y2.49760
X2.00100 Y2.49760
X2.00100 Y2.49660
X2.00200 Y2.49660
X2.00200 Y2.49560
X2.00300 Y2.49560
X2.00300 Y2.49460
X2.00500 Y2.49460
X2.00500 Y2.49360
X2.00600 Y2.49360
X2.00600 Y2.49260
X2.00700 Y2.49260
X2.00700 Y2.49160
X2.00800 Y2.49160
X2.00800 Y2.49060
X2.00900 Y2.49060
X2.00900 Y2.48960
X2.01000 Y2.48960
X2.01000 Y2.48860
X2.01100 Y2.48860
X2.01100 Y2.48760
X2.01200 Y2.48760
X2.01200 Y2.48660
X2.01300 Y2.48660
X2.01300 Y2.48560
X2.01400 Y2.48560
X2.01400 Y2.48460
X2.04900 Y2.48460
X2.04900 Y2.48560
X2.05000 Y2.48560
X2.05000 Y2.48660
X2.05100 Y2.48660
X2.05100 Y2.48760
X2.05200 Y2.48760
X2.05200 Y2.48860
X2.05300 Y2.48860
X2.05300 Y2.48960
X2.05400 Y2.48960
X2.05400 Y2.49060
X2.05500 Y2.49060
X2.05500 Y2.49160
X2.05600 Y2.49160
X2.05600 Y2.49260
X2.05700 Y2.49260
X2.05700 Y2.49360
X2.05800 Y2.49360
X2.05800 Y2.49460
X2.05900 Y2.49460
X2.05900 Y2.49560
X2.06000 Y2.49560
X2.06000 Y2.49660
X2.06100 Y2.49660
X2.06100 Y2.49760
X2.06200 Y2.49760
X2.06200 Y2.49860
X2.06300 Y2.49860
X2.06300 Y2.49960
X2.06400 Y2.49960
X2.06400 Y2.50060
X2.06500 Y2.50060
X2.06500 Y2.50160
X2.06600 Y2.50160
X2.06600 Y2.50260
X2.06700 Y2.50260
X2.06700 Y2.53760
X2.06600 Y2.53760
X2.06600 Y2.53860
X2.06500 Y2.53860
X2.06500 Y2.53960
X2.06400 Y2.53960
X2.06400 Y2.54060
X2.06300 Y2.54060
X2.06300 Y2.54160
X2.06200 Y2.54160
X2.06200 Y2.54260
X2.06100 Y2.54260
X2.06100 Y2.54360
X2.06000 Y2.54360
X2.06000 Y2.54460
X2.05900 Y2.54460
X2.05900 Y2.54560
X2.05800 Y2.54560
X2.05800 Y2.54660
X2.05700 Y2.54660
X2.05700 Y2.54760
X2.05600 Y2.54760
X2.05600 Y2.54860
X2.05500 Y2.54860
X2.05500 Y2.54960
X2.05400 Y2.54960
X2.05400 Y2.55060
X2.05300 Y2.55060
X2.05300 Y2.55160
X2.05200 Y2.55160
X2.05200 Y2.55260
X2.05100 Y2.55260
X2.05100 Y2.55360
X2.05000 Y2.55360
X2.05000 Y2.55460
X2.04900 Y2.55460
X2.04900 Y2.55560
X2.01400 Y2.55560
X2.01400 Y2.55460
X2.01300 Y2.55460
X2.01300 Y2.55360
X2.01200 Y2.55360
X2.01200 Y2.55260
X2.01100 Y2.55260
X2.01100 Y2.55160
X2.01000 Y2.55160
X2.01000 Y2.55060
X2.00900 Y2.55060
X2.00900 Y2.54960
X2.00800 Y2.54960
X2.00800 Y2.54860
X2.00700 Y2.54860
X2.00700 Y2.54760
X2.00600 Y2.54760
X2.00600 Y2.54660
X2.00500 Y2.54660
X2.00500 Y2.54560
X2.00300 Y2.54560
X2.00300 Y2.54460
X2.00200 Y2.54460
X2.00200 Y2.54360
X2.00100 Y2.54360
X2.00100 Y2.54260
X2.00000 Y2.54260
X2.00000 Y2.54160
X1.96300 Y2.54160
X1.96300 Y2.54260
X1.96200 Y2.54260
X1.96200 Y2.54360
X1.96100 Y2.54360
X1.96100 Y2.54460
X1.96000 Y2.54460
X1.96000 Y2.54560
X1.95800 Y2.54560
X1.95800 Y2.54660
X1.95700 Y2.54660
X1.95700 Y2.54760
X1.95600 Y2.54760
X1.95600 Y2.54860
X1.95500 Y2.54860
X1.95500 Y2.54960
X1.95400 Y2.54960
X1.95400 Y2.55060
X1.95300 Y2.55060
X1.95300 Y2.55160
X1.95200 Y2.55160
X1.95200 Y2.55260
X1.95100 Y2.55260
X1.95100 Y2.55360
X1.95000 Y2.55360
X1.95000 Y2.55460
X1.94900 Y2.55460
X1.94900 Y2.55560
X1.92900 Y2.55560
X1.92900 Y2.55660
X1.92800 Y2.55660
X1.92800 Y2.55760
X1.92700 Y2.55760
X1.92700 Y2.55860
X1.92600 Y2.55860
X1.92600 Y2.55960
X1.92500 Y2.55960
X1.92500 Y2.56060
X1.92400 Y2.56060
X1.92400 Y2.56160
X1.92300 Y2.56160
X1.92300 Y2.56260
X1.92200 Y2.56260
X1.92200 Y2.56360
X1.92100 Y2.56360
X1.92100 Y2.56460
X1.92000 Y2.56460
X1.92000 Y2.56560
X1.91900 Y2.56560
X1.91900 Y2.56660
X1.91800 Y2.56660
X1.91800 Y2.56760
X1.91700 Y2.56760
X1.91700 Y2.56860
X1.91600 Y2.56860
X1.91600 Y2.56960
X1.91500 Y2.56960
X1.91500 Y2.57060
X1.91400 Y2.57060
X1.91400 Y2.57160
X1.91300 Y2.57160
X1.91300 Y2.57260
X1.91100 Y2.57260
X1.91100 Y2.57460
X1.91000 Y2.57460
X1.91000 Y2.57560
X1.90900 Y2.57560
X1.90900 Y2.57660
X1.90800 Y2.57660
X1.90800 Y2.57760
X1.90700 Y2.57760
X1.90700 Y2.57860
X1.90600 Y2.57860
X1.90600 Y2.57960
X1.90500 Y2.57960
X1.90500 Y2.58060
X1.90400 Y2.58060
X1.90400 Y2.58160
X1.90300 Y2.58160
X1.90300 Y2.58260
X1.90200 Y2.58260
X1.90200 Y2.58360
X1.90100 Y2.58360
X1.90100 Y2.58460
X1.90000 Y2.58460
X1.90000 Y2.58560
X1.89900 Y2.58560
X1.89900 Y2.58660
X1.89800 Y2.58660
X1.89800 Y2.58760
X1.89700 Y2.58760
X1.89700 Y2.58860
X1.89600 Y2.58860
X1.89600 Y2.58960
X1.89500 Y2.58960
X1.89500 Y2.59060
X1.89400 Y2.59060
X1.89400 Y2.59160
X1.89300 Y2.59160
X1.89300 Y2.59260
X1.89200 Y2.59260
X1.89200 Y2.59360
X1.89100 Y2.59360
X1.89100 Y2.59460
X1.89000 Y2.59460
X1.89000 Y2.59560
X1.88900 Y2.59560
X1.88900 Y2.59660
X1.88800 Y2.59660
X1.88800 Y2.59760
X1.88700 Y2.59760
X1.88700 Y2.59860
X1.88600 Y2.59860
X1.88600 Y2.59960
X1.88500 Y2.59960
X1.88500 Y2.60060
X1.88400 Y2.60060
X1.88400 Y2.60160
X1.88300 Y2.60160
X1.88300 Y2.60260
X1.88200 Y2.60260
X1.88200 Y2.60360
X1.88100 Y2.60360
X1.88100 Y2.60460
X1.88000 Y2.60460
X1.88000 Y2.60560
X1.87900 Y2.60560
X1.87900 Y2.60660
X1.87800 Y2.60660
X1.87800 Y2.60760
X1.87700 Y2.60760
X1.87700 Y2.60860
X1.87600 Y2.60860
X1.87600 Y2.60960
X1.87500 Y2.60960
X1.87500 Y2.61060
X1.87400 Y2.61060
X1.87400 Y2.61160
X1.87300 Y2.61160
X1.87300 Y2.61260
X1.87200 Y2.61260
X1.87200 Y2.61360
X1.87100 Y2.61360
X1.87100 Y2.61460
X1.87000 Y2.61460
X1.87000 Y2.61560
X1.86900 Y2.61560
X1.86900 Y2.61660
X1.86800 Y2.61660
X1.86800 Y2.61760
X1.86700 Y2.61760
X1.86700 Y2.61860
X1.86600 Y2.61860
X1.86600 Y2.61960
X1.86400 Y2.61960
X1.86400 Y2.62160
X1.86300 Y2.62160
X1.86300 Y2.62260
X1.86200 Y2.62260
X1.86200 Y2.62360
X1.86100 Y2.62360
X1.86100 Y2.62460
X1.86000 Y2.62460
X1.86000 Y2.62560
X1.85900 Y2.62560
X1.85900 Y2.62660
X1.85800 Y2.62660
X1.85800 Y2.62760
X1.85700 Y2.62760
X1.85700 Y2.62860
X1.85600 Y2.62860
X1.85600 Y2.62960
X1.85500 Y2.62960
X1.85500 Y2.63060
X1.85400 Y2.63060
X1.85400 Y2.63160
X1.85300 Y2.63160
X1.85300 Y2.63260
X1.85200 Y2.63260
X1.85200 Y2.63360
X1.85100 Y2.63360
X1.85100 Y2.63460
X1.85000 Y2.63460
X1.85000 Y2.63560
X1.84800 Y2.63560
X1.84800 Y2.63760
X1.84700 Y2.63760
X1.84700 Y2.63860
X1.84600 Y2.63860
X1.84600 Y2.63960
X1.84500 Y2.63960
X1.84500 Y2.64060
X1.84400 Y2.64060
X1.84400 Y2.64160
X1.84300 Y2.64160
X1.84300 Y2.64260
X1.84200 Y2.64260
X1.84200 Y2.64360
X1.84100 Y2.64360
X1.84100 Y2.64460
X1.84000 Y2.64460
X1.84000 Y2.64560
X1.83900 Y2.64560
X1.83900 Y2.64660
X1.83800 Y2.64660
X1.83800 Y2.64760
X1.83700 Y2.64760
X1.83700 Y2.64860
X1.83600 Y2.64860
X1.83600 Y2.64960
X1.83500 Y2.64960
X1.83500 Y2.65060
X1.83400 Y2.65060
X1.83400 Y2.65160
X1.83200 Y2.65160
X1.83200 Y2.65360
X1.83100 Y2.65360
X1.83100 Y2.65460
X1.83000 Y2.65460
X1.83000 Y2.65560
X1.82900 Y2.65560
X1.82900 Y2.65660
X1.82800 Y2.65660
X1.82800 Y2.65760
X1.82700 Y2.65760
X1.82700 Y2.65860
X1.82600 Y2.65860
X1.82600 Y2.65960
X1.82500 Y2.65960
X1.82500 Y2.66060
X1.82400 Y2.66060
X1.82400 Y2.66160
X1.82300 Y2.66160
X1.82300 Y2.66260
X1.82200 Y2.66260
X1.82200 Y2.66360
X1.82100 Y2.66360
X1.82100 Y2.66460
X1.82000 Y2.66460
X1.82000 Y2.66560
X1.81900 Y2.66560
X1.81900 Y2.66660
X1.81800 Y2.66660
X1.81800 Y2.66760
X1.81600 Y2.66760
X1.81600 Y2.66960
X1.81500 Y2.66960
X1.81500 Y2.67060
X1.81400 Y2.67060
X1.81400 Y2.67160
X1.81300 Y2.67160
X1.81300 Y2.67260
X1.81200 Y2.67260
X1.81200 Y2.67360
X1.81100 Y2.67360
X1.81100 Y2.67460
X1.81000 Y2.67460
X1.81000 Y2.67560
X1.80900 Y2.67560
X1.80900 Y2.67660
X1.80800 Y2.67660
X1.80800 Y2.67760
X1.80700 Y2.67760
X1.80700 Y2.67860
X1.80600 Y2.67860
X1.80600 Y2.67960
X1.80500 Y2.67960
X1.80500 Y2.68060
X1.80400 Y2.68060
X1.80400 Y2.68160
X1.80300 Y2.68160
X1.80300 Y2.68260
X1.80200 Y2.68260
X1.80200 Y2.68360
X1.80000 Y2.68360
X1.80000 Y2.68560
X1.79900 Y2.68560
X1.79900 Y2.68660
X1.79800 Y2.68660
X1.79800 Y2.68760
X1.79700 Y2.68760
X1.79700 Y2.68860
X1.79600 Y2.68860
X1.79600 Y2.68960
X1.79500 Y2.68960
X1.79500 Y2.69060
X1.79400 Y2.69060
X1.79400 Y2.69160
X1.79300 Y2.69160
X1.79300 Y2.69260
X1.79200 Y2.69260
X1.79200 Y2.69360
X1.79100 Y2.69360
X1.79100 Y2.69460
X1.79000 Y2.69460
X1.79000 Y2.69560
X1.78900 Y2.69560
X1.78900 Y2.69660
X1.78800 Y2.69660
X1.78800 Y2.69760
X1.78700 Y2.69760
X1.78700 Y2.69860
X1.78600 Y2.69860
X1.78600 Y2.69960
X1.78500 Y2.69960
X1.78500 Y2.70060
X1.78400 Y2.70060
X1.78400 Y2.70160
X1.78300 Y2.70160
X1.78300 Y2.70260
X1.78200 Y2.70260
X1.78200 Y2.70360
X1.78100 Y2.70360
X1.78100 Y2.70460
X1.78000 Y2.70460
X1.78000 Y2.70560
X1.77900 Y2.70560
X1.77900 Y2.70660
X1.77800 Y2.70660
X1.77800 Y2.70760
X1.77700 Y2.70760
X1.77700 Y2.70860
X1.77600 Y2.70860
X1.77600 Y2.70960
X1.77500 Y2.70960
X1.77500 Y2.71060
X1.77400 Y2.71060
X1.77400 Y2.71160
X1.77300 Y2.71160
X1.77300 Y2.71260
X1.77200 Y2.71260
X1.77200 Y2.71360
X1.77100 Y2.71360
X1.77100 Y2.71460
X1.77000 Y2.71460
X1.77000 Y2.71560
X1.76900 Y2.71560
X1.76900 Y2.71660
X1.76800 Y2.71660
X1.76800 Y2.71760
X1.76700 Y2.71760
X1.76700 Y2.71860
X1.76600 Y2.71860
X1.76600 Y2.71960
X1.76500 Y2.71960
X1.76500 Y2.72060
X1.76400 Y2.72060
X1.76400 Y2.72160
X1.76300 Y2.72160
X1.76300 Y2.72260
X1.76200 Y2.72260
X1.76200 Y2.72360
X1.76100 Y2.72360
X1.76100 Y2.72460
X1.76000 Y2.72460
X1.76000 Y2.72560
X1.75900 Y2.72560
X1.75900 Y2.72660
X1.75800 Y2.72660
X1.75800 Y2.72760
X1.75700 Y2.72760
X1.75700 Y2.72860
X1.75600 Y2.72860
X1.75600 Y2.72960
X1.75500 Y2.72960
X1.75500 Y2.73060
X1.75300 Y2.73060
X1.75300 Y2.73260
X1.75200 Y2.73260
X1.75200 Y2.73360
X1.75100 Y2.73360
X1.75100 Y2.73460
X1.75000 Y2.73460
X1.75000 Y2.73560
X1.74900 Y2.73560
X1.74900 Y2.73660
X1.74800 Y2.73660
X1.74800 Y2.73760
X1.74700 Y2.73760
X1.74700 Y2.73860
X1.74600 Y2.73860
X1.74600 Y2.73960
X1.74500 Y2.73960
X1.74500 Y2.74060
X1.74400 Y2.74060
X1.74400 Y2.74160
X1.74300 Y2.74160
X1.74300 Y2.74260
X1.74200 Y2.74260
X1.74200 Y2.74360
X1.74100 Y2.74360
X1.74100 Y2.74460
X1.74000 Y2.74460
X1.74000 Y2.74560
X1.73900 Y2.74560
X1.73900 Y2.74660
X1.73700 Y2.74660
X1.73700 Y2.74860
X1.73600 Y2.74860
X1.73600 Y2.74960
X1.73500 Y2.74960
X1.73500 Y2.75060
X1.73400 Y2.75060
X1.73400 Y2.75160
X1.73300 Y2.75160
X1.73300 Y2.75260
X1.73200 Y2.75260
X1.73200 Y2.75360
X1.73100 Y2.75360
X1.73100 Y2.75460
X1.73000 Y2.75460
X1.73000 Y2.75560
X1.72900 Y2.75560
X1.72900 Y2.75660
X1.72800 Y2.75660
X1.72800 Y2.75760
X1.72700 Y2.75760
X1.72700 Y2.75860
X1.72600 Y2.75860
X1.72600 Y2.75960
X1.72500 Y2.75960
X1.72500 Y2.76060
X1.72400 Y2.76060
X1.72400 Y2.76160
X1.72300 Y2.76160
X1.72300 Y2.76260
X1.72100 Y2.76260
X1.72100 Y2.76460
X1.72000 Y2.76460
X1.72000 Y2.76560
X1.71900 Y2.76560
X1.71900 Y2.76660
X1.71800 Y2.76660
X1.71800 Y2.76760
X1.71700 Y2.76760
X1.71700 Y2.76860
X1.71600 Y2.76860
X1.71600 Y2.76960
X1.71500 Y2.76960
X1.71500 Y2.77060
X1.71400 Y2.77060
X1.71400 Y2.77160
X1.71300 Y2.77160
X1.71300 Y2.77260
X1.71200 Y2.77260
X1.71200 Y2.77360
X1.71100 Y2.77360
X1.71100 Y2.77460
X1.71000 Y2.77460
X1.71000 Y2.77560
X1.70900 Y2.77560
X1.70900 Y2.77660
X1.70800 Y2.77660
X1.70800 Y2.77760
X1.70700 Y2.77760
X1.70700 Y2.77860
X1.70500 Y2.77860
X1.70500 Y2.78060
X1.70400 Y2.78060
X1.70400 Y2.78160
X1.70300 Y2.78160
X1.70300 Y2.78260
X1.70200 Y2.78260
X1.70200 Y2.78360
X1.70100 Y2.78360
X1.70100 Y2.78460
X1.70000 Y2.78460
X1.70000 Y2.78560
X1.69900 Y2.78560
X1.69900 Y2.78660
X1.69800 Y2.78660
X1.69800 Y2.78760
X1.69600 Y2.78760
X1.69600 Y2.78860
X1.69500 Y2.78860
X1.69500 Y2.78960
X1.69400 Y2.78960
X1.69400 Y2.79060
X1.69300 Y2.79060
X1.69300 Y2.79160
X1.69200 Y2.79160
X1.69200 Y2.79260
X1.69100 Y2.79260
X1.69100 Y2.79360
X1.69000 Y2.79360
X1.69000 Y2.79460
X1.68900 Y2.79460
X1.68900 Y2.79560
X1.68800 Y2.79560
X1.68800 Y2.79660
X1.68700 Y2.79660
X1.68700 Y2.79760
X1.68600 Y2.79760
X1.68600 Y2.79860
X1.68500 Y2.79860
X1.68500 Y2.79960
X1.68400 Y2.79960
X1.68400 Y2.80060
X1.68300 Y2.80060
X1.68300 Y2.80160
X1.68200 Y2.80160
X1.68200 Y2.80260
X1.68100 Y2.80260
X1.68100 Y2.80360
X1.68000 Y2.80360
X1.68000 Y2.80460
X1.67900 Y2.80460
X1.67900 Y2.80560
X1.67800 Y2.80560
X1.67800 Y2.80660
X1.67700 Y2.80660
X1.67700 Y2.80760
X1.67600 Y2.80760
X1.67600 Y2.80860
X1.67500 Y2.80860
X1.67500 Y2.80960
X1.67400 Y2.80960
X1.67400 Y2.81060
X1.67300 Y2.81060
X1.67300 Y2.81160
X1.67200 Y2.81160
X1.67200 Y2.81260
X1.67100 Y2.81260
X1.67100 Y2.81360
X1.67000 Y2.81360
X1.67000 Y2.81460
X1.66900 Y2.81460
X1.66900 Y2.81560
X1.66800 Y2.81560
X1.66800 Y2.81660
X1.66700 Y2.81660
X1.66700 Y2.81760
X1.66600 Y2.81760
X1.66600 Y2.81860
X1.66500 Y2.81860
X1.66500 Y2.81960
X1.66400 Y2.81960
X1.66400 Y2.82060
X1.66300 Y2.82060
X1.66300 Y2.82160
X1.66200 Y2.82160
X1.66200 Y2.82260
X1.66100 Y2.82260
X1.66100 Y2.82360
X1.66000 Y2.82360
X1.66000 Y2.82460
X1.65900 Y2.82460
X1.65900 Y2.82560
X1.65800 Y2.82560
X1.65800 Y2.82660
X1.65700 Y2.82660
X1.65700 Y2.82760
X1.65600 Y2.82760
X1.65600 Y2.82860
X1.65500 Y2.82860
X1.65500 Y2.82960
X1.65400 Y2.82960
X1.65400 Y2.83060
X1.65300 Y2.83060
X1.65300 Y2.83160
X1.65200 Y2.83160
X1.65200 Y2.83260
X1.65100 Y2.83260
X1.65100 Y2.83360
X1.65000 Y2.83360
X1.65000 Y2.83460
X1.64900 Y2.83460
X1.64900 Y2.83560
X1.64800 Y2.83560
X1.64800 Y2.83660
X1.64700 Y2.83660
X1.64700 Y2.83760
X1.64600 Y2.83760
X1.64600 Y2.83860
X1.64500 Y2.83860
X1.64500 Y2.83960
X1.64400 Y2.83960
X1.64400 Y2.84060
X1.64300 Y2.84060
X1.64300 Y2.84160
X1.64200 Y2.84160
X1.64200 Y2.84260
X1.64100 Y2.84260
X1.64100 Y2.84360
X1.64000 Y2.84360
X1.64000 Y2.84460
X1.63900 Y2.84460
X1.63900 Y2.84560
X1.63800 Y2.84560
X1.63800 Y2.84660
X1.63700 Y2.84660
X1.63700 Y2.84760
X1.63600 Y2.84760
X1.63600 Y2.84860
X1.63500 Y2.84860
X1.63500 Y2.84960
X1.63400 Y2.84960
X1.63400 Y2.85060
X1.63300 Y2.85060
X1.63300 Y2.85160
X1.63200 Y2.85160
X1.63200 Y2.85260
X1.63100 Y2.85260
X1.63100 Y2.85360
X1.63000 Y2.85360
X1.63000 Y2.85460
X1.62900 Y2.85460
X1.62900 Y2.85560
X1.62800 Y2.85560
X1.62800 Y2.85660
X1.62700 Y2.85660
X1.62700 Y2.85760
X1.62600 Y2.85760
X1.62600 Y2.85860
X1.62500 Y2.85860
X1.62500 Y2.85960
X1.62400 Y2.85960
X1.62400 Y2.86060
X1.62300 Y2.86060
X1.62300 Y2.86160
X1.62200 Y2.86160
X1.62200 Y2.86260
X1.62100 Y2.86260
X1.62100 Y2.86360
X1.62000 Y2.86360
X1.62000 Y2.86460
X1.61900 Y2.86460
X1.61900 Y2.86560
X1.61800 Y2.86560
X1.61800 Y2.86660
X1.61700 Y2.86660
X1.61700 Y2.86760
X1.61600 Y2.86760
X1.61600 Y2.86860
X1.61500 Y2.86860
X1.61500 Y2.86960
X1.61400 Y2.86960
X1.61400 Y2.87060
X1.61300 Y2.87060
X1.61300 Y2.87160
X1.61200 Y2.87160
X1.61200 Y2.87260
X1.61100 Y2.87260
X1.61100 Y2.87360
X1.61000 Y2.87360
X1.61000 Y2.87460
X1.60900 Y2.87460
X1.60900 Y2.87560
X1.60800 Y2.87560
X1.60800 Y2.87660
X1.60700 Y2.87660
X1.60700 Y2.87760
X1.60600 Y2.87760
X1.60600 Y2.87860
X1.60500 Y2.87860
X1.60500 Y2.87960
X1.60400 Y2.87960
X1.60400 Y2.88060
X1.60300 Y2.88060
X1.60300 Y2.88160
X1.60200 Y2.88160
X1.60200 Y2.88260
X1.60100 Y2.88260
X1.60100 Y2.88360
X1.60000 Y2.88360
X1.60000 Y2.88460
X1.59900 Y2.88460
X1.59900 Y2.88560
X1.59800 Y2.88560
X1.59800 Y2.88660
X1.59700 Y2.88660
X1.59700 Y2.88760
X1.59600 Y2.88760
X1.59600 Y2.88860
X1.59500 Y2.88860
X1.59500 Y2.88960
X1.59300 Y2.88960
X1.59300 Y2.89060
X1.59000 Y2.89060
X1.59000 Y2.89160
X1.41400 Y2.89160
X1.41400 Y2.89260
X1.41300 Y2.89260
X1.41300 Y2.89360
X1.41200 Y2.89360
X1.41200 Y2.89560
X1.41100 Y2.89560
X1.41100 Y2.89660
X1.41000 Y2.89660
X1.41000 Y2.89760
X1.40900 Y2.89760
X1.40900 Y2.89860
X1.40800 Y2.89860
X1.40800 Y2.89960
X1.40700 Y2.89960
X1.40700 Y2.90060
X1.40500 Y2.90060
X1.40500 Y2.90160
X1.40400 Y2.90160
X1.40400 Y2.90260
X1.40200 Y2.90260
X1.40200 Y2.90360
X1.40000 Y2.90360
X1.40000 Y2.90460
X1.39800 Y2.90460
X1.39800 Y2.90560
X1.39300 Y2.90560
X1.39300 Y2.90660
X1.37000 Y2.90660
X1.37000 Y2.90560
X1.36600 Y2.90560
X1.36600 Y2.90460
X1.36300 Y2.90460
X1.36300 Y2.90360
X1.36100 Y2.90360
X1.36100 Y2.90260
X1.35900 Y2.90260
X1.35900 Y2.90160
X1.35800 Y2.90160
X1.35800 Y2.90060
G04 P0 ( dwell for no time -- G64 should not smooth over this point )
G00 Z0.08000 ( retract )

G00 X0.75900 Y2.77960 ( rapid move to begin. )
G01 Z-0.00800 F6.00000 ( plunge. )
G04 P0 ( dwell for no time -- G64 should not smooth over this point )
X0.75900 Y2.77960
X0.75900 Y2.77860
X0.75700 Y2.77860
X0.75700 Y2.77760
X0.75600 Y2.77760
X0.75600 Y2.77660
X0.75500 Y2.77660
X0.75500 Y2.77560
X0.75400 Y2.77560
X0.75400 Y2.77460
X0.75300 Y2.77460
X0.75300 Y2.77360
X0.75200 Y2.77360
X0.75200 Y2.77260
X0.75100 Y2.77260
X0.75100 Y2.77060
X0.75000 Y2.77060
X0.75000 Y2.76960
X0.74900 Y2.76960
X0.74900 Y2.76660
X0.74800 Y2.76660
X0.74800 Y2.76460
X0.74700 Y2.76460
X0.74700 Y2.75960
X0.74600 Y2.75960
X0.74600 Y2.68060
X0.74700 Y2.68060
X0.74700 Y2.67560
X0.74800 Y2.67560
X0.74800 Y2.67360
X0.74900 Y2.67360
X0.74900 Y2.67060
X0.75000 Y2.67060
X0.75000 Y2.66960
X0.75100 Y2.66960
X0.75100 Y2.66760
X0.75200 Y2.66760
X0.75200 Y2.66660
X0.75300 Y2.66660
X0.75300 Y2.66560
X0.75400 Y2.66560
X0.75400 Y2.66460
X0.75500 Y2.66460
X0.75500 Y2.66360
X0.75600 Y2.66360
X0.75600 Y2.66260
X0.75700 Y2.66260
X0.75700 Y2.66160
X0.75800 Y2.66160
X0.75800 Y2.66060
X0.75900 Y2.66060
X0.75900 Y2.65960
X0.76000 Y2.65960
X0.76000 Y2.65860
X0.76200 Y2.65860
X0.76200 Y2.65760
X0.76400 Y2.65760
X0.76400 Y2.65660
X0.76700 Y2.65660
X0.76700 Y2.65560
X0.76800 Y2.65560
X0.76800 Y2.51260
X0.76900 Y2.51260
X0.76900 Y2.51060
X0.77000 Y2.51060
X0.77000 Y2.50960
X0.77100 Y2.50960
X0.77100 Y2.50860
X0.77200 Y2.50860
X0.77200 Y2.50760
X0.77300 Y2.50760
X0.77300 Y2.50660
X0.77400 Y2.50660
X0.77400 Y2.50560
X0.77500 Y2.50560
X0.77500 Y2.50460
X0.77600 Y2.50460
X0.77600 Y2.50360
X0.77700 Y2.50360
X0.77700 Y2.50260
X0.77800 Y2.50260
X0.77800 Y2.50160
X0.77900 Y2.50160
X0.77900 Y2.50060
X0.78000 Y2.50060
X0.78000 Y2.49960
X0.78100 Y2.49960
X0.78100 Y2.49860
X0.78200 Y2.49860
X0.78200 Y2.49760
X0.78300 Y2.49760
X0.78300 Y2.49660
X0.78400 Y2.49660
X0.78400 Y2.49560
X0.78500 Y2.49560
X0.78500 Y2.49460
X0.78600 Y2.49460
X0.78600 Y2.49360
X0.78700 Y2.49360
X0.78700 Y2.49260
X0.78800 Y2.49260
X0.78800 Y2.49160
X0.78900 Y2.49160
X0.78900 Y2.49060
X0.79000 Y2.49060
X0.79000 Y2.48960
X0.79100 Y2.48960
X0.79100 Y2.48860
X0.79200 Y2.48860
X0.79200 Y2.48760
X0.79300 Y2.48760
X0.79300 Y2.48660
X0.79400 Y2.48660
X0.79400 Y2.48560
X0.79500 Y2.48560
X0.79500 Y2.48460
X0.79600 Y2.48460
X0.79600 Y2.48360
X0.79700 Y2.48360
X0.79700 Y2.48260
X0.79800 Y2.48260
X0.79800 Y2.48160
X0.79900 Y2.48160
X0.79900 Y2.48060
X0.80000 Y2.48060
X0.80000 Y2.47960
X0.80100 Y2.47960
X0.80100 Y2.47860
X0.80200 Y2.47860
X0.80200 Y2.47760
X0.80300 Y2.47760
X0.80300 Y2.47660
X0.80400 Y2.47660
X0.80400 Y2.47560
X0.80500 Y2.47560
X0.80500 Y2.47460
X0.80600 Y2.47460
X0.80600 Y2.47360
X0.80700 Y2.47360
X0.80700 Y2.47260
X0.80800 Y2.47260
X0.80800 Y2.47160
X0.80900 Y2.47160
X0.80900 Y2.47060
X0.81000 Y2.47060
X0.81000 Y2.46960
X0.81100 Y2.46960
X0.81100 Y2.46860
X0.81200 Y2.46860
X0.81200 Y2.46760
X0.81300 Y2.46760
X0.81300 Y2.46660
X0.81400 Y2.46660
X0.81400 Y2.46560
X0.81500 Y2.46560
X0.81500 Y2.46460
X0.81600 Y2.46460
X0.81600 Y2.46360
X0.81700 Y2.46360
X0.81700 Y2.46260
X0.81800 Y2.46260
X0.81800 Y2.46160
X0.81900 Y2.46160
X0.81900 Y2.46060
X0.82000 Y2.46060
X0.82000 Y2.45960
X0.82100 Y2.45960
X0.82100 Y2.45860
X0.82200 Y2.45860
X0.82200 Y2.45760
X0.82300 Y2.45760
X0.82300 Y2.45660
X0.82400 Y2.45660
X0.82400 Y2.45560
X0.82500 Y2.45560
X0.82500 Y2.45460
X0.82600 Y2.45460
X0.82600 Y2.45360
X0.82700 Y2.45360
X0.82700 Y2.45260
X0.82800 Y2.45260
X0.82800 Y2.45160
X0.82900 Y2.45160
X0.82900 Y2.45060
X0.83000 Y2.45060
X0.83000 Y2.44960
X0.83100 Y2.44960
X0.83100 Y2.44860
X0.83200 Y2.44860
X0.83200 Y2.44760
X0.83300 Y2.44760
X0.83300 Y2.44660
X0.83400 Y2.44660
X0.83400 Y2.44560
X0.83500 Y2.44560
X0.83500 Y2.44460
X0.83600 Y2.44460
X0.83600 Y2.44360
X0.83700 Y2.44360
X0.83700 Y2.44260
X0.83800 Y2.44260
X0.83800 Y2.44160
X0.83900 Y2.44160
X0.83900 Y2.44060
X0.84000 Y2.44060
X0.84000 Y2.43960
X0.84100 Y2.43960
X0.84100 Y2.43860
X0.84200 Y2.43860
X0.84200 Y2.43760
X0.84300 Y2.43760
X0.84300 Y2.43660
X0.84400 Y2.43660
X0.84400 Y2.43560
X0.84500 Y2.43560
X0.84500 Y2.43460
X0.84600 Y2.43460
X0.84600 Y2.43360
X0.84700 Y2.43360
X0.84700 Y2.43260
X0.84800 Y2.43260
X0.84800 Y2.43160
X0.84900 Y2.43160
X0.84900 Y2.43060
X0.85000 Y2.43060
X0.85000 Y2.42960
X0.85100 Y2.42960
X0.85100 Y2.42860
X0.85200 Y2.42860
X0.85200 Y2.42760
X0.85300 Y2.42760
X0.85300 Y2.42660
X0.85400 Y2.42660
X0.85400 Y2.42560
X0.85500 Y2.42560
X0.85500 Y2.42460
X0.85600 Y2.42460
X0.85600 Y2.42360
X0.85700 Y2.42360
X0.85700 Y2.42260
X0.85800 Y2.42260
X0.85800 Y2.42160
X0.85900 Y2.42160
X0.85900 Y2.42060
X0.86000 Y2.42060
X0.86000 Y2.41960
X0.86100 Y2.41960
X0.86100 Y2.41860
X0.86200 Y2.41860
X0.86200 Y2.41760
X0.86300 Y2.41760
X0.86300 Y2.41660
X0.86400 Y2.41660
X0.86400 Y2.41560
X0.86500 Y2.41560
X0.86500 Y2.41460
X0.86600 Y2.41460
X0.86600 Y2.41360
X0.86700 Y2.41360
X0.86700 Y2.41260
X0.86800 Y2.41260
X0.86800 Y2.41160
X0.87000 Y2.41160
X0.87000 Y2.40960
X0.87100 Y2.40960
X0.87100 Y2.40860
X0.87200 Y2.40860
X0.87200 Y2.40760
X0.87300 Y2.40760
X0.87300 Y2.40660
X0.87400 Y2.40660
X0.87400 Y2.40560
X0.87500 Y2.40560
X0.87500 Y2.40460
X0.87600 Y2.40460
X0.87600 Y2.40360
X0.87700 Y2.40360
X0.87700 Y2.40260
X0.87800 Y2.40260
X0.87800 Y2.40160
X0.87900 Y2.40160
X0.87900 Y2.40060
X0.88000 Y2.40060
X0.88000 Y2.39960
X0.88100 Y2.39960
X0.88100 Y2.39860
X0.88200 Y2.39860
X0.88200 Y2.39760
X0.88300 Y2.39760
X0.88300 Y2.39660
X0.88400 Y2.39660
X0.88400 Y2.39560
X0.88500 Y2.39560
X0.88500 Y2.39460
X0.88600 Y2.39460
X0.88600 Y2.39360
X0.88700 Y2.39360
X0.88700 Y2.39260
X0.88800 Y2.39260
X0.88800 Y2.39160
X0.88900 Y2.39160
X0.88900 Y2.39060
X0.89000 Y2.39060
X0.89000 Y2.38960
X0.89100 Y2.38960
X0.89100 Y2.38860
X0.89200 Y2.38860
X0.89200 Y2.38760
X0.89300 Y2.38760
X0.89300 Y2.38660
X0.89400 Y2.38660
X0.89400 Y2.38560
X0.89500 Y2.38560
X0.89500 Y2.38460
X0.89600 Y2.38460
X0.89600 Y2.38360
X0.89700 Y2.38360
X0.89700 Y2.38260
X0.89800 Y2.38260
X0.89800 Y2.38160
X0.89900 Y2.38160
X0.89900 Y2.38060
X0.90000 Y2.38060
X0.90000 Y2.37960
X0.90100 Y2.37960
X0.90100 Y2.37860
X0.90200 Y2.37860
X0.90200 Y2.37760
X0.90300 Y2.37760
X0.90300 Y2.37660
X0.90400 Y2.37660
X0.90400 Y2.37560
X0.90500 Y2.37560
X0.90500 Y2.37460
X0.90600 Y2.37460
X0.90600 Y2.37360
X0.90700 Y2.37360
X0.90700 Y2.37260
X0.90800 Y2.37260
X0.90800 Y2.37160
X0.90900 Y2.37160
X0.90900 Y2.37060
X0.91000 Y2.37060
X0.91000 Y2.36960
X0.91100 Y2.36960
X0.91100 Y2.36860
X0.91200 Y2.36860
X0.91200 Y2.36760
X0.91300 Y2.36760
X0.91300 Y2.36660
X0.91400 Y2.36660
X0.91400 Y2.36460
X0.91500 Y2.36460
X0.91500 Y2.36360
X0.91600 Y2.36360
X0.91600 Y2.36260
X0.91700 Y2.36260
X0.91700 Y2.36160
X0.91800 Y2.36160
X0.91800 Y1.91260
X0.91900 Y1.91260
X0.91900 Y1.91060
X0.92000 Y1.91060
X0.92000 Y1.90860
X0.92100 Y1.90860
X0.92100 Y1.90760
X0.92200 Y1.90760
X0.92200 Y1.90660
X0.92300 Y1.90660
X0.92300 Y1.90560
X0.92400 Y1.90560
X0.92400 Y1.90460
X0.92500 Y1.90460
X0.92500 Y1.90360
X0.92600 Y1.90360
X0.92600 Y1.90260
X0.92700 Y1.90260
X0.92700 Y1.90160
X0.92800 Y1.90160
X0.92800 Y1.90060
X0.92900 Y1.90060
X0.92900 Y1.89960
X0.93000 Y1.89960
X0.93000 Y1.89860
X0.93100 Y1.89860
X0.93100 Y1.89760
X0.93200 Y1.89760
X0.93200 Y1.89660
X0.93300 Y1.89660
X0.93300 Y1.89560
X0.93400 Y1.89560
X0.93400 Y1.89460
X0.93500 Y1.89460
X0.93500 Y1.89360
X0.93600 Y1.89360
X0.93600 Y1.89260
X0.93700 Y1.89260
X0.93700 Y1.89160
X0.93800 Y1.89160
X0.93800 Y1.89060
X0.93900 Y1.89060
X0.93900 Y1.88960
X0.94000 Y1.88960
X0.94000 Y1.88860
X0.94100 Y1.88860
X0.94100 Y1.88760
X0.94200 Y1.88760
X0.94200 Y1.88660
X0.94300 Y1.88660
X0.94300 Y1.88560
X0.94400 Y1.88560
X0.94400 Y1.88460
X0.94500 Y1.88460
X0.94500 Y1.88360
X0.94600 Y1.88360
X0.94600 Y1.88260
X0.94700 Y1.88260
X0.94700 Y1.88160
X0.94800 Y1.88160
X0.94800 Y1.88060
X0.94900 Y1.88060
X0.94900 Y1.87960
X0.95000 Y1.87960
X0.95000 Y1.87860
X0.95100 Y1.87860
X0.95100 Y1.87760
X0.95200 Y1.87760
X0.95200 Y1.87660
X0.95300 Y1.87660
X0.95300 Y1.87560
X0.95400 Y1.87560
X0.95400 Y1.87460
X0.95500 Y1.87460
X0.95500 Y1.87360
X0.95600 Y1.87360
X0.95600 Y1.87260
X0.95700 Y1.87260
X0.95700 Y1.87160
X0.95800 Y1.87160
X0.95800 Y1.87060
X0.95900 Y1.87060
X0.95900 Y1.86960
X0.96000 Y1.86960
X0.96000 Y1.86860
X0.96100 Y1.86860
X0.96100 Y1.86760
X0.96200 Y1.86760
X0.96200 Y1.86660
X0.96300 Y1.86660
X0.96300 Y1.86560
X0.96400 Y1.86560
X0.96400 Y1.86460
X0.96500 Y1.86460
X0.96500 Y1.86360
X0.96600 Y1.86360
X0.96600 Y1.86260
X0.96700 Y1.86260
X0.96700 Y1.86160
X0.96800 Y1.86160
X0.96800 Y1.86060
X0.96900 Y1.86060
X0.96900 Y1.85960
X0.97000 Y1.85960
X0.97000 Y1.85860
X0.97100 Y1.85860
X0.97100 Y1.85760
X0.97200 Y1.85760
X0.97200 Y1.85660
X0.97300 Y1.85660
X0.97300 Y1.85560
X0.97400 Y1.85560
X0.97400 Y1.85460
X0.97500 Y1.85460
X0.97500 Y1.85360
X0.97600 Y1.85360
X0.97600 Y1.85260
X0.97700 Y1.85260
X0.97700 Y1.85160
X0.97800 Y1.85160
X0.97800 Y1.85060
X0.97900 Y1.85060
X0.97900 Y1.84960
X0.98000 Y1.84960
X0.98000 Y1.84860
X0.98100 Y1.84860
X0.98100 Y1.84760
X0.98200 Y1.84760
X0.98200 Y1.84660
X0.98300 Y1.84660
X0.98300 Y1.84560
X0.98400 Y1.84560
X0.98400 Y1.84460
X0.98500 Y1.84460
X0.98500 Y1.84360
X0.98600 Y1.84360
X0.98600 Y1.84260
X0.98700 Y1.84260
X0.98700 Y1.84160
X0.98800 Y1.84160
X0.98800 Y1.84060
X0.98900 Y1.84060
X0.98900 Y1.83960
X0.99000 Y1.83960
X0.99000 Y1.83860
X0.99100 Y1.83860
X0.99100 Y1.83760
X0.99200 Y1.83760
X0.99200 Y1.83660
X0.99300 Y1.83660
X0.99300 Y1.83560
X0.99400 Y1.83560
X0.99400 Y1.83460
X0.99500 Y1.83460
X0.99500 Y1.83360
X0.99600 Y1.83360
X0.99600 Y1.83260
X0.99700 Y1.83260
X0.99700 Y1.83160
X0.99800 Y1.83160
X0.99800 Y1.83060
X0.99900 Y1.83060
X0.99900 Y1.82960
X1.00000 Y1.82960
X1.00000 Y1.82860
X1.00100 Y1.82860
X1.00100 Y1.82760
X1.00200 Y1.82760
X1.00200 Y1.82660
X1.00300 Y1.82660
X1.00300 Y1.82560
X1.00400 Y1.82560
X1.00400 Y1.82460
X1.00500 Y1.82460
X1.00500 Y1.82360
X1.00600 Y1.82360
X1.00600 Y1.82260
X1.00700 Y1.82260
X1.00700 Y1.82160
X1.00800 Y1.82160
X1.00800 Y1.82060
X1.00900 Y1.82060
X1.00900 Y1.81960
X1.01000 Y1.81960
X1.01000 Y1.81860
X1.01100 Y1.81860
X1.01100 Y1.81760
X1.01200 Y1.81760
X1.01200 Y1.81660
X1.01300 Y1.81660
X1.01300 Y1.81560
X1.01400 Y1.81560
X1.01400 Y1.81460
X1.01500 Y1.81460
X1.01500 Y1.81360
X1.01600 Y1.81360
X1.01600 Y1.81260
X1.01700 Y1.81260
X1.01700 Y1.81160
X1.01800 Y1.81160
X1.01800 Y1.81060
X1.01900 Y1.81060
X1.01900 Y1.80960
X1.02000 Y1.80960
X1.02000 Y1.80860
X1.02100 Y1.80860
X1.02100 Y1.80760
X1.02200 Y1.80760
X1.02200 Y1.80660
X1.02300 Y1.80660
X1.02300 Y1.80560
X1.02400 Y1.80560
X1.02400 Y1.80460
X1.02500 Y1.80460
X1.02500 Y1.80360
X1.02600 Y1.80360
X1.02600 Y1.80260
X1.02700 Y1.80260
X1.02700 Y1.80160
X1.02800 Y1.80160
X1.02800 Y1.80060
X1.02900 Y1.80060
X1.02900 Y1.79960
X1.03000 Y1.79960
X1.03000 Y1.79860
X1.03100 Y1.79860
X1.03100 Y1.79760
X1.03200 Y1.79760
X1.03200 Y1.79660
X1.03300 Y1.79660
X1.03300 Y1.79560
X1.03400 Y1.79560
X1.03400 Y1.79460
X1.03500 Y1.79460
X1.03500 Y1.79360
X1.03600 Y1.79360
X1.03600 Y1.79260
X1.03700 Y1.79260
X1.03700 Y1.79160
X1.03800 Y1.79160
X1.03800 Y1.79060
X1.03900 Y1.79060
X1.03900 Y1.78960
X1.04000 Y1.78960
X1.04000 Y1.78860
X1.04100 Y1.78860
X1.04100 Y1.78760
X1.04200 Y1.78760
X1.04200 Y1.78660
X1.04300 Y1.78660
X1.04300 Y1.78560
X1.04400 Y1.78560
X1.04400 Y1.78460
X1.04500 Y1.78460
X1.04500 Y1.78360
X1.04600 Y1.78360
X1.04600 Y1.78260
X1.04700 Y1.78260
X1.04700 Y1.78160
X1.04800 Y1.78160
X1.04800 Y1.78060
X1.04900 Y1.78060
X1.04900 Y1.77960
X1.05000 Y1.77960
X1.05000 Y1.77860
X1.05100 Y1.77860
X1.05100 Y1.77760
X1.05200 Y1.77760
X1.05200 Y1.77660
X1.05300 Y1.77660
X1.05300 Y1.77560
X1.05400 Y1.77560
X1.05400 Y1.77460
X1.05500 Y1.77460
X1.05500 Y1.77360
X1.05600 Y1.77360
X1.05600 Y1.77260
X1.05700 Y1.77260
X1.05700 Y1.77160
X1.05800 Y1.77160
X1.05800 Y1.77060
X1.05900 Y1.77060
X1.05900 Y1.76960
X1.06000 Y1.76960
X1.06000 Y1.76860
X1.06100 Y1.76860
X1.06100 Y1.76760
X1.06200 Y1.76760
X1.06200 Y1.76660
X1.06300 Y1.76660
X1.06300 Y1.76560
X1.06400 Y1.76560
X1.06400 Y1.76460
X1.06500 Y1.76460
X1.06500 Y1.76360
X1.06600 Y1.76360
X1.06600 Y1.76260
X1.06700 Y1.76260
X1.06700 Y1.76160
X1.06800 Y1.76160
X1.06800 Y1.76060
X1.06900 Y1.76060
X1.06900 Y1.75960
X1.07000 Y1.75960
X1.07000 Y1.75860
X1.07100 Y1.75860
X1.07100 Y1.75760
X1.07200 Y1.75760
X1.07200 Y1.75660
X1.07300 Y1.75660
X1.07300 Y1.75560
X1.07400 Y1.75560
X1.07400 Y1.75460
X1.07500 Y1.75460
X1.07500 Y1.75360
X1.07600 Y1.75360
X1.07600 Y1.75260
X1.07700 Y1.75260
X1.07700 Y1.75160
X1.07800 Y1.75160
X1.07800 Y1.75060
X1.07900 Y1.75060
X1.07900 Y1.74960
X1.08000 Y1.74960
X1.08000 Y1.74860
X1.08100 Y1.74860
X1.08100 Y1.74760
X1.08200 Y1.74760
X1.08200 Y1.74660
X1.08300 Y1.74660
X1.08300 Y1.74560
X1.08400 Y1.74560
X1.08400 Y1.74460
X1.08500 Y1.74460
X1.08500 Y1.74360
X1.08600 Y1.74360
X1.08600 Y1.74260
X1.08700 Y1.74260
X1.08700 Y1.74160
X1.08800 Y1.74160
X1.08800 Y1.74060
X1.08900 Y1.74060
X1.08900 Y1.73960
X1.09000 Y1.73960
X1.09000 Y1.73860
X1.09100 Y1.73860
X1.09100 Y1.73760
X1.09200 Y1.73760
X1.09200 Y1.73660
X1.09300 Y1.73660
X1.09300 Y1.73560
X1.09400 Y1.73560
X1.09400 Y1.73460
X1.09500 Y1.73460
X1.09500 Y1.73360
X1.09600 Y1.73360
X1.09600 Y1.73260
X1.09700 Y1.73260
X1.09700 Y1.73160
X1.09800 Y1.73160
X1.09800 Y1.73060
X1.09900 Y1.73060
X1.09900 Y1.72960
X1.10000 Y1.72960
X1.10000 Y1.72860
X1.10100 Y1.72860
X1.10100 Y1.72760
X1.10200 Y1.72760
X1.10200 Y1.72660
X1.10300 Y1.72660
X1.10300 Y1.72560
X1.10400 Y1.72560
X1.10400 Y1.72460
X1.10500 Y1.72460
X1.10500 Y1.72360
X1.10600 Y1.72360
X1.10600 Y1.72260
X1.10700 Y1.72260
X1.10700 Y1.72160
X1.10800 Y1.72160
X1.10800 Y1.72060
X1.10900 Y1.72060
X1.10900 Y1.71960
X1.11000 Y1.71960
X1.11000 Y1.71860
X1.11100 Y1.71860
X1.11100 Y1.71760
X1.11200 Y1.71760
X1.11200 Y1.71660
X1.11300 Y1.71660
X1.11300 Y1.71560
X1.11400 Y1.71560
X1.11400 Y1.71460
X1.11500 Y1.71460
X1.11500 Y1.71360
X1.11600 Y1.71360
X1.11600 Y1.71260
X1.11700 Y1.71260
X1.11700 Y1.71160
X1.11800 Y1.71160
X1.11800 Y1.71060
X1.11900 Y1.71060
X1.11900 Y1.70960
X1.12000 Y1.70960
X1.12000 Y1.70860
X1.12100 Y1.70860
X1.12100 Y1.70760
X1.12200 Y1.70760
X1.12200 Y1.70660
X1.12300 Y1.70660
X1.12300 Y1.70560
X1.12400 Y1.70560
X1.12400 Y1.70460
X1.12500 Y1.70460
X1.12500 Y1.70360
X1.12600 Y1.70360
X1.12600 Y1.70260
X1.12700 Y1.70260
X1.12700 Y1.70160
X1.12800 Y1.70160
X1.12800 Y1.70060
X1.12900 Y1.70060
X1.12900 Y1.69960
X1.13000 Y1.69960
X1.13000 Y1.69860
X1.13100 Y1.69860
X1.13100 Y1.69760
X1.13200 Y1.69760
X1.13200 Y1.69660
X1.13300 Y1.69660
X1.13300 Y1.69560
X1.13400 Y1.69560
X1.13400 Y1.69460
X1.13500 Y1.69460
X1.13500 Y1.69360
X1.13600 Y1.69360
X1.13600 Y1.69260
X1.13700 Y1.69260
X1.13700 Y1.69160
X1.13800 Y1.69160
X1.13800 Y1.69060
X1.13900 Y1.69060
X1.13900 Y1.68960
X1.14000 Y1.68960
X1.14000 Y1.68860
X1.14100 Y1.68860
X1.14100 Y1.68760
X1.14200 Y1.68760
X1.14200 Y1.68660
X1.14300 Y1.68660
X1.14300 Y1.68560
X1.14400 Y1.68560
X1.14400 Y1.68460
X1.14500 Y1.68460
X1.14500 Y1.68360
X1.14600 Y1.68360
X1.14600 Y1.68260
X1.14700 Y1.68260
X1.14700 Y1.68160
X1.14800 Y1.68160
X1.14800 Y1.68060
X1.14900 Y1.68060
X1.14900 Y1.67960
X1.15000 Y1.67960
X1.15000 Y1.67860
X1.15100 Y1.67860
X1.15100 Y1.67760
X1.15200 Y1.67760
X1.15200 Y1.67660
X1.15300 Y1.67660
X1.15300 Y1.67560
X1.15400 Y1.67560
X1.15400 Y1.67460
X1.15500 Y1.67460
X1.15500 Y1.67360
X1.15600 Y1.67360
X1.15600 Y1.67260
X1.15700 Y1.67260
X1.15700 Y1.67160
X1.15800 Y1.67160
X1.15800 Y1.67060
X1.15900 Y1.67060
X1.15900 Y1.66960
X1.16000 Y1.66960
X1.16000 Y1.66860
X1.16100 Y1.66860
X1.16100 Y1.66760
X1.16200 Y1.66760
X1.16200 Y1.66660
X1.16300 Y1.66660
X1.16300 Y1.66560
X1.16400 Y1.66560
X1.16400 Y1.66460
X1.16500 Y1.66460
X1.16500 Y1.66360
X1.16600 Y1.66360
X1.16600 Y1.66260
X1.16700 Y1.66260
X1.16700 Y1.66160
X1.16800 Y1.66160
X1.16800 Y1.66060
X1.16900 Y1.66060
X1.16900 Y1.65960
X1.17000 Y1.65960
X1.17000 Y1.65860
X1.17100 Y1.65860
X1.17100 Y1.65760
X1.17200 Y1.65760
X1.17200 Y1.65660
X1.17300 Y1.65660
X1.17300 Y1.65560
X1.17400 Y1.65560
X1.17400 Y1.65460
X1.17500 Y1.65460
X1.17500 Y1.65360
X1.17600 Y1.65360
X1.17600 Y1.65260
X1.17700 Y1.65260
X1.17700 Y1.65160
X1.17800 Y1.65160
X1.17800 Y1.65060
X1.17900 Y1.65060
X1.17900 Y1.64960
X1.18000 Y1.64960
X1.18000 Y1.64860
X1.18100 Y1.64860
X1.18100 Y1.64760
X1.18200 Y1.64760
X1.18200 Y1.64660
X1.18300 Y1.64660
X1.18300 Y1.64560
X1.18400 Y1.64560
X1.18400 Y1.64460
X1.18500 Y1.64460
X1.18500 Y1.64360
X1.18600 Y1.64360
X1.18600 Y1.64260
X1.18700 Y1.64260
X1.18700 Y1.64160
X1.18800 Y1.64160
X1.18800 Y1.64060
X1.18900 Y1.64060
X1.18900 Y1.63960
X1.19000 Y1.63960
X1.19000 Y1.63860
X1.19100 Y1.63860
X1.19100 Y1.63760
X1.19200 Y1.63760
X1.19200 Y1.63660
X1.19300 Y1.63660
X1.19300 Y1.63560
X1.19400 Y1.63560
X1.19400 Y1.63460
X1.19500 Y1.63460
X1.19500 Y1.63360
X1.19600 Y1.63360
X1.19600 Y1.63260
X1.19700 Y1.63260
X1.19700 Y1.63160
X1.19800 Y1.63160
X1.19800 Y1.63060
X1.19900 Y1.63060
X1.19900 Y1.62960
X1.20000 Y1.62960
X1.20000 Y1.62860
X1.20100 Y1.62860
X1.20100 Y1.62760
X1.20200 Y1.62760
X1.20200 Y1.62660
X1.20300 Y1.62660
X1.20300 Y1.62560
X1.20400 Y1.62560
X1.20400 Y1.62460
X1.20500 Y1.62460
X1.20500 Y1.62360
X1.20600 Y1.62360
X1.20600 Y1.62260
X1.20700 Y1.62260
X1.20700 Y1.62160
X1.20800 Y1.62160
X1.20800 Y1.62060
X1.20900 Y1.62060
X1.20900 Y1.61960
X1.21000 Y1.61960
X1.21000 Y1.61860
X1.21100 Y1.61860
X1.21100 Y1.61760
X1.21200 Y1.61760
X1.21200 Y1.61660
X1.21300 Y1.61660
X1.21300 Y1.61560
X1.21400 Y1.61560
X1.21400 Y1.61460
X1.21500 Y1.61460
X1.21500 Y1.61360
X1.21600 Y1.61360
X1.21600 Y1.61260
X1.21700 Y1.61260
X1.21700 Y1.61160
X1.21800 Y1.61160
X1.21800 Y1.61060
X1.21900 Y1.61060
X1.21900 Y1.60960
X1.22000 Y1.60960
X1.22000 Y1.60860
X1.22100 Y1.60860
X1.22100 Y1.60760
X1.22200 Y1.60760
X1.22200 Y1.60660
X1.22300 Y1.60660
X1.22300 Y1.60560
X1.22400 Y1.60560
X1.22400 Y1.60460
X1.22500 Y1.60460
X1.22500 Y1.60360
X1.22600 Y1.60360
X1.22600 Y1.60260
X1.22700 Y1.60260
X1.22700 Y1.60160
X1.22800 Y1.60160
X1.22800 Y1.60060
X1.22900 Y1.60060
X1.22900 Y1.59960
X1.23000 Y1.59960
X1.23000 Y1.59860
X1.23100 Y1.59860
X1.23100 Y1.59760
X1.23200 Y1.59760
X1.23200 Y1.59660
X1.23300 Y1.59660
X1.23300 Y1.59560
X1.23400 Y1.59560
X1.23400 Y1.59460
X1.23500 Y1.59460
X1.23500 Y1.59360
X1.23600 Y1.59360
X1.23600 Y1.59260
X1.23700 Y1.59260
X1.23700 Y1.59160
X1.23800 Y1.59160
X1.23800 Y1.59060
X1.23900 Y1.59060
X1.23900 Y1.58960
X1.24000 Y1.58960
X1.24000 Y1.58860
X1.24100 Y1.58860
X1.24100 Y1.58760
X1.24200 Y1.58760
X1.24200 Y1.58660
X1.24300 Y1.58660
X1.24300 Y1.58560
X1.24400 Y1.58560
X1.24400 Y1.58460
X1.24500 Y1.58460
X1.24500 Y1.58360
X1.24600 Y1.58360
X1.24600 Y1.58260
X1.24700 Y1.58260
X1.24700 Y1.58160
X1.24800 Y1.58160
X1.24800 Y1.58060
X1.24900 Y1.58060
X1.24900 Y1.57960
X1.25000 Y1.57960
X1.25000 Y1.57860
X1.25100 Y1.57860
X1.25100 Y1.57760
X1.25200 Y1.57760
X1.25200 Y1.57660
X1.25300 Y1.57660
X1.25300 Y1.57560
X1.25400 Y1.57560
X1.25400 Y1.57460
X1.25500 Y1.57460
X1.25500 Y1.57360
X1.25600 Y1.57360
X1.25600 Y1.57260
X1.25700 Y1.57260
X1.25700 Y1.57160
X1.25800 Y1.57160
X1.25800 Y1.57060
X1.25900 Y1.57060
X1.25900 Y1.56960
X1.26000 Y1.56960
X1.26000 Y1.56860
X1.26100 Y1.56860
X1.26100 Y1.56760
X1.26200 Y1.56760
X1.26200 Y1.56660
X1.26300 Y1.56660
X1.26300 Y1.56560
X1.26400 Y1.56560
X1.26400 Y1.56460
X1.26500 Y1.56460
X1.26500 Y1.56360
X1.26600 Y1.56360
X1.26600 Y1.56260
X1.26700 Y1.56260
X1.26700 Y1.56160
X1.26800 Y1.56160
X1.26800 Y1.56060
X1.26900 Y1.56060
X1.26900 Y1.55960
X1.27000 Y1.55960
X1.27000 Y1.55860
X1.27100 Y1.55860
X1.27100 Y1.55760
X1.27200 Y1.55760
X1.27200 Y1.55660
X1.27300 Y1.55660
X1.27300 Y1.55560
X1.27400 Y1.55560
X1.27400 Y1.55460
X1.27500 Y1.55460
X1.27500 Y1.55360
X1.27600 Y1.55360
X1.27600 Y1.55260
X1.27700 Y1.55260
X1.27700 Y1.55160
X1.27800 Y1.55160
X1.27800 Y1.55060
X1.27900 Y1.55060
X1.27900 Y1.54960
X1.28000 Y1.54960
X1.28000 Y1.54860
X1.28100 Y1.54860
X1.28100 Y1.54760
X1.28200 Y1.54760
X1.28200 Y1.54660
X1.28300 Y1.54660
X1.28300 Y1.54560
X1.28400 Y1.54560
X1.28400 Y1.54460
X1.28500 Y1.54460
X1.28500 Y1.54360
X1.28600 Y1.54360
X1.28600 Y1.54260
X1.28700 Y1.54260
X1.28700 Y1.54160
X1.28800 Y1.54160
X1.28800 Y1.54060
X1.28900 Y1.54060
X1.28900 Y1.53960
X1.29000 Y1.53960
X1.29000 Y1.53860
X1.29100 Y1.53860
X1.29100 Y1.53760
X1.29200 Y1.53760
X1.29200 Y1.53660
X1.29300 Y1.53660
X1.29300 Y1.53560
X1.29400 Y1.53560
X1.29400 Y1.53460
X1.29500 Y1.53460
X1.29500 Y1.53360
X1.29600 Y1.53360
X1.29600 Y1.53260
X1.29700 Y1.53260
X1.29700 Y1.53160
X1.29800 Y1.53160
X1.29800 Y1.53060
X1.29900 Y1.53060
X1.29900 Y1.52960
X1.30000 Y1.52960
X1.30000 Y1.52860
X1.30100 Y1.52860
X1.30100 Y1.52760
X1.30200 Y1.52760
X1.30200 Y1.52660
X1.30300 Y1.52660
X1.30300 Y1.52560
X1.30400 Y1.52560
X1.30400 Y1.52460
X1.30500 Y1.52460
X1.30500 Y1.52360
X1.30600 Y1.52360
X1.30600 Y1.52260
X1.30700 Y1.52260
X1.30700 Y1.52160
X1.30800 Y1.52160
X1.30800 Y1.52060
X1.30900 Y1.52060
X1.30900 Y1.51960
X1.31000 Y1.51960
X1.31000 Y1.51860
X1.31100 Y1.51860
X1.31100 Y1.51760
X1.31200 Y1.51760
X1.31200 Y1.51660
X1.31300 Y1.51660
X1.31300 Y1.51560
X1.31400 Y1.51560
X1.31400 Y1.51460
X1.31500 Y1.51460
X1.31500 Y1.51360
X1.31600 Y1.51360
X1.31600 Y1.51260
X1.31700 Y1.51260
X1.31700 Y1.51160
X1.31800 Y1.51160
X1.31800 Y1.51060
X1.31900 Y1.51060
X1.31900 Y1.50960
X1.32000 Y1.50960
X1.32000 Y1.50860
X1.32200 Y1.50860
X1.32200 Y1.50760
X1.32400 Y1.50760
X1.32400 Y1.50660
X1.89600 Y1.50660
X1.89600 Y1.50160
X1.89700 Y1.50160
X1.89700 Y1.50060
X1.89800 Y1.50060
X1.89800 Y1.49960
X1.89900 Y1.49960
X1.89900 Y1.49860
X1.90000 Y1.49860
X1.90000 Y1.49760
X1.90100 Y1.49760
X1.90100 Y1.49660
X1.90200 Y1.49660
X1.90200 Y1.49560
X1.90300 Y1.49560
X1.90300 Y1.49460
X1.90400 Y1.49460
X1.90400 Y1.49360
X1.90500 Y1.49360
X1.90500 Y1.49260
X1.90600 Y1.49260
X1.90600 Y1.49160
X1.90700 Y1.49160
X1.90700 Y1.49060
X1.90800 Y1.49060
X1.90800 Y1.48960
X1.90900 Y1.48960
X1.90900 Y1.48860
X1.91000 Y1.48860
X1.91000 Y1.48760
X1.91100 Y1.48760
X1.91100 Y1.48660
X1.91200 Y1.48660
X1.91200 Y1.48560
X1.91300 Y1.48560
X1.91300 Y1.48460
X1.95000 Y1.48460
X1.95000 Y1.48560
X1.95100 Y1.48560
X1.95100 Y1.48660
X1.95200 Y1.48660
X1.95200 Y1.48760
X1.95300 Y1.48760
X1.95300 Y1.48860
X1.95400 Y1.48860
X1.95400 Y1.48960
X1.95500 Y1.48960
X1.95500 Y1.49060
X1.95600 Y1.49060
X1.95600 Y1.49160
X1.95700 Y1.49160
X1.95700 Y1.49260
X1.95800 Y1.49260
X1.95800 Y1.49360
X1.95900 Y1.49360
X1.95900 Y1.49460
X1.96000 Y1.49460
X1.96000 Y1.49560
X1.96100 Y1.49560
X1.96100 Y1.49660
X1.96200 Y1.49660
X1.96200 Y1.49760
X1.96300 Y1.49760
X1.96300 Y1.49860
X1.96400 Y1.49860
X1.96400 Y1.50060
X1.96500 Y1.50060
X1.96500 Y1.50160
X1.96600 Y1.50160
X1.96600 Y1.50260
X1.96700 Y1.50260
X1.96700 Y1.53760
X1.96600 Y1.53760
X1.96600 Y1.53860
X1.96500 Y1.53860
X1.96500 Y1.53960
X1.96400 Y1.53960
X1.96400 Y1.54060
X1.96300 Y1.54060
X1.96300 Y1.54160
X1.96200 Y1.54160
X1.96200 Y1.54260
X1.96100 Y1.54260
X1.96100 Y1.54360
X1.96000 Y1.54360
X1.96000 Y1.54460
X1.95900 Y1.54460
X1.95900 Y1.54560
X1.95800 Y1.54560
X1.95800 Y1.54660
X1.95700 Y1.54660
X1.95700 Y1.54760
X1.95600 Y1.54760
X1.95600 Y1.54860
X1.95500 Y1.54860
X1.95500 Y1.54960
X1.95400 Y1.54960
X1.95400 Y1.55060
X1.95300 Y1.55060
X1.95300 Y1.55160
X1.95200 Y1.55160
X1.95200 Y1.55260
X1.95100 Y1.55260
X1.95100 Y1.55360
X1.95000 Y1.55360
X1.95000 Y1.55460
X1.94900 Y1.55460
X1.94900 Y1.55560
X1.91400 Y1.55560
X1.91400 Y1.55460
X1.91300 Y1.55460
X1.91300 Y1.55360
X1.91200 Y1.55360
X1.91200 Y1.55260
X1.91100 Y1.55260
X1.91100 Y1.55160
X1.91000 Y1.55160
X1.91000 Y1.55060
X1.90900 Y1.55060
X1.90900 Y1.54960
X1.90800 Y1.54960
X1.90800 Y1.54860
X1.90700 Y1.54860
X1.90700 Y1.54760
X1.90600 Y1.54760
X1.90600 Y1.54660
X1.90500 Y1.54660
X1.90500 Y1.54560
X1.90400 Y1.54560
X1.90400 Y1.54460
X1.90300 Y1.54460
X1.90300 Y1.54360
X1.90200 Y1.54360
X1.90200 Y1.54260
X1.90100 Y1.54260
X1.90100 Y1.54160
X1.90000 Y1.54160
X1.90000 Y1.54060
X1.89900 Y1.54060
X1.89900 Y1.53960
X1.89800 Y1.53960
X1.89800 Y1.53860
X1.89700 Y1.53860
X1.89700 Y1.53760
X1.89600 Y1.53760
X1.89600 Y1.53360
X1.34000 Y1.53360
X1.34000 Y1.53460
X1.33900 Y1.53460
X1.33900 Y1.53560
X1.33800 Y1.53560
X1.33800 Y1.53660
X1.33700 Y1.53660
X1.33700 Y1.53760
X1.33500 Y1.53760
X1.33500 Y1.53860
X1.33400 Y1.53860
X1.33400 Y1.53960
X1.33300 Y1.53960
X1.33300 Y1.54060
X1.33200 Y1.54060
X1.33200 Y1.54160
X1.33100 Y1.54160
X1.33100 Y1.54260
X1.33000 Y1.54260
X1.33000 Y1.54360
X1.32900 Y1.54360
X1.32900 Y1.54460
X1.32800 Y1.54460
X1.32800 Y1.54560
X1.32700 Y1.54560
X1.32700 Y1.54660
X1.32600 Y1.54660
X1.32600 Y1.54760
X1.32500 Y1.54760
X1.32500 Y1.54860
X1.32400 Y1.54860
X1.32400 Y1.54960
X1.32300 Y1.54960
X1.32300 Y1.55060
X1.32200 Y1.55060
X1.32200 Y1.55160
X1.32100 Y1.55160
X1.32100 Y1.55260
X1.32000 Y1.55260
X1.32000 Y1.55360
X1.31900 Y1.55360
X1.31900 Y1.55460
X1.31800 Y1.55460
X1.31800 Y1.55560
X1.31700 Y1.55560
X1.31700 Y1.55660
X1.31600 Y1.55660
X1.31600 Y1.55760
X1.31400 Y1.55760
X1.31400 Y1.55960
X1.31300 Y1.55960
X1.31300 Y1.56060
X1.31200 Y1.56060
X1.31200 Y1.56160
X1.31100 Y1.56160
X1.31100 Y1.56260
X1.31000 Y1.56260
X1.31000 Y1.56360
X1.30900 Y1.56360
X1.30900 Y1.56460
X1.30800 Y1.56460
X1.30800 Y1.56560
X1.30700 Y1.56560
X1.30700 Y1.56660
X1.30600 Y1.56660
X1.30600 Y1.56760
X1.30500 Y1.56760
X1.30500 Y1.56860
X1.30400 Y1.56860
X1.30400 Y1.56960
X1.30300 Y1.56960
X1.30300 Y1.57060
X1.30200 Y1.57060
X1.30200 Y1.57160
X1.30100 Y1.57160
X1.30100 Y1.57260
X1.30000 Y1.57260
X1.30000 Y1.57360
X1.29900 Y1.57360
X1.29900 Y1.57460
X1.29800 Y1.57460
X1.29800 Y1.57560
X1.29700 Y1.57560
X1.29700 Y1.57660
X1.29600 Y1.57660
X1.29600 Y1.57760
X1.29500 Y1.57760
X1.29500 Y1.57860
X1.29400 Y1.57860
X1.29400 Y1.57960
X1.29300 Y1.57960
X1.29300 Y1.58060
X1.29200 Y1.58060
X1.29200 Y1.58160
X1.29100 Y1.58160
X1.29100 Y1.58260
X1.29000 Y1.58260
X1.29000 Y1.58360
X1.28900 Y1.58360
X1.28900 Y1.58460
X1.28800 Y1.58460
X1.28800 Y1.58560
X1.28700 Y1.58560
X1.28700 Y1.58660
X1.28600 Y1.58660
X1.28600 Y1.58760
X1.28500 Y1.58760
X1.28500 Y1.58860
X1.28400 Y1.58860
X1.28400 Y1.58960
X1.28300 Y1.58960
X1.28300 Y1.59060
X1.28200 Y1.59060
X1.28200 Y1.59160
X1.28100 Y1.59160
X1.28100 Y1.59260
X1.28000 Y1.59260
X1.28000 Y1.59360
X1.27900 Y1.59360
X1.27900 Y1.59460
X1.27800 Y1.59460
X1.27800 Y1.59560
X1.27700 Y1.59560
X1.27700 Y1.59660
X1.27600 Y1.59660
X1.27600 Y1.59760
X1.27500 Y1.59760
X1.27500 Y1.59860
X1.27400 Y1.59860
X1.27400 Y1.59960
X1.27300 Y1.59960
X1.27300 Y1.60060
X1.27200 Y1.60060
X1.27200 Y1.60160
X1.27100 Y1.60160
X1.27100 Y1.60260
X1.27000 Y1.60260
X1.27000 Y1.60360
X1.26900 Y1.60360
X1.26900 Y1.60460
X1.26800 Y1.60460
X1.26800 Y1.60560
X1.26700 Y1.60560
X1.26700 Y1.60660
X1.26600 Y1.60660
X1.26600 Y1.60760
X1.26500 Y1.60760
X1.26500 Y1.60860
X1.26400 Y1.60860
X1.26400 Y1.60960
X1.26300 Y1.60960
X1.26300 Y1.61060
X1.26200 Y1.61060
X1.26200 Y1.61160
X1.26100 Y1.61160
X1.26100 Y1.61260
X1.26000 Y1.61260
X1.26000 Y1.61360
X1.25900 Y1.61360
X1.25900 Y1.61460
X1.25800 Y1.61460
X1.25800 Y1.61560
X1.25700 Y1.61560
X1.25700 Y1.61660
X1.25600 Y1.61660
X1.25600 Y1.61760
X1.25500 Y1.61760
X1.25500 Y1.61860
X1.25400 Y1.61860
X1.25400 Y1.61960
X1.25300 Y1.61960
X1.25300 Y1.62060
X1.25200 Y1.62060
X1.25200 Y1.62160
X1.25100 Y1.62160
X1.25100 Y1.62260
X1.25000 Y1.62260
X1.25000 Y1.62360
X1.24900 Y1.62360
X1.24900 Y1.62460
X1.24800 Y1.62460
X1.24800 Y1.62560
X1.24700 Y1.62560
X1.24700 Y1.62660
X1.24600 Y1.62660
X1.24600 Y1.62760
