( pcb2gcode 1.1.4 )

( This file uses a mill head of 0.0236 to drill the 4bit sizes. )

G94     ( Inches per minute feed rate. )
G20     ( Units == INCHES.             )
G90     ( Absolute coordinates.        )
S20000  ( RPM spindle speed.           )

F3.00000
#50=-0.08000 ; zwork
#51=0.08000 ; zsafe
#52=0.10000 ; stepsize
G0 X1.52220 Y0.61800
G1 Z[#50+0*#52]
G2 I-0.00420 J0
G0 Z0.08000

G0 X1.42220 Y0.61800
G1 Z[#50+0*#52]
G2 I-0.00420 J0
G0 Z0.08000

G0 X1.32220 Y0.61800
G1 Z[#50+0*#52]
G2 I-0.00420 J0
G0 Z0.08000

G0 X1.22220 Y0.61800
G1 Z[#50+0*#52]
G2 I-0.00420 J0
G0 Z0.08000

G0 X1.12220 Y0.61800
G1 Z[#50+0*#52]
G2 I-0.00420 J0
G0 Z0.08000

G0 X1.02220 Y0.61800
G1 Z[#50+0*#52]
G2 I-0.00420 J0
G0 Z0.08000

G0 X0.92220 Y0.61800
G1 Z[#50+0*#52]
G2 I-0.00420 J0
G0 Z0.08000

G0 X0.92220 Y0.96800
G1 Z[#50+0*#52]
G2 I-0.00420 J0
G0 Z0.08000

G0 X0.82220 Y0.96800
G1 Z[#50+0*#52]
G2 I-0.00420 J0
G0 Z0.08000

G0 X0.72220 Y0.96800
G1 Z[#50+0*#52]
G2 I-0.00420 J0
G0 Z0.08000

G0 X0.62220 Y0.96800
G1 Z[#50+0*#52]
G2 I-0.00420 J0
G0 Z0.08000

G0 X0.72220 Y1.11800
G1 Z[#50+0*#52]
G2 I-0.00420 J0
G0 Z0.08000

G0 X0.72220 Y1.21800
G1 Z[#50+0*#52]
G2 I-0.00420 J0
G0 Z0.08000

G0 X0.82220 Y1.21800
G1 Z[#50+0*#52]
G2 I-0.00420 J0
G0 Z0.08000

G0 X0.82220 Y1.11800
G1 Z[#50+0*#52]
G2 I-0.00420 J0
G0 Z0.08000

G0 X0.92220 Y1.11800
G1 Z[#50+0*#52]
G2 I-0.00420 J0
G0 Z0.08000

G0 X0.92220 Y1.21800
G1 Z[#50+0*#52]
G2 I-0.00420 J0
G0 Z0.08000

G0 X1.02220 Y1.21800
G1 Z[#50+0*#52]
G2 I-0.00420 J0
G0 Z0.08000

G0 X1.02220 Y1.11800
G1 Z[#50+0*#52]
G2 I-0.00420 J0
G0 Z0.08000

G0 X1.12220 Y1.11800
G1 Z[#50+0*#52]
G2 I-0.00420 J0
G0 Z0.08000

G0 X1.12220 Y1.21800
G1 Z[#50+0*#52]
G2 I-0.00420 J0
G0 Z0.08000

G0 X1.22220 Y1.21800
G1 Z[#50+0*#52]
G2 I-0.00420 J0
G0 Z0.08000

G0 X1.22220 Y1.11800
G1 Z[#50+0*#52]
G2 I-0.00420 J0
G0 Z0.08000

G0 X1.32220 Y1.11800
G1 Z[#50+0*#52]
G2 I-0.00420 J0
G0 Z0.08000

G0 X1.32220 Y1.21800
G1 Z[#50+0*#52]
G2 I-0.00420 J0
G0 Z0.08000

G0 X1.42220 Y1.21800
G1 Z[#50+0*#52]
G2 I-0.00420 J0
G0 Z0.08000

G0 X1.42220 Y1.11800
G1 Z[#50+0*#52]
G2 I-0.00420 J0
G0 Z0.08000

G0 X1.42220 Y0.96800
G1 Z[#50+0*#52]
G2 I-0.00420 J0
G0 Z0.08000

G0 X1.32220 Y0.96800
G1 Z[#50+0*#52]
G2 I-0.00420 J0
G0 Z0.08000

G0 X1.22220 Y0.96800
G1 Z[#50+0*#52]
G2 I-0.00420 J0
G0 Z0.08000

G0 X1.12220 Y0.96800
G1 Z[#50+0*#52]
G2 I-0.00420 J0
G0 Z0.08000

G0 X1.02220 Y0.96800
G1 Z[#50+0*#52]
G2 I-0.00420 J0
G0 Z0.08000

G0 X1.79720 Y2.06800
G1 Z[#50+0*#52]
G2 I-0.00420 J0
G0 Z0.08000

G0 X1.89720 Y1.96800
G1 Z[#50+0*#52]
G2 I-0.00420 J0
G0 Z0.08000

G0 X1.89720 Y2.46800
G1 Z[#50+0*#52]
G2 I-0.00420 J0
G0 Z0.08000

G0 X1.79720 Y2.46800
G1 Z[#50+0*#52]
G2 I-0.00420 J0
G0 Z0.08000

G0 X1.52220 Y2.76800
G1 Z[#50+0*#52]
G2 I-0.00420 J0
G0 Z0.08000

G0 X1.52220 Y2.86800
G1 Z[#50+0*#52]
G2 I-0.00420 J0
G0 Z0.08000

G0 X1.32220 Y2.86800
G1 Z[#50+0*#52]
G2 I-0.00420 J0
G0 Z0.08000

G0 X1.32220 Y2.76800
G1 Z[#50+0*#52]
G2 I-0.00420 J0
G0 Z0.08000

G0 X1.32420 Y2.26800
G1 Z[#50+0*#52]
G2 I-0.00620 J0
G0 Z0.08000

G0 X1.32420 Y2.16800
G1 Z[#50+0*#52]
G2 I-0.00620 J0
G0 Z0.08000

G0 X1.22420 Y2.16800
G1 Z[#50+0*#52]
G2 I-0.00620 J0
G0 Z0.08000

G0 X1.22420 Y2.26800
G1 Z[#50+0*#52]
G2 I-0.00620 J0
G0 Z0.08000

G0 X1.12420 Y2.26800
G1 Z[#50+0*#52]
G2 I-0.00620 J0
G0 Z0.08000

G0 X1.12420 Y2.16800
G1 Z[#50+0*#52]
G2 I-0.00620 J0
G0 Z0.08000

G0 X1.42420 Y2.16800
G1 Z[#50+0*#52]
G2 I-0.00620 J0
G0 Z0.08000

G0 X1.42420 Y2.26800
G1 Z[#50+0*#52]
G2 I-0.00620 J0
G0 Z0.08000

G0 X1.52420 Y2.26800
G1 Z[#50+0*#52]
G2 I-0.00620 J0
G0 Z0.08000

G0 X1.52420 Y2.16800
G1 Z[#50+0*#52]
G2 I-0.00620 J0
G0 Z0.08000

G0 X2.12620 Y0.61800
G1 Z[#50+0*#52]
G2 I-0.00820 J0
G0 Z0.08000

G0 X2.12620 Y0.71800
G1 Z[#50+0*#52]
G2 I-0.00820 J0
G0 Z0.08000

G0 X2.12620 Y0.81800
G1 Z[#50+0*#52]
G2 I-0.00820 J0
G0 Z0.08000

G0 X2.12620 Y0.91800
G1 Z[#50+0*#52]
G2 I-0.00820 J0
G0 Z0.08000

G0 X2.12620 Y1.01800
G1 Z[#50+0*#52]
G2 I-0.00820 J0
G0 Z0.08000

G0 X2.12620 Y1.11800
G1 Z[#50+0*#52]
G2 I-0.00820 J0
G0 Z0.08000

G0 X2.12620 Y1.21800
G1 Z[#50+0*#52]
G2 I-0.00820 J0
G0 Z0.08000

G0 X2.12620 Y1.31800
G1 Z[#50+0*#52]
G2 I-0.00820 J0
G0 Z0.08000

G0 X2.12620 Y1.41800
G1 Z[#50+0*#52]
G2 I-0.00820 J0
G0 Z0.08000

G0 X2.12620 Y1.51800
G1 Z[#50+0*#52]
G2 I-0.00820 J0
G0 Z0.08000

G0 X2.12620 Y1.61800
G1 Z[#50+0*#52]
G2 I-0.00820 J0
G0 Z0.08000

G0 X2.12620 Y1.71800
G1 Z[#50+0*#52]
G2 I-0.00820 J0
G0 Z0.08000

G0 X2.12620 Y1.81800
G1 Z[#50+0*#52]
G2 I-0.00820 J0
G0 Z0.08000

G0 X2.12620 Y1.91800
G1 Z[#50+0*#52]
G2 I-0.00820 J0
G0 Z0.08000

G0 X2.12620 Y2.01800
G1 Z[#50+0*#52]
G2 I-0.00820 J0
G0 Z0.08000

G0 X2.12620 Y2.11800
G1 Z[#50+0*#52]
G2 I-0.00820 J0
G0 Z0.08000

G0 X2.12620 Y2.21800
G1 Z[#50+0*#52]
G2 I-0.00820 J0
G0 Z0.08000

G0 X2.12620 Y2.31800
G1 Z[#50+0*#52]
G2 I-0.00820 J0
G0 Z0.08000

G0 X2.12620 Y2.41800
G1 Z[#50+0*#52]
G2 I-0.00820 J0
G0 Z0.08000

G0 X2.12620 Y2.51800
G1 Z[#50+0*#52]
G2 I-0.00820 J0
G0 Z0.08000

G0 X2.02620 Y2.51800
G1 Z[#50+0*#52]
G2 I-0.00820 J0
G0 Z0.08000

G0 X2.02620 Y2.41800
G1 Z[#50+0*#52]
G2 I-0.00820 J0
G0 Z0.08000

G0 X2.02620 Y2.31800
G1 Z[#50+0*#52]
G2 I-0.00820 J0
G0 Z0.08000

G0 X2.02620 Y2.21800
G1 Z[#50+0*#52]
G2 I-0.00820 J0
G0 Z0.08000

G0 X2.02620 Y2.11800
G1 Z[#50+0*#52]
G2 I-0.00820 J0
G0 Z0.08000

G0 X2.02620 Y2.01800
G1 Z[#50+0*#52]
G2 I-0.00820 J0
G0 Z0.08000

G0 X2.02620 Y1.91800
G1 Z[#50+0*#52]
G2 I-0.00820 J0
G0 Z0.08000

G0 X2.02620 Y1.81800
G1 Z[#50+0*#52]
G2 I-0.00820 J0
G0 Z0.08000

G0 X2.02620 Y1.71800
G1 Z[#50+0*#52]
G2 I-0.00820 J0
G0 Z0.08000

G0 X2.02620 Y1.61800
G1 Z[#50+0*#52]
G2 I-0.00820 J0
G0 Z0.08000

G0 X2.02620 Y1.51800
G1 Z[#50+0*#52]
G2 I-0.00820 J0
G0 Z0.08000

G0 X2.02620 Y1.41800
G1 Z[#50+0*#52]
G2 I-0.00820 J0
G0 Z0.08000

G0 X2.02620 Y1.31800
G1 Z[#50+0*#52]
G2 I-0.00820 J0
G0 Z0.08000

G0 X2.02620 Y1.21800
G1 Z[#50+0*#52]
G2 I-0.00820 J0
G0 Z0.08000

G0 X2.02620 Y1.11800
G1 Z[#50+0*#52]
G2 I-0.00820 J0
G0 Z0.08000

G0 X2.02620 Y1.01800
G1 Z[#50+0*#52]
G2 I-0.00820 J0
G0 Z0.08000

G0 X2.02620 Y0.91800
G1 Z[#50+0*#52]
G2 I-0.00820 J0
G0 Z0.08000

G0 X2.02620 Y0.81800
G1 Z[#50+0*#52]
G2 I-0.00820 J0
G0 Z0.08000

G0 X2.02620 Y0.71800
G1 Z[#50+0*#52]
G2 I-0.00820 J0
G0 Z0.08000

G0 X2.02620 Y0.61800
G1 Z[#50+0*#52]
G2 I-0.00820 J0
G0 Z0.08000

G0 X1.07620 Y2.71800
G1 Z[#50+0*#52]
G2 I-0.00820 J0
G0 Z0.08000

G0 X0.97620 Y2.71800
G1 Z[#50+0*#52]
G2 I-0.00820 J0
G0 Z0.08000

G0 X0.87620 Y2.71800
G1 Z[#50+0*#52]
G2 I-0.00820 J0
G0 Z0.08000

G0 X0.67620 Y2.71800
G1 Z[#50+0*#52]
G2 I-0.00820 J0
G0 Z0.08000

G0 X0.57620 Y2.71800
G1 Z[#50+0*#52]
G2 I-0.00820 J0
G0 Z0.08000

G0 X0.47620 Y2.71800
G1 Z[#50+0*#52]
G2 I-0.00820 J0
G0 Z0.08000

G0 X0.42620 Y2.51800
G1 Z[#50+0*#52]
G2 I-0.00820 J0
G0 Z0.08000

G0 X0.42620 Y2.41800
G1 Z[#50+0*#52]
G2 I-0.00820 J0
G0 Z0.08000

G0 X0.42620 Y2.31800
G1 Z[#50+0*#52]
G2 I-0.00820 J0
G0 Z0.08000

G0 X0.42620 Y2.21800
G1 Z[#50+0*#52]
G2 I-0.00820 J0
G0 Z0.08000

G0 X0.42620 Y2.11800
G1 Z[#50+0*#52]
G2 I-0.00820 J0
G0 Z0.08000

G0 X0.42620 Y2.01800
G1 Z[#50+0*#52]
G2 I-0.00820 J0
G0 Z0.08000

G0 X0.42620 Y1.91800
G1 Z[#50+0*#52]
G2 I-0.00820 J0
G0 Z0.08000

G0 X0.42620 Y1.81800
G1 Z[#50+0*#52]
G2 I-0.00820 J0
G0 Z0.08000

G0 X0.42620 Y1.71800
G1 Z[#50+0*#52]
G2 I-0.00820 J0
G0 Z0.08000

G0 X0.42620 Y1.61800
G1 Z[#50+0*#52]
G2 I-0.00820 J0
G0 Z0.08000

G0 X0.42620 Y1.51800
G1 Z[#50+0*#52]
G2 I-0.00820 J0
G0 Z0.08000

G0 X0.42620 Y1.41800
G1 Z[#50+0*#52]
G2 I-0.00820 J0
G0 Z0.08000

G0 X0.42620 Y1.31800
G1 Z[#50+0*#52]
G2 I-0.00820 J0
G0 Z0.08000

G0 X0.42620 Y1.21800
G1 Z[#50+0*#52]
G2 I-0.00820 J0
G0 Z0.08000

G0 X0.42620 Y1.11800
G1 Z[#50+0*#52]
G2 I-0.00820 J0
G0 Z0.08000

G0 X0.42620 Y1.01800
G1 Z[#50+0*#52]
G2 I-0.00820 J0
G0 Z0.08000

G0 X0.42620 Y0.91800
G1 Z[#50+0*#52]
G2 I-0.00820 J0
G0 Z0.08000

G0 X0.42620 Y0.81800
G1 Z[#50+0*#52]
G2 I-0.00820 J0
G0 Z0.08000

G0 X0.42620 Y0.71800
G1 Z[#50+0*#52]
G2 I-0.00820 J0
G0 Z0.08000

G0 X0.42620 Y0.61800
G1 Z[#50+0*#52]
G2 I-0.00820 J0
G0 Z0.08000

G0 X0.32620 Y0.61800
G1 Z[#50+0*#52]
G2 I-0.00820 J0
G0 Z0.08000

G0 X0.32620 Y0.71800
G1 Z[#50+0*#52]
G2 I-0.00820 J0
G0 Z0.08000

G0 X0.32620 Y0.81800
G1 Z[#50+0*#52]
G2 I-0.00820 J0
G0 Z0.08000

G0 X0.32620 Y0.91800
G1 Z[#50+0*#52]
G2 I-0.00820 J0
G0 Z0.08000

G0 X0.32620 Y1.01800
G1 Z[#50+0*#52]
G2 I-0.00820 J0
G0 Z0.08000

G0 X0.32620 Y1.11800
G1 Z[#50+0*#52]
G2 I-0.00820 J0
G0 Z0.08000

G0 X0.32620 Y1.21800
G1 Z[#50+0*#52]
G2 I-0.00820 J0
G0 Z0.08000

G0 X0.32620 Y1.31800
G1 Z[#50+0*#52]
G2 I-0.00820 J0
G0 Z0.08000

G0 X0.32620 Y1.41800
G1 Z[#50+0*#52]
G2 I-0.00820 J0
G0 Z0.08000

G0 X0.32620 Y1.51800
G1 Z[#50+0*#52]
G2 I-0.00820 J0
G0 Z0.08000

G0 X0.32620 Y1.61800
G1 Z[#50+0*#52]
G2 I-0.00820 J0
G0 Z0.08000

G0 X0.32620 Y1.71800
G1 Z[#50+0*#52]
G2 I-0.00820 J0
G0 Z0.08000

G0 X0.32620 Y1.81800
G1 Z[#50+0*#52]
G2 I-0.00820 J0
G0 Z0.08000

G0 X0.32620 Y1.91800
G1 Z[#50+0*#52]
G2 I-0.00820 J0
G0 Z0.08000

G0 X0.32620 Y2.01800
G1 Z[#50+0*#52]
G2 I-0.00820 J0
G0 Z0.08000

G0 X0.32620 Y2.11800
G1 Z[#50+0*#52]
G2 I-0.00820 J0
G0 Z0.08000

G0 X0.32620 Y2.21800
G1 Z[#50+0*#52]
G2 I-0.00820 J0
G0 Z0.08000

G0 X0.32620 Y2.31800
G1 Z[#50+0*#52]
G2 I-0.00820 J0
G0 Z0.08000

G0 X0.32620 Y2.41800
G1 Z[#50+0*#52]
G2 I-0.00820 J0
G0 Z0.08000

G0 X0.32620 Y2.51800
G1 Z[#50+0*#52]
G2 I-0.00820 J0
G0 Z0.08000

G0 X0.36525 Y0.36800
G1 Z[#50+0*#52]
G2 I-0.04725 J0
G0 Z0.08000

G0 X2.16525 Y2.76800
G1 Z[#50+0*#52]
G2 I-0.04725 J0
G0 Z0.08000

G00 Z0.80000 ( All done -- retract )

M9 ( Coolant off. )
M2 ( Program end. )

