( pcb2gcode 1.1.4 )

G94     ( Inches per minute feed rate. )
G20     ( Units == INCHES.             )
G90     ( Absolute coordinates.        )
S30000  ( RPM spindle speed.           )
M3      ( Spindle on clockwise.        )

G64 P0.00333 ( set maximum deviation from commanded toolpath )

G04 P0 ( dwell for no time -- G64 should not smooth over this point )
G00 Z0.08000 ( retract )

G00 X-0.00067 Y2.95000 ( rapid move to begin. )
G01 Z-0.00800 F6.00000 ( plunge. )
G04 P0 ( dwell for no time -- G64 should not smooth over this point )
X-0.00067 Y2.95000
X-0.00133 Y2.95000
X-0.00133 Y-0.00000
X-0.00067 Y-0.00000
X-0.00067 Y-0.00067
X2.19933 Y-0.00067
X2.19933 Y-0.00000
X2.20000 Y-0.00000
X2.20000 Y2.95000
X2.19933 Y2.95000
X2.19933 Y2.95067
X-0.00067 Y2.95067
X-0.00067 Y2.95000
G04 P0 ( dwell for no time -- G64 should not smooth over this point )
G00 Z0.08000 ( retract )

G00 X0.03533 Y2.90867 ( rapid move to begin. )
G01 Z-0.00800 F6.00000 ( plunge. )
G04 P0 ( dwell for no time -- G64 should not smooth over this point )
X0.03533 Y2.90867
X0.03533 Y2.90800
X0.03467 Y2.90800
X0.03467 Y2.69067
X0.03533 Y2.69067
X0.03533 Y2.68867
X0.03600 Y2.68867
X0.03600 Y2.68733
X0.03667 Y2.68733
X0.03667 Y2.68600
X0.03733 Y2.68600
X0.03733 Y2.68533
X0.03867 Y2.68533
X0.03867 Y2.68467
X0.04000 Y2.68467
X0.04000 Y2.68400
X0.04200 Y2.68400
X0.04200 Y2.68333
X0.05600 Y2.68333
X0.05600 Y2.68400
X0.05800 Y2.68400
X0.05800 Y2.68467
X0.05933 Y2.68467
X0.05933 Y2.68533
X0.06067 Y2.68533
X0.06067 Y2.68600
X0.06133 Y2.68600
X0.06133 Y2.68667
X0.06200 Y2.68667
X0.06200 Y2.68733
X0.06267 Y2.68733
X0.06267 Y2.68800
X0.06333 Y2.68800
X0.06333 Y2.68867
X0.06400 Y2.68867
X0.06400 Y2.68933
X0.06467 Y2.68933
X0.06467 Y2.69067
X0.06533 Y2.69067
X0.06533 Y2.69133
X0.06600 Y2.69133
X0.06600 Y2.69200
X0.06667 Y2.69200
X0.06667 Y2.69267
X0.06733 Y2.69267
X0.06733 Y2.69333
X0.06800 Y2.69333
X0.06800 Y2.69400
X0.06867 Y2.69400
X0.06867 Y2.69533
X0.06933 Y2.69533
X0.06933 Y2.69600
X0.07000 Y2.69600
X0.07000 Y2.69667
X0.07067 Y2.69667
X0.07067 Y2.69733
X0.07133 Y2.69733
X0.07133 Y2.69800
X0.07200 Y2.69800
X0.07200 Y2.69933
X0.07267 Y2.69933
X0.07267 Y2.70000
X0.07333 Y2.70000
X0.07333 Y2.70067
X0.07400 Y2.70067
X0.07400 Y2.70133
X0.07467 Y2.70133
X0.07467 Y2.70200
X0.07533 Y2.70200
X0.07533 Y2.70333
X0.07600 Y2.70333
X0.07600 Y2.70400
X0.07667 Y2.70400
X0.07667 Y2.70467
X0.07733 Y2.70467
X0.07733 Y2.70533
X0.07800 Y2.70533
X0.07800 Y2.70600
X0.07867 Y2.70600
X0.07867 Y2.70667
X0.07933 Y2.70667
X0.07933 Y2.70800
X0.08000 Y2.70800
X0.08000 Y2.70867
X0.08067 Y2.70867
X0.08067 Y2.70933
X0.08133 Y2.70933
X0.08133 Y2.71000
X0.08200 Y2.71000
X0.08200 Y2.71067
X0.08267 Y2.71067
X0.08267 Y2.71200
X0.08333 Y2.71200
X0.08333 Y2.71267
X0.08400 Y2.71267
X0.08400 Y2.71333
X0.08467 Y2.71333
X0.08467 Y2.71400
X0.08533 Y2.71400
X0.08533 Y2.71467
X0.08600 Y2.71467
X0.08600 Y2.71533
X0.08667 Y2.71533
X0.08667 Y2.71667
X0.08733 Y2.71667
X0.08733 Y2.71733
X0.08800 Y2.71733
X0.08800 Y2.71800
X0.08867 Y2.71800
X0.08867 Y2.71867
X0.08933 Y2.71867
X0.08933 Y2.71933
X0.09000 Y2.71933
X0.09000 Y2.72067
X0.09067 Y2.72067
X0.09067 Y2.72133
X0.09133 Y2.72133
X0.09133 Y2.72200
X0.09200 Y2.72200
X0.09200 Y2.72267
X0.09267 Y2.72267
X0.09267 Y2.72333
X0.09333 Y2.72333
X0.09333 Y2.72400
X0.09400 Y2.72400
X0.09400 Y2.72467
X0.09533 Y2.72467
X0.09533 Y2.72533
X0.09600 Y2.72533
X0.09600 Y2.72600
X0.09733 Y2.72600
X0.09733 Y2.72667
X0.09800 Y2.72667
X0.09800 Y2.72733
X0.09933 Y2.72733
X0.09933 Y2.72800
X0.10067 Y2.72800
X0.10067 Y2.72867
X0.10133 Y2.72867
X0.10133 Y2.72933
X0.10267 Y2.72933
X0.10267 Y2.73000
X0.10333 Y2.73000
X0.10333 Y2.73067
X0.10467 Y2.73067
X0.10467 Y2.73133
X0.10533 Y2.73133
X0.10533 Y2.73200
X0.10667 Y2.73200
X0.10667 Y2.73267
X0.10800 Y2.73267
X0.10800 Y2.73333
X0.10867 Y2.73333
X0.10867 Y2.73400
X0.11000 Y2.73400
X0.11000 Y2.73467
X0.11067 Y2.73467
X0.11067 Y2.73533
X0.11200 Y2.73533
X0.11200 Y2.73600
X0.11333 Y2.73600
X0.11333 Y2.73667
X0.11400 Y2.73667
X0.11400 Y2.73733
X0.11533 Y2.73733
X0.11533 Y2.73800
X0.11600 Y2.73800
X0.11600 Y2.73867
X0.11733 Y2.73867
X0.11733 Y2.73933
X0.11800 Y2.73933
X0.11800 Y2.74000
X0.11933 Y2.74000
X0.11933 Y2.74067
X0.12067 Y2.74067
X0.12067 Y2.74133
X0.12133 Y2.74133
X0.12133 Y2.74200
X0.12267 Y2.74200
X0.12267 Y2.74267
X0.12333 Y2.74267
X0.12333 Y2.74333
X0.12467 Y2.74333
X0.12467 Y2.74400
X0.12600 Y2.74400
X0.12600 Y2.74467
X0.12667 Y2.74467
X0.12667 Y2.74533
X0.12800 Y2.74533
X0.12800 Y2.74600
X0.12867 Y2.74600
X0.12867 Y2.74667
X0.13000 Y2.74667
X0.13000 Y2.74733
X0.13133 Y2.74733
X0.13133 Y2.74800
X0.13200 Y2.74800
X0.13200 Y2.74867
X0.13333 Y2.74867
X0.13333 Y2.74933
X0.13400 Y2.74933
X0.13400 Y2.75000
X0.13600 Y2.75000
X0.13600 Y2.75067
X0.13800 Y2.75067
X0.13800 Y2.75133
X0.14067 Y2.75133
X0.14067 Y2.75200
X0.14267 Y2.75200
X0.14267 Y2.75267
X0.14467 Y2.75267
X0.14467 Y2.75333
X0.14733 Y2.75333
X0.14733 Y2.75400
X0.14933 Y2.75400
X0.14933 Y2.75467
X0.15133 Y2.75467
X0.15133 Y2.75533
X0.15400 Y2.75533
X0.15400 Y2.75600
X0.15600 Y2.75600
X0.15600 Y2.75667
X0.15800 Y2.75667
X0.15800 Y2.75733
X0.16067 Y2.75733
X0.16067 Y2.75800
X0.16267 Y2.75800
X0.16267 Y2.75867
X0.16533 Y2.75867
X0.16533 Y2.75933
X0.16733 Y2.75933
X0.16733 Y2.76000
X0.16933 Y2.76000
X0.16933 Y2.76067
X0.17200 Y2.76067
X0.17200 Y2.76133
X0.17400 Y2.76133
X0.17400 Y2.76200
X0.17600 Y2.76200
X0.17600 Y2.76267
X0.17867 Y2.76267
X0.17867 Y2.76333
X0.18067 Y2.76333
X0.18067 Y2.76400
X0.21933 Y2.76400
X0.21933 Y2.76333
X0.22133 Y2.76333
X0.22133 Y2.76267
X0.22400 Y2.76267
X0.22400 Y2.76200
X0.22600 Y2.76200
X0.22600 Y2.76133
X0.22800 Y2.76133
X0.22800 Y2.76067
X0.23000 Y2.76067
X0.23000 Y2.76000
X0.23267 Y2.76000
X0.23267 Y2.75933
X0.23467 Y2.75933
X0.23467 Y2.75867
X0.23667 Y2.75867
X0.23667 Y2.75800
X0.23933 Y2.75800
X0.23933 Y2.75733
X0.24133 Y2.75733
X0.24133 Y2.75667
X0.24333 Y2.75667
X0.24333 Y2.75600
X0.24600 Y2.75600
X0.24600 Y2.75533
X0.24800 Y2.75533
X0.24800 Y2.75467
X0.25000 Y2.75467
X0.25000 Y2.75400
X0.25267 Y2.75400
X0.25267 Y2.75333
X0.25467 Y2.75333
X0.25467 Y2.75267
X0.25667 Y2.75267
X0.25667 Y2.75200
X0.25933 Y2.75200
X0.25933 Y2.75133
X0.26133 Y2.75133
X0.26133 Y2.75067
X0.26333 Y2.75067
X0.26333 Y2.75000
X0.26533 Y2.75000
X0.26533 Y2.74933
X0.26600 Y2.74933
X0.26600 Y2.74867
X0.26733 Y2.74867
X0.26733 Y2.74800
X0.26800 Y2.74800
X0.26800 Y2.74733
X0.26933 Y2.74733
X0.26933 Y2.74667
X0.27067 Y2.74667
X0.27067 Y2.74600
X0.27133 Y2.74600
X0.27133 Y2.74533
X0.27267 Y2.74533
X0.27267 Y2.74467
X0.27333 Y2.74467
X0.27333 Y2.74400
X0.27467 Y2.74400
X0.27467 Y2.74333
X0.27600 Y2.74333
X0.27600 Y2.74267
X0.27667 Y2.74267
X0.27667 Y2.74200
X0.27800 Y2.74200
X0.27800 Y2.74133
X0.27867 Y2.74133
X0.27867 Y2.74067
X0.28000 Y2.74067
X0.28000 Y2.74000
X0.28133 Y2.74000
X0.28133 Y2.73933
X0.28200 Y2.73933
X0.28200 Y2.73867
X0.28333 Y2.73867
X0.28333 Y2.73800
X0.28400 Y2.73800
X0.28400 Y2.73733
X0.28533 Y2.73733
X0.28533 Y2.73667
X0.28600 Y2.73667
X0.28600 Y2.73600
X0.28733 Y2.73600
X0.28733 Y2.73533
X0.28867 Y2.73533
X0.28867 Y2.73467
X0.28933 Y2.73467
X0.28933 Y2.73400
X0.29067 Y2.73400
X0.29067 Y2.73333
X0.29133 Y2.73333
X0.29133 Y2.73267
X0.29267 Y2.73267
X0.29267 Y2.73200
X0.29400 Y2.73200
X0.29400 Y2.73133
X0.29467 Y2.73133
X0.29467 Y2.73067
X0.29600 Y2.73067
X0.29600 Y2.73000
X0.29667 Y2.73000
X0.29667 Y2.72933
X0.29800 Y2.72933
X0.29800 Y2.72867
X0.29867 Y2.72867
X0.29867 Y2.72800
X0.30000 Y2.72800
X0.30000 Y2.72733
X0.30133 Y2.72733
X0.30133 Y2.72667
X0.30200 Y2.72667
X0.30200 Y2.72600
X0.30333 Y2.72600
X0.30333 Y2.72533
X0.30400 Y2.72533
X0.30400 Y2.72467
X0.30533 Y2.72467
X0.30533 Y2.72400
X0.30600 Y2.72400
X0.30600 Y2.72333
X0.30667 Y2.72333
X0.30667 Y2.72267
X0.30733 Y2.72267
X0.30733 Y2.72200
X0.30800 Y2.72200
X0.30800 Y2.72133
X0.30867 Y2.72133
X0.30867 Y2.72067
X0.30933 Y2.72067
X0.30933 Y2.72000
X0.31000 Y2.72000
X0.31000 Y2.71867
X0.31067 Y2.71867
X0.31067 Y2.71800
X0.31133 Y2.71800
X0.31133 Y2.71733
X0.31200 Y2.71733
X0.31200 Y2.71667
X0.31267 Y2.71667
X0.31267 Y2.71600
X0.31333 Y2.71600
X0.31333 Y2.71533
X0.31400 Y2.71533
X0.31400 Y2.71400
X0.31467 Y2.71400
X0.31467 Y2.71333
X0.31533 Y2.71333
X0.31533 Y2.71267
X0.31600 Y2.71267
X0.31600 Y2.71200
X0.31667 Y2.71200
X0.31667 Y2.71133
X0.31733 Y2.71133
X0.31733 Y2.71067
X0.31800 Y2.71067
X0.31800 Y2.70933
X0.31867 Y2.70933
X0.31867 Y2.70867
X0.31933 Y2.70867
X0.31933 Y2.70800
X0.32000 Y2.70800
X0.32000 Y2.70733
X0.32067 Y2.70733
X0.32067 Y2.70667
X0.32133 Y2.70667
X0.32133 Y2.70600
X0.32200 Y2.70600
X0.32200 Y2.70467
X0.32267 Y2.70467
X0.32267 Y2.70400
X0.32333 Y2.70400
X0.32333 Y2.70333
X0.32400 Y2.70333
X0.32400 Y2.70267
X0.32467 Y2.70267
X0.32467 Y2.70200
X0.32533 Y2.70200
X0.32533 Y2.70133
X0.32600 Y2.70133
X0.32600 Y2.70067
X0.32667 Y2.70067
X0.32667 Y2.69933
X0.32733 Y2.69933
X0.32733 Y2.69867
X0.32800 Y2.69867
X0.32800 Y2.69800
X0.32867 Y2.69800
X0.32867 Y2.69733
X0.32933 Y2.69733
X0.32933 Y2.69667
X0.33000 Y2.69667
X0.33000 Y2.69600
X0.33067 Y2.69600
X0.33067 Y2.69467
X0.33133 Y2.69467
X0.33133 Y2.69400
X0.33200 Y2.69400
X0.33200 Y2.69333
X0.33267 Y2.69333
X0.33267 Y2.69267
X0.33333 Y2.69267
X0.33333 Y2.69200
X0.33400 Y2.69200
X0.33400 Y2.69133
X0.33467 Y2.69133
X0.33467 Y2.69000
X0.33533 Y2.69000
X0.33533 Y2.68933
X0.33600 Y2.68933
X0.33600 Y2.68867
X0.33667 Y2.68867
X0.33667 Y2.68800
X0.33733 Y2.68800
X0.33733 Y2.68733
X0.33800 Y2.68733
X0.33800 Y2.68600
X0.33867 Y2.68600
X0.33867 Y2.68467
X0.33933 Y2.68467
X0.33933 Y2.68333
X0.34000 Y2.68333
X0.34000 Y2.68133
X0.34067 Y2.68133
X0.34067 Y2.68000
X0.34133 Y2.68000
X0.34133 Y2.67867
X0.34200 Y2.67867
X0.34200 Y2.67733
X0.34267 Y2.67733
X0.34267 Y2.67600
X0.34333 Y2.67600
X0.34333 Y2.67400
X0.34400 Y2.67400
X0.34400 Y2.67267
X0.34467 Y2.67267
X0.34467 Y2.67133
X0.34533 Y2.67133
X0.34533 Y2.67000
X0.34600 Y2.67000
X0.34600 Y2.66867
X0.34667 Y2.66867
X0.34667 Y2.66667
X0.34733 Y2.66667
X0.34733 Y2.66533
X0.34800 Y2.66533
X0.34800 Y2.66400
X0.34867 Y2.66400
X0.34867 Y2.66267
X0.34933 Y2.66267
X0.34933 Y2.66133
X0.35000 Y2.66133
X0.35000 Y2.66000
X0.35067 Y2.66000
X0.35067 Y2.65800
X0.35133 Y2.65800
X0.35133 Y2.65667
X0.35200 Y2.65667
X0.35200 Y2.65533
X0.35267 Y2.65533
X0.35267 Y2.65400
X0.35333 Y2.65400
X0.35333 Y2.65267
X0.35400 Y2.65267
X0.35400 Y2.65067
X0.35467 Y2.65067
X0.35467 Y2.64933
X0.35533 Y2.64933
X0.35533 Y2.64800
X0.35600 Y2.64800
X0.35600 Y2.64667
X0.35667 Y2.64667
X0.35667 Y2.64533
X0.35733 Y2.64533
X0.35733 Y2.64333
X0.35800 Y2.64333
X0.35800 Y2.64200
X0.35867 Y2.64200
X0.35867 Y2.63733
X0.35933 Y2.63733
X0.35933 Y2.63267
X0.36000 Y2.63267
X0.36000 Y2.62800
X0.36067 Y2.62800
X0.36067 Y2.62333
X0.36133 Y2.62333
X0.36133 Y2.61867
X0.36200 Y2.61867
X0.36200 Y2.61400
X0.36267 Y2.61400
X0.36267 Y2.60933
X0.36333 Y2.60933
X0.36333 Y2.60467
X0.36400 Y2.60467
X0.36400 Y2.60067
X0.36467 Y2.60067
X0.36467 Y2.60000
X0.36400 Y2.60000
X0.36400 Y2.59600
X0.36333 Y2.59600
X0.36333 Y2.59133
X0.36267 Y2.59133
X0.36267 Y2.58667
X0.36200 Y2.58667
X0.36200 Y2.58200
X0.36133 Y2.58200
X0.36133 Y2.57733
X0.36067 Y2.57733
X0.36067 Y2.57267
X0.36000 Y2.57267
X0.36000 Y2.56800
X0.35933 Y2.56800
X0.35933 Y2.56333
X0.35867 Y2.56333
X0.35867 Y2.55867
X0.35800 Y2.55867
X0.35800 Y2.55733
X0.35733 Y2.55733
X0.35733 Y2.55533
X0.35667 Y2.55533
X0.35667 Y2.55400
X0.35600 Y2.55400
X0.35600 Y2.55267
X0.35533 Y2.55267
X0.35533 Y2.55133
X0.35467 Y2.55133
X0.35467 Y2.55000
X0.35400 Y2.55000
X0.35400 Y2.54800
X0.35333 Y2.54800
X0.35333 Y2.54667
X0.35267 Y2.54667
X0.35267 Y2.54533
X0.35200 Y2.54533
X0.35200 Y2.54400
X0.35133 Y2.54400
X0.35133 Y2.54267
X0.35067 Y2.54267
X0.35067 Y2.54067
X0.35000 Y2.54067
X0.35000 Y2.53933
X0.34933 Y2.53933
X0.34933 Y2.53800
X0.34867 Y2.53800
X0.34867 Y2.53667
X0.34800 Y2.53667
X0.34800 Y2.53533
X0.34733 Y2.53533
X0.34733 Y2.53400
X0.34667 Y2.53400
X0.34667 Y2.53200
X0.34600 Y2.53200
X0.34600 Y2.53067
X0.34533 Y2.53067
X0.34533 Y2.52933
X0.34467 Y2.52933
X0.34467 Y2.52800
X0.34400 Y2.52800
X0.34400 Y2.52667
X0.34333 Y2.52667
X0.34333 Y2.52467
X0.34267 Y2.52467
X0.34267 Y2.52333
X0.34200 Y2.52333
X0.34200 Y2.52200
X0.34133 Y2.52200
X0.34133 Y2.52067
X0.34067 Y2.52067
X0.34067 Y2.51933
X0.34000 Y2.51933
X0.34000 Y2.51733
X0.33933 Y2.51733
X0.33933 Y2.51600
X0.33867 Y2.51600
X0.33867 Y2.51467
X0.33800 Y2.51467
X0.33800 Y2.51333
X0.33733 Y2.51333
X0.33733 Y2.51267
X0.33667 Y2.51267
X0.33667 Y2.51200
X0.33600 Y2.51200
X0.33600 Y2.51133
X0.33533 Y2.51133
X0.33533 Y2.51067
X0.33467 Y2.51067
X0.33467 Y2.50933
X0.33400 Y2.50933
X0.33400 Y2.50867
X0.33333 Y2.50867
X0.33333 Y2.50800
X0.33267 Y2.50800
X0.33267 Y2.50733
X0.33200 Y2.50733
X0.33200 Y2.50667
X0.33133 Y2.50667
X0.33133 Y2.50600
X0.33067 Y2.50600
X0.33067 Y2.50467
X0.33000 Y2.50467
X0.33000 Y2.50400
X0.32933 Y2.50400
X0.32933 Y2.50333
X0.32867 Y2.50333
X0.32867 Y2.50267
X0.32800 Y2.50267
X0.32800 Y2.50200
X0.32733 Y2.50200
X0.32733 Y2.50133
X0.32667 Y2.50133
X0.32667 Y2.50000
X0.32600 Y2.50000
X0.32600 Y2.49933
X0.32533 Y2.49933
X0.32533 Y2.49867
X0.32467 Y2.49867
X0.32467 Y2.49800
X0.32400 Y2.49800
X0.32400 Y2.49733
X0.32333 Y2.49733
X0.32333 Y2.49667
X0.32267 Y2.49667
X0.32267 Y2.49600
X0.32200 Y2.49600
X0.32200 Y2.49467
X0.32133 Y2.49467
X0.32133 Y2.49400
X0.32067 Y2.49400
X0.32067 Y2.49333
X0.32000 Y2.49333
X0.32000 Y2.49267
X0.31933 Y2.49267
X0.31933 Y2.49200
X0.31867 Y2.49200
X0.31867 Y2.49133
X0.31800 Y2.49133
X0.31800 Y2.49000
X0.31733 Y2.49000
X0.31733 Y2.48933
X0.31667 Y2.48933
X0.31667 Y2.48867
X0.31600 Y2.48867
X0.31600 Y2.48800
X0.31533 Y2.48800
X0.31533 Y2.48733
X0.31467 Y2.48733
X0.31467 Y2.48667
X0.31400 Y2.48667
X0.31400 Y2.48533
X0.31333 Y2.48533
X0.31333 Y2.48467
X0.31267 Y2.48467
X0.31267 Y2.48400
X0.31200 Y2.48400
X0.31200 Y2.48333
X0.31133 Y2.48333
X0.31133 Y2.48267
X0.31067 Y2.48267
X0.31067 Y2.48200
X0.31000 Y2.48200
X0.31000 Y2.48067
X0.30933 Y2.48067
X0.30933 Y2.48000
X0.30867 Y2.48000
X0.30867 Y2.47933
X0.30800 Y2.47933
X0.30800 Y2.47867
X0.30733 Y2.47867
X0.30733 Y2.47800
X0.30667 Y2.47800
X0.30667 Y2.47733
X0.30600 Y2.47733
X0.30600 Y2.47667
X0.30533 Y2.47667
X0.30533 Y2.47600
X0.30400 Y2.47600
X0.30400 Y2.47533
X0.30333 Y2.47533
X0.30333 Y2.47467
X0.30200 Y2.47467
X0.30200 Y2.47400
X0.30133 Y2.47400
X0.30133 Y2.47333
X0.30000 Y2.47333
X0.30000 Y2.47267
X0.29933 Y2.47267
X0.29933 Y2.47200
X0.29800 Y2.47200
X0.29800 Y2.47133
X0.29733 Y2.47133
X0.29733 Y2.47067
X0.29600 Y2.47067
X0.29600 Y2.47000
X0.29533 Y2.47000
X0.29533 Y2.46933
X0.29400 Y2.46933
X0.29400 Y2.46867
X0.29267 Y2.46867
X0.29267 Y2.46800
X0.29200 Y2.46800
X0.29200 Y2.46733
X0.29067 Y2.46733
X0.29067 Y2.46667
X0.29000 Y2.46667
X0.29000 Y2.46600
X0.28867 Y2.46600
X0.28867 Y2.46533
X0.28800 Y2.46533
X0.28800 Y2.46467
X0.28667 Y2.46467
X0.28667 Y2.46400
X0.28600 Y2.46400
X0.28600 Y2.46333
X0.28467 Y2.46333
X0.28467 Y2.46267
X0.28400 Y2.46267
X0.28400 Y2.46200
X0.28267 Y2.46200
X0.28267 Y2.46133
X0.28133 Y2.46133
X0.28133 Y2.46067
X0.28067 Y2.46067
X0.28067 Y2.46000
X0.27933 Y2.46000
X0.27933 Y2.45933
X0.27867 Y2.45933
X0.27867 Y2.45867
X0.27733 Y2.45867
X0.27733 Y2.45800
X0.27667 Y2.45800
X0.27667 Y2.45733
X0.27533 Y2.45733
X0.27533 Y2.45667
X0.27467 Y2.45667
X0.27467 Y2.45600
X0.27333 Y2.45600
X0.27333 Y2.45533
X0.27267 Y2.45533
X0.27267 Y2.45467
X0.27133 Y2.45467
X0.27133 Y2.45400
X0.27000 Y2.45400
X0.27000 Y2.45333
X0.26933 Y2.45333
X0.26933 Y2.45267
X0.26800 Y2.45267
X0.26800 Y2.45200
X0.26733 Y2.45200
X0.26733 Y2.45133
X0.26600 Y2.45133
X0.26600 Y2.45067
X0.26533 Y2.45067
X0.26533 Y2.45000
X0.26333 Y2.45000
X0.26333 Y2.44933
X0.26133 Y2.44933
X0.26133 Y2.44867
X0.25933 Y2.44867
X0.25933 Y2.44800
X0.25667 Y2.44800
X0.25667 Y2.44733
X0.25467 Y2.44733
X0.25467 Y2.44667
X0.25267 Y2.44667
X0.25267 Y2.44600
X0.25000 Y2.44600
X0.25000 Y2.44533
X0.24800 Y2.44533
X0.24800 Y2.44467
X0.24600 Y2.44467
X0.24600 Y2.44400
X0.24333 Y2.44400
X0.24333 Y2.44333
X0.24133 Y2.44333
X0.24133 Y2.44267
X0.23933 Y2.44267
X0.23933 Y2.44200
X0.23667 Y2.44200
X0.23667 Y2.44133
X0.23467 Y2.44133
X0.23467 Y2.44067
X0.23267 Y2.44067
X0.23267 Y2.44000
X0.23000 Y2.44000
X0.23000 Y2.43933
X0.22800 Y2.43933
X0.22800 Y2.43867
X0.22600 Y2.43867
X0.22600 Y2.43800
X0.22400 Y2.43800
X0.22400 Y2.43733
X0.22133 Y2.43733
X0.22133 Y2.43667
X0.21933 Y2.43667
X0.21933 Y2.43600
X0.18067 Y2.43600
X0.18067 Y2.43667
X0.17867 Y2.43667
X0.17867 Y2.43733
X0.17600 Y2.43733
X0.17600 Y2.43800
X0.17400 Y2.43800
X0.17400 Y2.43867
X0.17200 Y2.43867
X0.17200 Y2.43933
X0.16933 Y2.43933
X0.16933 Y2.44000
X0.16733 Y2.44000
X0.16733 Y2.44067
X0.16533 Y2.44067
X0.16533 Y2.44133
X0.16267 Y2.44133
X0.16267 Y2.44200
X0.16067 Y2.44200
X0.16067 Y2.44267
X0.15800 Y2.44267
X0.15800 Y2.44333
X0.15600 Y2.44333
X0.15600 Y2.44400
X0.15400 Y2.44400
X0.15400 Y2.44467
X0.15133 Y2.44467
X0.15133 Y2.44533
X0.14933 Y2.44533
X0.14933 Y2.44600
X0.14733 Y2.44600
X0.14733 Y2.44667
X0.14467 Y2.44667
X0.14467 Y2.44733
X0.14267 Y2.44733
X0.14267 Y2.44800
X0.14067 Y2.44800
X0.14067 Y2.44867
X0.13800 Y2.44867
X0.13800 Y2.44933
X0.13600 Y2.44933
X0.13600 Y2.45000
X0.13400 Y2.45000
X0.13400 Y2.45067
X0.13333 Y2.45067
X0.13333 Y2.45133
X0.13200 Y2.45133
X0.13200 Y2.45200
X0.13133 Y2.45200
X0.13133 Y2.45267
X0.13000 Y2.45267
X0.13000 Y2.45333
X0.12933 Y2.45333
X0.12933 Y2.45400
X0.12800 Y2.45400
X0.12800 Y2.45467
X0.12667 Y2.45467
X0.12667 Y2.45533
X0.12600 Y2.45533
X0.12600 Y2.45600
X0.12467 Y2.45600
X0.12467 Y2.45667
X0.12400 Y2.45667
X0.12400 Y2.45733
X0.12267 Y2.45733
X0.12267 Y2.45800
X0.12200 Y2.45800
X0.12200 Y2.45867
X0.12067 Y2.45867
X0.12067 Y2.45933
X0.12000 Y2.45933
X0.12000 Y2.46000
X0.11867 Y2.46000
X0.11867 Y2.46067
X0.11800 Y2.46067
X0.11800 Y2.46133
X0.11667 Y2.46133
X0.11667 Y2.46200
X0.11533 Y2.46200
X0.11533 Y2.46267
X0.11467 Y2.46267
X0.11467 Y2.46333
X0.11333 Y2.46333
X0.11333 Y2.46400
X0.11267 Y2.46400
X0.11267 Y2.46467
X0.11133 Y2.46467
X0.11133 Y2.46533
X0.11067 Y2.46533
X0.11067 Y2.46600
X0.10933 Y2.46600
X0.10933 Y2.46667
X0.10867 Y2.46667
X0.10867 Y2.46733
X0.10733 Y2.46733
X0.10733 Y2.46800
X0.10667 Y2.46800
X0.10667 Y2.46867
X0.10533 Y2.46867
X0.10533 Y2.46933
X0.10400 Y2.46933
X0.10400 Y2.47000
X0.10333 Y2.47000
X0.10333 Y2.47067
X0.10200 Y2.47067
X0.10200 Y2.47133
X0.10133 Y2.47133
X0.10133 Y2.47200
X0.10000 Y2.47200
X0.10000 Y2.47267
X0.09933 Y2.47267
X0.09933 Y2.47333
X0.09800 Y2.47333
X0.09800 Y2.47400
X0.09733 Y2.47400
X0.09733 Y2.47467
X0.09600 Y2.47467
X0.09600 Y2.47533
X0.09533 Y2.47533
X0.09533 Y2.47600
X0.09400 Y2.47600
X0.09400 Y2.47667
X0.09333 Y2.47667
X0.09333 Y2.47733
X0.09267 Y2.47733
X0.09267 Y2.47800
X0.09200 Y2.47800
X0.09200 Y2.47867
X0.09133 Y2.47867
X0.09133 Y2.47933
X0.09067 Y2.47933
X0.09067 Y2.48000
X0.09000 Y2.48000
X0.09000 Y2.48133
X0.08933 Y2.48133
X0.08933 Y2.48200
X0.08867 Y2.48200
X0.08867 Y2.48267
X0.08800 Y2.48267
X0.08800 Y2.48333
X0.08733 Y2.48333
X0.08733 Y2.48400
X0.08667 Y2.48400
X0.08667 Y2.48467
X0.08600 Y2.48467
X0.08600 Y2.48533
X0.08533 Y2.48533
X0.08533 Y2.48667
X0.08467 Y2.48667
X0.08467 Y2.48733
X0.08400 Y2.48733
X0.08400 Y2.48800
X0.08333 Y2.48800
X0.08333 Y2.48867
X0.08267 Y2.48867
X0.08267 Y2.48933
X0.08200 Y2.48933
X0.08200 Y2.49000
X0.08133 Y2.49000
X0.08133 Y2.49133
X0.08067 Y2.49133
X0.08067 Y2.49200
X0.08000 Y2.49200
X0.08000 Y2.49267
X0.07933 Y2.49267
X0.07933 Y2.49333
X0.07867 Y2.49333
X0.07867 Y2.49400
X0.07800 Y2.49400
X0.07800 Y2.49467
X0.07733 Y2.49467
X0.07733 Y2.49600
X0.07667 Y2.49600
X0.07667 Y2.49667
X0.07600 Y2.49667
X0.07600 Y2.49733
X0.07533 Y2.49733
X0.07533 Y2.49800
X0.07467 Y2.49800
X0.07467 Y2.49867
X0.07400 Y2.49867
X0.07400 Y2.49933
X0.07333 Y2.49933
X0.07333 Y2.50067
X0.07267 Y2.50067
X0.07267 Y2.50133
X0.07200 Y2.50133
X0.07200 Y2.50200
X0.07133 Y2.50200
X0.07133 Y2.50267
X0.07067 Y2.50267
X0.07067 Y2.50333
X0.07000 Y2.50333
X0.07000 Y2.50400
X0.06933 Y2.50400
X0.06933 Y2.50533
X0.06867 Y2.50533
X0.06867 Y2.50600
X0.06800 Y2.50600
X0.06800 Y2.50667
X0.06733 Y2.50667
X0.06733 Y2.50733
X0.06667 Y2.50733
X0.06667 Y2.50800
X0.06600 Y2.50800
X0.06600 Y2.50867
X0.06533 Y2.50867
X0.06533 Y2.51000
X0.06467 Y2.51000
X0.06467 Y2.51067
X0.06400 Y2.51067
X0.06400 Y2.51133
X0.06333 Y2.51133
X0.06333 Y2.51200
X0.06267 Y2.51200
X0.06267 Y2.51267
X0.06200 Y2.51267
X0.06200 Y2.51333
X0.06133 Y2.51333
X0.06133 Y2.51400
X0.06067 Y2.51400
X0.06067 Y2.51467
X0.05933 Y2.51467
X0.05933 Y2.51533
X0.05800 Y2.51533
X0.05800 Y2.51600
X0.05600 Y2.51600
X0.05600 Y2.51667
X0.04200 Y2.51667
X0.04200 Y2.51600
X0.04000 Y2.51600
X0.04000 Y2.51533
X0.03867 Y2.51533
X0.03867 Y2.51467
X0.03733 Y2.51467
X0.03733 Y2.51400
X0.03667 Y2.51400
X0.03667 Y2.51267
X0.03600 Y2.51267
X0.03600 Y2.51133
X0.03533 Y2.51133
X0.03533 Y2.50933
X0.03467 Y2.50933
X0.03467 Y0.04200
X0.03533 Y0.04200
X0.03533 Y0.04000
X0.03600 Y0.04000
X0.03600 Y0.03867
X0.03667 Y0.03867
X0.03667 Y0.03733
X0.03733 Y0.03733
X0.03733 Y0.03667
X0.03867 Y0.03667
X0.03867 Y0.03600
X0.04000 Y0.03600
X0.04000 Y0.03533
X0.04200 Y0.03533
X0.04200 Y0.03467
X1.91200 Y0.03467
X1.91200 Y0.03533
X1.91400 Y0.03533
X1.91400 Y0.03600
X1.91533 Y0.03600
X1.91533 Y0.03667
X1.91667 Y0.03667
X1.91667 Y0.03733
X1.91733 Y0.03733
X1.91733 Y0.03867
X1.91800 Y0.03867
X1.91800 Y0.04000
X1.91867 Y0.04000
X1.91867 Y0.04200
X1.91933 Y0.04200
X1.91933 Y0.05600
X1.91867 Y0.05600
X1.91867 Y0.05800
X1.91800 Y0.05800
X1.91800 Y0.05933
X1.91733 Y0.05933
X1.91733 Y0.06067
X1.91667 Y0.06067
X1.91667 Y0.06133
X1.91600 Y0.06133
X1.91600 Y0.06200
X1.91533 Y0.06200
X1.91533 Y0.06267
X1.91400 Y0.06267
X1.91400 Y0.06333
X1.91333 Y0.06333
X1.91333 Y0.06400
X1.91200 Y0.06400
X1.91200 Y0.06467
X1.91133 Y0.06467
X1.91133 Y0.06533
X1.91000 Y0.06533
X1.91000 Y0.06600
X1.90933 Y0.06600
X1.90933 Y0.06667
X1.90800 Y0.06667
X1.90800 Y0.06733
X1.90733 Y0.06733
X1.90733 Y0.06800
X1.90600 Y0.06800
X1.90600 Y0.06867
X1.90533 Y0.06867
X1.90533 Y0.06933
X1.90400 Y0.06933
X1.90400 Y0.07000
X1.90333 Y0.07000
X1.90333 Y0.07067
X1.90200 Y0.07067
X1.90200 Y0.07133
X1.90133 Y0.07133
X1.90133 Y0.07200
X1.90000 Y0.07200
X1.90000 Y0.07267
X1.89933 Y0.07267
X1.89933 Y0.07333
X1.89800 Y0.07333
X1.89800 Y0.07400
X1.89667 Y0.07400
X1.89667 Y0.07467
X1.89600 Y0.07467
X1.89600 Y0.07533
X1.89467 Y0.07533
X1.89467 Y0.07600
X1.89400 Y0.07600
X1.89400 Y0.07667
X1.89333 Y0.07667
X1.89333 Y0.07733
X1.89267 Y0.07733
X1.89267 Y0.07800
X1.89200 Y0.07800
X1.89200 Y0.07867
X1.89133 Y0.07867
X1.89133 Y0.07933
X1.89067 Y0.07933
X1.89067 Y0.08000
X1.89000 Y0.08000
X1.89000 Y0.08067
X1.88933 Y0.08067
X1.88933 Y0.08200
X1.88867 Y0.08200
X1.88867 Y0.08267
X1.88800 Y0.08267
X1.88800 Y0.08333
X1.88733 Y0.08333
X1.88733 Y0.08400
X1.88667 Y0.08400
X1.88667 Y0.08467
X1.88600 Y0.08467
X1.88600 Y0.08533
X1.88533 Y0.08533
X1.88533 Y0.08667
X1.88467 Y0.08667
X1.88467 Y0.08733
X1.88400 Y0.08733
X1.88400 Y0.08800
X1.88333 Y0.08800
X1.88333 Y0.08867
X1.88267 Y0.08867
X1.88267 Y0.08933
X1.88200 Y0.08933
X1.88200 Y0.09000
X1.88133 Y0.09000
X1.88133 Y0.09133
X1.88067 Y0.09133
X1.88067 Y0.09200
X1.88000 Y0.09200
X1.88000 Y0.09267
X1.87933 Y0.09267
X1.87933 Y0.09333
X1.87867 Y0.09333
X1.87867 Y0.09400
X1.87800 Y0.09400
X1.87800 Y0.09467
X1.87733 Y0.09467
X1.87733 Y0.09600
X1.87667 Y0.09600
X1.87667 Y0.09667
X1.87600 Y0.09667
X1.87600 Y0.09733
X1.87533 Y0.09733
X1.87533 Y0.09800
X1.87467 Y0.09800
X1.87467 Y0.09867
X1.87400 Y0.09867
X1.87400 Y0.09933
X1.87333 Y0.09933
X1.87333 Y0.10000
X1.87267 Y0.10000
X1.87267 Y0.10133
X1.87200 Y0.10133
X1.87200 Y0.10200
X1.87133 Y0.10200
X1.87133 Y0.10267
X1.87067 Y0.10267
X1.87067 Y0.10333
X1.87000 Y0.10333
X1.87000 Y0.10400
X1.86933 Y0.10400
X1.86933 Y0.10467
X1.86867 Y0.10467
X1.86867 Y0.10600
X1.86800 Y0.10600
X1.86800 Y0.10667
X1.86733 Y0.10667
X1.86733 Y0.10733
X1.86667 Y0.10733
X1.86667 Y0.10800
X1.86600 Y0.10800
X1.86600 Y0.10867
X1.86533 Y0.10867
X1.86533 Y0.10933
X1.86467 Y0.10933
X1.86467 Y0.11067
X1.86400 Y0.11067
X1.86400 Y0.11133
X1.86333 Y0.11133
X1.86333 Y0.11200
X1.86267 Y0.11200
X1.86267 Y0.11267
X1.86200 Y0.11267
X1.86200 Y0.11333
X1.86133 Y0.11333
X1.86133 Y0.11467
X1.86067 Y0.11467
X1.86067 Y0.11600
X1.86000 Y0.11600
X1.86000 Y0.11733
X1.85933 Y0.11733
X1.85933 Y0.11933
X1.85867 Y0.11933
X1.85867 Y0.12067
X1.85800 Y0.12067
X1.85800 Y0.12200
X1.85733 Y0.12200
X1.85733 Y0.12333
X1.85667 Y0.12333
X1.85667 Y0.12467
X1.85600 Y0.12467
X1.85600 Y0.12667
X1.85533 Y0.12667
X1.85533 Y0.12800
X1.85467 Y0.12800
X1.85467 Y0.12933
X1.85400 Y0.12933
X1.85400 Y0.13067
X1.85333 Y0.13067
X1.85333 Y0.13200
X1.85267 Y0.13200
X1.85267 Y0.13400
X1.85200 Y0.13400
X1.85200 Y0.13533
X1.85133 Y0.13533
X1.85133 Y0.13667
X1.85067 Y0.13667
X1.85067 Y0.13800
X1.85000 Y0.13800
X1.85000 Y0.13933
X1.84933 Y0.13933
X1.84933 Y0.14067
X1.84867 Y0.14067
X1.84867 Y0.14267
X1.84800 Y0.14267
X1.84800 Y0.14400
X1.84733 Y0.14400
X1.84733 Y0.14533
X1.84667 Y0.14533
X1.84667 Y0.14667
X1.84600 Y0.14667
X1.84600 Y0.14800
X1.84533 Y0.14800
X1.84533 Y0.15000
X1.84467 Y0.15000
X1.84467 Y0.15133
X1.84400 Y0.15133
X1.84400 Y0.15267
X1.84333 Y0.15267
X1.84333 Y0.15400
X1.84267 Y0.15400
X1.84267 Y0.15533
X1.84200 Y0.15533
X1.84200 Y0.15733
X1.84133 Y0.15733
X1.84133 Y0.15867
X1.84067 Y0.15867
X1.84067 Y0.16333
X1.84000 Y0.16333
X1.84000 Y0.16800
X1.83933 Y0.16800
X1.83933 Y0.17267
X1.83867 Y0.17267
X1.83867 Y0.17733
X1.83800 Y0.17733
X1.83800 Y0.18200
X1.83733 Y0.18200
X1.83733 Y0.18667
X1.83667 Y0.18667
X1.83667 Y0.19133
X1.83600 Y0.19133
X1.83600 Y0.19600
X1.83533 Y0.19600
X1.83533 Y0.20467
X1.83600 Y0.20467
X1.83600 Y0.20933
X1.83667 Y0.20933
X1.83667 Y0.21400
X1.83733 Y0.21400
X1.83733 Y0.21867
X1.83800 Y0.21867
X1.83800 Y0.22333
X1.83867 Y0.22333
X1.83867 Y0.22800
X1.83933 Y0.22800
X1.83933 Y0.23267
X1.84000 Y0.23267
X1.84000 Y0.23733
X1.84067 Y0.23733
X1.84067 Y0.24200
X1.84133 Y0.24200
X1.84133 Y0.24333
X1.84200 Y0.24333
X1.84200 Y0.24533
X1.84267 Y0.24533
X1.84267 Y0.24667
X1.84333 Y0.24667
X1.84333 Y0.24800
X1.84400 Y0.24800
X1.84400 Y0.24933
X1.84467 Y0.24933
X1.84467 Y0.25067
X1.84533 Y0.25067
X1.84533 Y0.25267
X1.84600 Y0.25267
X1.84600 Y0.25400
X1.84667 Y0.25400
X1.84667 Y0.25533
X1.84733 Y0.25533
X1.84733 Y0.25667
X1.84800 Y0.25667
X1.84800 Y0.25800
X1.84867 Y0.25800
X1.84867 Y0.26000
X1.84933 Y0.26000
X1.84933 Y0.26133
X1.85000 Y0.26133
X1.85000 Y0.26267
X1.85067 Y0.26267
X1.85067 Y0.26400
X1.85133 Y0.26400
X1.85133 Y0.26533
X1.85200 Y0.26533
X1.85200 Y0.26667
X1.85267 Y0.26667
X1.85267 Y0.26867
X1.85333 Y0.26867
X1.85333 Y0.27000
X1.85400 Y0.27000
X1.85400 Y0.27133
X1.85467 Y0.27133
X1.85467 Y0.27267
X1.85533 Y0.27267
X1.85533 Y0.27400
X1.85600 Y0.27400
X1.85600 Y0.27600
X1.85667 Y0.27600
X1.85667 Y0.27733
X1.85733 Y0.27733
X1.85733 Y0.27867
X1.85800 Y0.27867
X1.85800 Y0.28000
X1.85867 Y0.28000
X1.85867 Y0.28133
X1.85933 Y0.28133
X1.85933 Y0.28333
X1.86000 Y0.28333
X1.86000 Y0.28467
X1.86067 Y0.28467
X1.86067 Y0.28600
X1.86133 Y0.28600
X1.86133 Y0.28733
X1.86200 Y0.28733
X1.86200 Y0.28800
X1.86267 Y0.28800
X1.86267 Y0.28867
X1.86333 Y0.28867
X1.86333 Y0.28933
X1.86400 Y0.28933
X1.86400 Y0.29000
X1.86467 Y0.29000
X1.86467 Y0.29133
X1.86533 Y0.29133
X1.86533 Y0.29200
X1.86600 Y0.29200
X1.86600 Y0.29267
X1.86667 Y0.29267
X1.86667 Y0.29333
X1.86733 Y0.29333
X1.86733 Y0.29400
X1.86800 Y0.29400
X1.86800 Y0.29467
X1.86867 Y0.29467
X1.86867 Y0.29600
X1.86933 Y0.29600
X1.86933 Y0.29667
X1.87000 Y0.29667
X1.87000 Y0.29733
X1.87067 Y0.29733
X1.87067 Y0.29800
X1.87133 Y0.29800
X1.87133 Y0.29867
X1.87200 Y0.29867
X1.87200 Y0.29933
X1.87267 Y0.29933
X1.87267 Y0.30067
X1.87333 Y0.30067
X1.87333 Y0.30133
X1.87400 Y0.30133
X1.87400 Y0.30200
X1.87467 Y0.30200
X1.87467 Y0.30267
X1.87533 Y0.30267
X1.87533 Y0.30333
X1.87600 Y0.30333
X1.87600 Y0.30400
X1.87667 Y0.30400
X1.87667 Y0.30467
X1.87733 Y0.30467
X1.87733 Y0.30533
X1.87800 Y0.30533
X1.87800 Y0.30667
X1.87867 Y0.30667
X1.87867 Y0.30733
X1.87933 Y0.30733
X1.87933 Y0.30800
X1.88000 Y0.30800
X1.88000 Y0.30867
X1.88067 Y0.30867
X1.88067 Y0.30933
X1.88133 Y0.30933
X1.88133 Y0.31067
X1.88200 Y0.31067
X1.88200 Y0.31133
X1.88267 Y0.31133
X1.88267 Y0.31200
X1.88333 Y0.31200
X1.88333 Y0.31267
X1.88400 Y0.31267
X1.88400 Y0.31333
X1.88467 Y0.31333
X1.88467 Y0.31400
X1.88533 Y0.31400
X1.88533 Y0.31533
X1.88600 Y0.31533
X1.88600 Y0.31600
X1.88667 Y0.31600
X1.88667 Y0.31667
X1.88733 Y0.31667
X1.88733 Y0.31733
X1.88800 Y0.31733
X1.88800 Y0.31800
X1.88867 Y0.31800
X1.88867 Y0.31867
X1.88933 Y0.31867
X1.88933 Y0.32000
X1.89000 Y0.32000
X1.89000 Y0.32067
X1.89067 Y0.32067
X1.89067 Y0.32133
X1.89133 Y0.32133
X1.89133 Y0.32200
X1.89200 Y0.32200
X1.89200 Y0.32267
X1.89267 Y0.32267
X1.89267 Y0.32333
X1.89333 Y0.32333
X1.89333 Y0.32400
X1.89400 Y0.32400
X1.89400 Y0.32467
X1.89533 Y0.32467
X1.89533 Y0.32533
X1.89600 Y0.32533
X1.89600 Y0.32600
X1.89733 Y0.32600
X1.89733 Y0.32667
X1.89800 Y0.32667
X1.89800 Y0.32733
X1.89933 Y0.32733
X1.89933 Y0.32800
X1.90067 Y0.32800
X1.90067 Y0.32867
X1.90133 Y0.32867
X1.90133 Y0.32933
X1.90267 Y0.32933
X1.90267 Y0.33000
X1.90333 Y0.33000
X1.90333 Y0.33067
X1.90467 Y0.33067
X1.90467 Y0.33133
X1.90533 Y0.33133
X1.90533 Y0.33200
X1.90667 Y0.33200
X1.90667 Y0.33267
X1.90800 Y0.33267
X1.90800 Y0.33333
X1.90867 Y0.33333
X1.90867 Y0.33400
X1.91000 Y0.33400
X1.91000 Y0.33467
X1.91067 Y0.33467
X1.91067 Y0.33533
X1.91200 Y0.33533
X1.91200 Y0.33600
X1.91333 Y0.33600
X1.91333 Y0.33667
X1.91400 Y0.33667
X1.91400 Y0.33733
X1.91533 Y0.33733
X1.91533 Y0.33800
X1.91600 Y0.33800
X1.91600 Y0.33867
X1.91733 Y0.33867
X1.91733 Y0.33933
X1.91800 Y0.33933
X1.91800 Y0.34000
X1.91933 Y0.34000
X1.91933 Y0.34067
X1.92067 Y0.34067
X1.92067 Y0.34133
X1.92133 Y0.34133
X1.92133 Y0.34200
X1.92267 Y0.34200
X1.92267 Y0.34267
X1.92333 Y0.34267
X1.92333 Y0.34333
X1.92467 Y0.34333
X1.92467 Y0.34400
X1.92600 Y0.34400
X1.92600 Y0.34467
X1.92667 Y0.34467
X1.92667 Y0.34533
X1.92800 Y0.34533
X1.92800 Y0.34600
X1.92867 Y0.34600
X1.92867 Y0.34667
X1.93000 Y0.34667
X1.93000 Y0.34733
X1.93133 Y0.34733
X1.93133 Y0.34800
X1.93200 Y0.34800
X1.93200 Y0.34867
X1.93333 Y0.34867
X1.93333 Y0.34933
X1.93400 Y0.34933
X1.93400 Y0.35000
X1.93600 Y0.35000
X1.93600 Y0.35067
X1.93800 Y0.35067
X1.93800 Y0.35133
X1.94067 Y0.35133
X1.94067 Y0.35200
X1.94267 Y0.35200
X1.94267 Y0.35267
X1.94467 Y0.35267
X1.94467 Y0.35333
X1.94733 Y0.35333
X1.94733 Y0.35400
X1.94933 Y0.35400
X1.94933 Y0.35467
X1.95133 Y0.35467
X1.95133 Y0.35533
X1.95400 Y0.35533
X1.95400 Y0.35600
X1.95600 Y0.35600
X1.95600 Y0.35667
X1.95800 Y0.35667
X1.95800 Y0.35733
X1.96067 Y0.35733
X1.96067 Y0.35800
X1.96267 Y0.35800
X1.96267 Y0.35867
X1.96533 Y0.35867
X1.96533 Y0.35933
X1.96733 Y0.35933
X1.96733 Y0.36000
X1.96933 Y0.36000
X1.96933 Y0.36067
X1.97200 Y0.36067
X1.97200 Y0.36133
X1.97400 Y0.36133
X1.97400 Y0.36200
X1.97600 Y0.36200
X1.97600 Y0.36267
X1.97867 Y0.36267
X1.97867 Y0.36333
X1.98067 Y0.36333
X1.98067 Y0.36400
X2.01933 Y0.36400
X2.01933 Y0.36333
X2.02133 Y0.36333
X2.02133 Y0.36267
X2.02400 Y0.36267
X2.02400 Y0.36200
X2.02600 Y0.36200
X2.02600 Y0.36133
X2.02800 Y0.36133
X2.02800 Y0.36067
X2.03000 Y0.36067
X2.03000 Y0.36000
X2.03267 Y0.36000
X2.03267 Y0.35933
X2.03467 Y0.35933
X2.03467 Y0.35867
X2.03667 Y0.35867
X2.03667 Y0.35800
X2.03933 Y0.35800
X2.03933 Y0.35733
X2.04133 Y0.35733
X2.04133 Y0.35667
X2.04333 Y0.35667
X2.04333 Y0.35600
X2.04600 Y0.35600
X2.04600 Y0.35533
X2.04800 Y0.35533
X2.04800 Y0.35467
X2.05000 Y0.35467
X2.05000 Y0.35400
X2.05267 Y0.35400
X2.05267 Y0.35333
X2.05467 Y0.35333
X2.05467 Y0.35267
X2.05667 Y0.35267
X2.05667 Y0.35200
X2.05933 Y0.35200
X2.05933 Y0.35133
X2.06133 Y0.35133
X2.06133 Y0.35067
X2.06333 Y0.35067
X2.06333 Y0.35000
X2.06533 Y0.35000
X2.06533 Y0.34933
X2.06600 Y0.34933
X2.06600 Y0.34867
X2.06733 Y0.34867
X2.06733 Y0.34800
X2.06800 Y0.34800
X2.06800 Y0.34733
X2.06933 Y0.34733
X2.06933 Y0.34667
X2.07067 Y0.34667
X2.07067 Y0.34600
X2.07133 Y0.34600
X2.07133 Y0.34533
X2.07267 Y0.34533
X2.07267 Y0.34467
X2.07333 Y0.34467
X2.07333 Y0.34400
X2.07467 Y0.34400
X2.07467 Y0.34333
X2.07600 Y0.34333
X2.07600 Y0.34267
X2.07667 Y0.34267
X2.07667 Y0.34200
X2.07800 Y0.34200
X2.07800 Y0.34133
X2.07867 Y0.34133
X2.07867 Y0.34067
X2.08000 Y0.34067
X2.08000 Y0.34000
X2.08133 Y0.34000
X2.08133 Y0.33933
X2.08200 Y0.33933
X2.08200 Y0.33867
X2.08333 Y0.33867
X2.08333 Y0.33800
X2.08400 Y0.33800
X2.08400 Y0.33733
X2.08533 Y0.33733
X2.08533 Y0.33667
X2.08600 Y0.33667
X2.08600 Y0.33600
X2.08733 Y0.33600
X2.08733 Y0.33533
X2.08867 Y0.33533
X2.08867 Y0.33467
X2.08933 Y0.33467
X2.08933 Y0.33400
X2.09067 Y0.33400
X2.09067 Y0.33333
X2.09133 Y0.33333
X2.09133 Y0.33267
X2.09267 Y0.33267
X2.09267 Y0.33200
X2.09400 Y0.33200
X2.09400 Y0.33133
X2.09467 Y0.33133
X2.09467 Y0.33067
X2.09600 Y0.33067
X2.09600 Y0.33000
X2.09667 Y0.33000
X2.09667 Y0.32933
X2.09800 Y0.32933
X2.09800 Y0.32867
X2.09867 Y0.32867
X2.09867 Y0.32800
X2.10000 Y0.32800
X2.10000 Y0.32733
X2.10133 Y0.32733
X2.10133 Y0.32667
X2.10200 Y0.32667
X2.10200 Y0.32600
X2.10333 Y0.32600
X2.10333 Y0.32533
X2.10400 Y0.32533
X2.10400 Y0.32467
X2.10533 Y0.32467
X2.10533 Y0.32400
X2.10600 Y0.32400
X2.10600 Y0.32333
X2.10667 Y0.32333
X2.10667 Y0.32267
X2.10733 Y0.32267
X2.10733 Y0.32200
X2.10800 Y0.32200
X2.10800 Y0.32133
X2.10867 Y0.32133
X2.10867 Y0.32067
X2.10933 Y0.32067
X2.10933 Y0.32000
X2.11000 Y0.32000
X2.11000 Y0.31867
X2.11067 Y0.31867
X2.11067 Y0.31800
X2.11133 Y0.31800
X2.11133 Y0.31733
X2.11200 Y0.31733
X2.11200 Y0.31667
X2.11267 Y0.31667
X2.11267 Y0.31600
X2.11333 Y0.31600
X2.11333 Y0.31533
X2.11400 Y0.31533
X2.11400 Y0.31400
X2.11467 Y0.31400
X2.11467 Y0.31333
X2.11533 Y0.31333
X2.11533 Y0.31267
X2.11600 Y0.31267
X2.11600 Y0.31200
X2.11667 Y0.31200
X2.11667 Y0.31133
X2.11733 Y0.31133
X2.11733 Y0.31067
X2.11800 Y0.31067
X2.11800 Y0.30933
X2.11867 Y0.30933
X2.11867 Y0.30867
X2.11933 Y0.30867
X2.11933 Y0.30800
X2.12000 Y0.30800
X2.12000 Y0.30733
X2.12067 Y0.30733
X2.12067 Y0.30667
X2.12133 Y0.30667
X2.12133 Y0.30600
X2.12200 Y0.30600
X2.12200 Y0.30467
X2.12267 Y0.30467
X2.12267 Y0.30400
X2.12333 Y0.30400
X2.12333 Y0.30333
X2.12400 Y0.30333
X2.12400 Y0.30267
X2.12467 Y0.30267
X2.12467 Y0.30200
X2.12533 Y0.30200
X2.12533 Y0.30133
X2.12600 Y0.30133
X2.12600 Y0.30067
X2.12667 Y0.30067
X2.12667 Y0.29933
X2.12733 Y0.29933
X2.12733 Y0.29867
X2.12800 Y0.29867
X2.12800 Y0.29800
X2.12867 Y0.29800
X2.12867 Y0.29733
X2.12933 Y0.29733
X2.12933 Y0.29667
X2.13000 Y0.29667
X2.13000 Y0.29600
X2.13067 Y0.29600
X2.13067 Y0.29467
X2.13133 Y0.29467
X2.13133 Y0.29400
X2.13200 Y0.29400
X2.13200 Y0.29333
X2.13267 Y0.29333
X2.13267 Y0.29267
X2.13333 Y0.29267
X2.13333 Y0.29200
X2.13400 Y0.29200
X2.13400 Y0.29133
X2.13467 Y0.29133
X2.13467 Y0.29000
X2.13533 Y0.29000
X2.13533 Y0.28933
X2.13600 Y0.28933
X2.13600 Y0.28867
X2.13667 Y0.28867
X2.13667 Y0.28800
X2.13733 Y0.28800
X2.13733 Y0.28733
X2.13800 Y0.28733
X2.13800 Y0.28667
X2.13867 Y0.28667
X2.13867 Y0.28600
X2.13933 Y0.28600
X2.13933 Y0.28533
X2.14067 Y0.28533
X2.14067 Y0.28467
X2.14200 Y0.28467
X2.14200 Y0.28400
X2.14400 Y0.28400
X2.14400 Y0.28333
X2.15800 Y0.28333
X2.15800 Y0.28400
X2.16000 Y0.28400
X2.16000 Y0.28467
X2.16133 Y0.28467
X2.16133 Y0.28533
X2.16267 Y0.28533
X2.16267 Y0.28600
X2.16333 Y0.28600
X2.16333 Y0.28733
X2.16400 Y0.28733
X2.16400 Y0.28867
X2.16467 Y0.28867
X2.16467 Y0.29067
X2.16533 Y0.29067
X2.16533 Y2.90800
X2.16467 Y2.90800
X2.16467 Y2.91000
X2.16400 Y2.91000
X2.16400 Y2.91133
X2.16333 Y2.91133
X2.16333 Y2.91267
X2.16267 Y2.91267
X2.16267 Y2.91333
X2.16133 Y2.91333
X2.16133 Y2.91400
X2.16000 Y2.91400
X2.16000 Y2.91467
X2.15800 Y2.91467
X2.15800 Y2.91533
X0.04200 Y2.91533
X0.04200 Y2.91467
X0.04000 Y2.91467
X0.04000 Y2.91400
X0.03867 Y2.91400
X0.03867 Y2.91333
X0.03733 Y2.91333
X0.03733 Y2.91267
X0.03667 Y2.91267
X0.03667 Y2.91133
X0.03600 Y2.91133
X0.03600 Y2.91000
X0.03533 Y2.91000
X0.03533 Y2.90867
G04 P0 ( dwell for no time -- G64 should not smooth over this point )
G00 Z0.08000 ( retract )

G00 X2.07200 Y2.85533 ( rapid move to begin. )
G01 Z-0.00800 F6.00000 ( plunge. )
G04 P0 ( dwell for no time -- G64 should not smooth over this point )
X2.07200 Y2.85533
X2.07133 Y2.85533
X2.07133 Y2.85467
X2.07067 Y2.85467
X2.07067 Y2.85400
X2.07000 Y2.85400
X2.07000 Y2.85333
X2.06933 Y2.85333
X2.06933 Y2.85133
X2.06867 Y2.85133
X2.06867 Y2.85000
X2.06800 Y2.85000
X2.06800 Y2.82400
X2.06867 Y2.82400
X2.06867 Y2.82267
X2.06933 Y2.82267
X2.06933 Y2.82133
X2.07000 Y2.82133
X2.07000 Y2.81867
X2.07067 Y2.81867
X2.07067 Y2.80800
X2.07133 Y2.80800
X2.07133 Y2.80400
X2.07200 Y2.80400
X2.07200 Y2.80200
X2.07267 Y2.80200
X2.07267 Y2.80000
X2.07333 Y2.80000
X2.07333 Y2.79800
X2.07400 Y2.79800
X2.07400 Y2.79733
X2.07467 Y2.79733
X2.07467 Y2.79667
X2.07533 Y2.79667
X2.07533 Y2.79600
X2.07600 Y2.79600
X2.07600 Y2.79533
X2.07667 Y2.79533
X2.07667 Y2.79467
X2.07867 Y2.79467
X2.07867 Y2.79400
X2.08000 Y2.79400
X2.08000 Y2.79333
X2.11000 Y2.79333
X2.11000 Y2.79400
X2.11133 Y2.79400
X2.11133 Y2.79467
X2.11333 Y2.79467
X2.11333 Y2.79533
X2.11400 Y2.79533
X2.11400 Y2.79600
X2.11467 Y2.79600
X2.11467 Y2.79667
X2.11533 Y2.79667
X2.11533 Y2.79733
X2.11600 Y2.79733
X2.11600 Y2.79800
X2.11667 Y2.79800
X2.11667 Y2.79867
X2.11733 Y2.79867
X2.11733 Y2.79933
X2.11800 Y2.79933
X2.11800 Y2.80000
X2.11867 Y2.80000
X2.11867 Y2.80067
X2.11933 Y2.80067
X2.11933 Y2.80133
X2.12000 Y2.80133
X2.12000 Y2.80200
X2.12067 Y2.80200
X2.12067 Y2.80400
X2.12133 Y2.80400
X2.12133 Y2.80533
X2.12200 Y2.80533
X2.12200 Y2.85000
X2.12133 Y2.85000
X2.12133 Y2.85133
X2.12067 Y2.85133
X2.12067 Y2.85333
X2.12000 Y2.85333
X2.12000 Y2.85400
X2.11933 Y2.85400
X2.11933 Y2.85467
X2.11867 Y2.85467
X2.11867 Y2.85533
X2.11800 Y2.85533
X2.11800 Y2.85600
X2.11733 Y2.85600
X2.11733 Y2.85667
X2.11667 Y2.85667
X2.11667 Y2.85733
X2.11600 Y2.85733
X2.11600 Y2.85800
X2.11533 Y2.85800
X2.11533 Y2.85867
X2.11467 Y2.85867
X2.11467 Y2.85933
X2.11400 Y2.85933
X2.11400 Y2.86000
X2.11333 Y2.86000
X2.11333 Y2.86067
X2.11133 Y2.86067
X2.11133 Y2.86133
X2.11000 Y2.86133
X2.11000 Y2.86200
X2.08000 Y2.86200
X2.08000 Y2.86133
X2.07867 Y2.86133
X2.07867 Y2.86067
X2.07667 Y2.86067
X2.07667 Y2.86000
X2.07600 Y2.86000
X2.07600 Y2.85933
X2.07533 Y2.85933
X2.07533 Y2.85867
X2.07467 Y2.85867
X2.07467 Y2.85800
X2.07400 Y2.85800
X2.07400 Y2.85733
X2.07333 Y2.85733
X2.07333 Y2.85667
X2.07267 Y2.85667
X2.07267 Y2.85600
X2.07200 Y2.85600
X2.07200 Y2.85533
G04 P0 ( dwell for no time -- G64 should not smooth over this point )
G00 Z0.08000 ( retract )

G00 X1.99467 Y2.85533 ( rapid move to begin. )
G01 Z-0.00800 F6.00000 ( plunge. )
G04 P0 ( dwell for no time -- G64 should not smooth over this point )
X1.99467 Y2.85533
X1.99400 Y2.85533
X1.99400 Y2.85467
X1.99333 Y2.85467
X1.99333 Y2.85400
X1.99267 Y2.85400
X1.99267 Y2.85333
X1.99200 Y2.85333
X1.99200 Y2.85133
X1.99133 Y2.85133
X1.99133 Y2.85000
X1.99067 Y2.85000
X1.99067 Y2.83533
X1.99133 Y2.83533
X1.99133 Y2.83400
X1.99200 Y2.83400
X1.99200 Y2.83200
X1.99400 Y2.83200
X1.99400 Y2.83133
X1.99533 Y2.83133
X1.99533 Y2.83067
X2.00667 Y2.83067
X2.00667 Y2.83000
X2.00600 Y2.83000
X2.00600 Y2.82933
X2.00533 Y2.82933
X2.00533 Y2.82867
X2.00467 Y2.82867
X2.00467 Y2.82800
X2.00400 Y2.82800
X2.00400 Y2.82733
X2.00333 Y2.82733
X2.00333 Y2.82667
X2.00267 Y2.82667
X2.00267 Y2.82600
X2.00200 Y2.82600
X2.00200 Y2.82533
X2.00133 Y2.82533
X2.00133 Y2.82467
X2.00067 Y2.82467
X2.00067 Y2.82400
X2.00000 Y2.82400
X2.00000 Y2.82333
X1.99933 Y2.82333
X1.99933 Y2.82267
X1.99867 Y2.82267
X1.99867 Y2.82200
X1.99800 Y2.82200
X1.99800 Y2.82133
X1.99733 Y2.82133
X1.99733 Y2.82067
X1.99667 Y2.82067
X1.99667 Y2.82000
X1.99600 Y2.82000
X1.99600 Y2.81933
X1.99533 Y2.81933
X1.99533 Y2.81867
X1.99467 Y2.81867
X1.99467 Y2.81800
X1.99400 Y2.81800
X1.99400 Y2.81733
X1.99333 Y2.81733
X1.99333 Y2.81667
X1.99267 Y2.81667
X1.99267 Y2.81600
X1.99200 Y2.81600
X1.99200 Y2.81400
X1.99133 Y2.81400
X1.99133 Y2.81267
X1.99067 Y2.81267
X1.99067 Y2.79800
X1.99133 Y2.79800
X1.99133 Y2.79667
X1.99200 Y2.79667
X1.99200 Y2.79467
X1.99400 Y2.79467
X1.99400 Y2.79400
X1.99533 Y2.79400
X1.99533 Y2.79333
X2.04000 Y2.79333
X2.04000 Y2.79400
X2.04133 Y2.79400
X2.04133 Y2.79467
X2.04333 Y2.79467
X2.04333 Y2.81333
X2.04267 Y2.81333
X2.04267 Y2.81600
X2.04133 Y2.81600
X2.04133 Y2.81667
X2.04000 Y2.81667
X2.04000 Y2.81733
X2.03600 Y2.81733
X2.03600 Y2.81800
X2.03667 Y2.81800
X2.03667 Y2.81867
X2.03733 Y2.81867
X2.03733 Y2.81933
X2.03800 Y2.81933
X2.03800 Y2.82000
X2.03867 Y2.82000
X2.03867 Y2.82067
X2.03933 Y2.82067
X2.03933 Y2.82133
X2.04000 Y2.82133
X2.04000 Y2.82200
X2.04067 Y2.82200
X2.04067 Y2.82267
X2.04133 Y2.82267
X2.04133 Y2.82333
X2.04200 Y2.82333
X2.04200 Y2.82400
X2.04267 Y2.82400
X2.04267 Y2.82467
X2.04333 Y2.82467
X2.04333 Y2.82667
X2.04400 Y2.82667
X2.04400 Y2.82800
X2.04467 Y2.82800
X2.04467 Y2.85000
X2.04400 Y2.85000
X2.04400 Y2.85133
X2.04333 Y2.85133
X2.04333 Y2.85333
X2.04267 Y2.85333
X2.04267 Y2.85400
X2.04200 Y2.85400
X2.04200 Y2.85467
X2.04133 Y2.85467
X2.04133 Y2.85533
X2.04067 Y2.85533
X2.04067 Y2.85600
X2.04000 Y2.85600
X2.04000 Y2.85667
X2.03933 Y2.85667
X2.03933 Y2.85733
X2.03867 Y2.85733
X2.03867 Y2.85800
X2.03800 Y2.85800
X2.03800 Y2.85867
X2.03733 Y2.85867
X2.03733 Y2.85933
X2.03667 Y2.85933
X2.03667 Y2.86000
X2.03600 Y2.86000
X2.03600 Y2.86067
X2.03400 Y2.86067
X2.03400 Y2.86133
X2.03267 Y2.86133
X2.03267 Y2.86200
X2.00267 Y2.86200
X2.00267 Y2.86133
X2.00133 Y2.86133
X2.00133 Y2.86067
X1.99933 Y2.86067
X1.99933 Y2.86000
X1.99867 Y2.86000
X1.99867 Y2.85933
X1.99800 Y2.85933
X1.99800 Y2.85867
X1.99733 Y2.85867
X1.99733 Y2.85800
X1.99667 Y2.85800
X1.99667 Y2.85733
X1.99600 Y2.85733
X1.99600 Y2.85667
X1.99467 Y2.85667
X1.99467 Y2.85533
G04 P0 ( dwell for no time -- G64 should not smooth over this point )
G00 Z0.08000 ( retract )

G00 X0.86867 Y2.85533 ( rapid move to begin. )
G01 Z-0.00800 F6.00000 ( plunge. )
G04 P0 ( dwell for no time -- G64 should not smooth over this point )
X0.86867 Y2.85533
X0.86800 Y2.85533
X0.86800 Y2.85467
X0.86733 Y2.85467
X0.86733 Y2.85400
X0.86667 Y2.85400
X0.86667 Y2.85333
X0.86600 Y2.85333
X0.86600 Y2.85267
X0.86533 Y2.85267
X0.86533 Y2.85200
X0.86467 Y2.85200
X0.86467 Y2.85133
X0.86400 Y2.85133
X0.86400 Y2.85067
X0.86333 Y2.85067
X0.86333 Y2.85000
X0.86267 Y2.85000
X0.86267 Y2.84933
X0.86200 Y2.84933
X0.86200 Y2.84867
X0.86133 Y2.84867
X0.86133 Y2.84800
X0.86067 Y2.84800
X0.86067 Y2.84733
X0.86000 Y2.84733
X0.86000 Y2.84667
X0.85933 Y2.84667
X0.85933 Y2.84600
X0.85867 Y2.84600
X0.85867 Y2.84533
X0.85800 Y2.84533
X0.85800 Y2.84467
X0.85733 Y2.84467
X0.85733 Y2.84400
X0.85667 Y2.84400
X0.85667 Y2.84333
X0.85600 Y2.84333
X0.85600 Y2.84267
X0.85533 Y2.84267
X0.85533 Y2.84200
X0.85467 Y2.84200
X0.85467 Y2.84133
X0.85400 Y2.84133
X0.85400 Y2.84067
X0.85333 Y2.84067
X0.85333 Y2.84000
X0.85267 Y2.84000
X0.85267 Y2.83933
X0.85200 Y2.83933
X0.85200 Y2.83867
X0.85067 Y2.83867
X0.85067 Y2.83667
X0.85000 Y2.83667
X0.85000 Y2.83533
X0.84933 Y2.83533
X0.84933 Y2.82067
X0.85000 Y2.82067
X0.85000 Y2.81933
X0.85067 Y2.81933
X0.85067 Y2.81733
X0.85267 Y2.81733
X0.85267 Y2.81667
X0.85400 Y2.81667
X0.85400 Y2.81600
X0.87200 Y2.81600
X0.87200 Y2.79800
X0.87267 Y2.79800
X0.87267 Y2.79667
X0.87333 Y2.79667
X0.87333 Y2.79467
X0.87533 Y2.79467
X0.87533 Y2.79400
X0.87667 Y2.79400
X0.87667 Y2.79333
X0.89133 Y2.79333
X0.89133 Y2.79400
X0.89267 Y2.79400
X0.89267 Y2.79467
X0.89467 Y2.79467
X0.89467 Y2.79667
X0.89533 Y2.79667
X0.89533 Y2.79800
X0.89600 Y2.79800
X0.89600 Y2.81600
X0.89867 Y2.81600
X0.89867 Y2.81667
X0.90000 Y2.81667
X0.90000 Y2.81733
X0.90200 Y2.81733
X0.90200 Y2.81933
X0.90267 Y2.81933
X0.90267 Y2.82067
X0.90333 Y2.82067
X0.90333 Y2.83533
X0.90267 Y2.83533
X0.90267 Y2.83667
X0.90200 Y2.83667
X0.90200 Y2.83867
X0.90000 Y2.83867
X0.90000 Y2.83933
X0.89867 Y2.83933
X0.89867 Y2.84000
X0.89600 Y2.84000
X0.89600 Y2.85733
X0.89533 Y2.85733
X0.89533 Y2.85867
X0.89467 Y2.85867
X0.89467 Y2.86067
X0.89267 Y2.86067
X0.89267 Y2.86133
X0.89133 Y2.86133
X0.89133 Y2.86200
X0.87667 Y2.86200
X0.87667 Y2.86133
X0.87533 Y2.86133
X0.87533 Y2.86067
X0.87333 Y2.86067
X0.87333 Y2.86000
X0.87267 Y2.86000
X0.87267 Y2.85933
X0.87200 Y2.85933
X0.87200 Y2.85867
X0.87133 Y2.85867
X0.87133 Y2.85800
X0.87067 Y2.85800
X0.87067 Y2.85733
X0.87000 Y2.85733
X0.87000 Y2.85667
X0.86933 Y2.85667
X0.86933 Y2.85600
X0.86867 Y2.85600
X0.86867 Y2.85533
G04 P0 ( dwell for no time -- G64 should not smooth over this point )
G00 Z0.08000 ( retract )

G00 X0.80933 Y2.85533 ( rapid move to begin. )
G01 Z-0.00800 F6.00000 ( plunge. )
G04 P0 ( dwell for no time -- G64 should not smooth over this point )
X0.80933 Y2.85533
X0.80867 Y2.85533
X0.80867 Y2.85467
X0.80800 Y2.85467
X0.80800 Y2.85400
X0.80733 Y2.85400
X0.80733 Y2.85333
X0.80667 Y2.85333
X0.80667 Y2.85267
X0.80600 Y2.85267
X0.80600 Y2.85200
X0.80533 Y2.85200
X0.80533 Y2.85133
X0.80467 Y2.85133
X0.80467 Y2.85067
X0.80400 Y2.85067
X0.80400 Y2.85000
X0.80333 Y2.85000
X0.80333 Y2.84933
X0.80267 Y2.84933
X0.80267 Y2.84867
X0.80200 Y2.84867
X0.80200 Y2.84800
X0.80133 Y2.84800
X0.80133 Y2.84733
X0.80067 Y2.84733
X0.80067 Y2.84667
X0.80000 Y2.84667
X0.80000 Y2.84600
X0.79933 Y2.84600
X0.79933 Y2.84333
X0.79867 Y2.84333
X0.79867 Y2.84133
X0.79800 Y2.84133
X0.79800 Y2.82800
X0.79867 Y2.82800
X0.79867 Y2.82667
X0.79933 Y2.82667
X0.79933 Y2.82467
X0.80133 Y2.82467
X0.80133 Y2.82400
X0.80267 Y2.82400
X0.80267 Y2.82333
X0.81267 Y2.82333
X0.81267 Y2.81733
X0.80267 Y2.81733
X0.80267 Y2.81667
X0.80133 Y2.81667
X0.80133 Y2.81600
X0.79933 Y2.81600
X0.79933 Y2.81400
X0.79867 Y2.81400
X0.79867 Y2.81267
X0.79800 Y2.81267
X0.79800 Y2.79800
X0.79867 Y2.79800
X0.79867 Y2.79667
X0.79933 Y2.79667
X0.79933 Y2.79467
X0.80133 Y2.79467
X0.80133 Y2.79400
X0.80267 Y2.79400
X0.80267 Y2.79333
X0.84733 Y2.79333
X0.84733 Y2.79400
X0.84867 Y2.79400
X0.84867 Y2.79467
X0.85067 Y2.79467
X0.85067 Y2.79667
X0.85133 Y2.79667
X0.85133 Y2.79800
X0.85200 Y2.79800
X0.85200 Y2.81267
X0.85133 Y2.81267
X0.85133 Y2.81400
X0.85067 Y2.81400
X0.85067 Y2.81600
X0.84867 Y2.81600
X0.84867 Y2.81667
X0.84733 Y2.81667
X0.84733 Y2.81733
X0.83667 Y2.81733
X0.83667 Y2.85733
X0.83600 Y2.85733
X0.83600 Y2.85867
X0.83533 Y2.85867
X0.83533 Y2.86067
X0.83333 Y2.86067
X0.83333 Y2.86133
X0.83200 Y2.86133
X0.83200 Y2.86200
X0.81733 Y2.86200
X0.81733 Y2.86133
X0.81600 Y2.86133
X0.81600 Y2.86067
X0.81400 Y2.86067
X0.81400 Y2.86000
X0.81333 Y2.86000
X0.81333 Y2.85933
X0.81267 Y2.85933
X0.81267 Y2.85867
X0.81200 Y2.85867
X0.81200 Y2.85800
X0.81133 Y2.85800
X0.81133 Y2.85733
X0.81067 Y2.85733
X0.81067 Y2.85667
X0.81000 Y2.85667
X0.81000 Y2.85600
X0.80933 Y2.85600
X0.80933 Y2.85533
G04 P0 ( dwell for no time -- G64 should not smooth over this point )
G00 Z0.08000 ( retract )

G00 X0.77467 Y2.85533 ( rapid move to begin. )
G01 Z-0.00800 F6.00000 ( plunge. )
G04 P0 ( dwell for no time -- G64 should not smooth over this point )
X0.77467 Y2.85533
X0.77400 Y2.85533
X0.77400 Y2.85467
X0.77333 Y2.85467
X0.77333 Y2.85333
X0.77267 Y2.85333
X0.77267 Y2.85267
X0.77200 Y2.85267
X0.77200 Y2.85133
X0.77133 Y2.85133
X0.77133 Y2.85067
X0.77067 Y2.85067
X0.77067 Y2.84933
X0.77000 Y2.84933
X0.77000 Y2.84867
X0.76933 Y2.84867
X0.76933 Y2.84733
X0.76867 Y2.84733
X0.76867 Y2.84667
X0.76800 Y2.84667
X0.76800 Y2.84533
X0.76733 Y2.84533
X0.76733 Y2.84467
X0.76667 Y2.84467
X0.76667 Y2.84333
X0.76600 Y2.84333
X0.76600 Y2.84267
X0.76533 Y2.84267
X0.76533 Y2.84200
X0.76467 Y2.84200
X0.76467 Y2.84067
X0.76400 Y2.84067
X0.76400 Y2.84000
X0.76333 Y2.84000
X0.76333 Y2.83867
X0.76267 Y2.83867
X0.76267 Y2.83800
X0.76200 Y2.83800
X0.76200 Y2.83667
X0.76133 Y2.83667
X0.76133 Y2.83600
X0.76067 Y2.83600
X0.76067 Y2.83467
X0.76000 Y2.83467
X0.76000 Y2.83400
X0.75933 Y2.83400
X0.75933 Y2.83267
X0.75867 Y2.83267
X0.75867 Y2.83200
X0.75800 Y2.83200
X0.75800 Y2.83067
X0.75733 Y2.83067
X0.75733 Y2.83000
X0.75667 Y2.83000
X0.75667 Y2.82867
X0.75600 Y2.82867
X0.75600 Y2.82800
X0.75533 Y2.82800
X0.75533 Y2.82667
X0.75467 Y2.82667
X0.75467 Y2.82600
X0.75400 Y2.82600
X0.75400 Y2.82467
X0.75333 Y2.82467
X0.75333 Y2.82400
X0.75267 Y2.82400
X0.75267 Y2.82267
X0.75200 Y2.82267
X0.75200 Y2.82200
X0.75133 Y2.82200
X0.75133 Y2.82067
X0.75067 Y2.82067
X0.75067 Y2.82000
X0.75000 Y2.82000
X0.75000 Y2.81867
X0.74933 Y2.81867
X0.74933 Y2.81800
X0.74867 Y2.81800
X0.74867 Y2.81667
X0.74800 Y2.81667
X0.74800 Y2.81400
X0.74733 Y2.81400
X0.74733 Y2.80667
X0.74667 Y2.80667
X0.74667 Y2.80267
X0.74600 Y2.80267
X0.74600 Y2.79800
X0.74667 Y2.79800
X0.74667 Y2.79667
X0.74733 Y2.79667
X0.74733 Y2.79467
X0.74933 Y2.79467
X0.74933 Y2.79400
X0.75067 Y2.79400
X0.75067 Y2.79333
X0.76467 Y2.79333
X0.76467 Y2.79400
X0.76600 Y2.79400
X0.76600 Y2.79467
X0.76733 Y2.79467
X0.76733 Y2.79533
X0.76867 Y2.79533
X0.76867 Y2.79600
X0.76933 Y2.79600
X0.76933 Y2.79667
X0.77000 Y2.79667
X0.77000 Y2.79800
X0.77067 Y2.79800
X0.77067 Y2.79867
X0.77133 Y2.79867
X0.77133 Y2.80000
X0.77200 Y2.80000
X0.77200 Y2.80067
X0.77267 Y2.80067
X0.77267 Y2.80200
X0.77333 Y2.80200
X0.77333 Y2.80267
X0.77400 Y2.80267
X0.77400 Y2.80400
X0.77467 Y2.80400
X0.77467 Y2.80467
X0.77533 Y2.80467
X0.77533 Y2.80600
X0.77600 Y2.80600
X0.77600 Y2.80667
X0.77667 Y2.80667
X0.77667 Y2.80800
X0.77733 Y2.80800
X0.77733 Y2.80867
X0.77800 Y2.80867
X0.77800 Y2.81000
X0.77867 Y2.81000
X0.77867 Y2.81067
X0.77933 Y2.81067
X0.77933 Y2.81200
X0.78000 Y2.81200
X0.78000 Y2.81267
X0.78067 Y2.81267
X0.78067 Y2.81333
X0.78133 Y2.81333
X0.78133 Y2.81467
X0.78200 Y2.81467
X0.78200 Y2.81533
X0.78267 Y2.81533
X0.78267 Y2.81667
X0.78333 Y2.81667
X0.78333 Y2.81733
X0.78400 Y2.81733
X0.78400 Y2.81867
X0.78467 Y2.81867
X0.78467 Y2.81933
X0.78533 Y2.81933
X0.78533 Y2.82067
X0.78600 Y2.82067
X0.78600 Y2.82133
X0.78667 Y2.82133
X0.78667 Y2.82267
X0.78733 Y2.82267
X0.78733 Y2.82333
X0.78800 Y2.82333
X0.78800 Y2.82467
X0.78867 Y2.82467
X0.78867 Y2.82533
X0.78933 Y2.82533
X0.78933 Y2.82667
X0.79000 Y2.82667
X0.79000 Y2.82733
X0.79067 Y2.82733
X0.79067 Y2.82867
X0.79133 Y2.82867
X0.79133 Y2.82933
X0.79200 Y2.82933
X0.79200 Y2.83067
X0.79267 Y2.83067
X0.79267 Y2.83133
X0.79333 Y2.83133
X0.79333 Y2.83267
X0.79400 Y2.83267
X0.79400 Y2.83333
X0.79467 Y2.83333
X0.79467 Y2.83467
X0.79533 Y2.83467
X0.79533 Y2.83533
X0.79600 Y2.83533
X0.79600 Y2.83667
X0.79667 Y2.83667
X0.79667 Y2.83733
X0.79733 Y2.83733
X0.79733 Y2.83867
X0.79800 Y2.83867
X0.79800 Y2.84133
X0.79867 Y2.84133
X0.79867 Y2.84333
X0.79933 Y2.84333
X0.79933 Y2.84600
X0.80000 Y2.84600
X0.80000 Y2.85733
X0.79933 Y2.85733
X0.79933 Y2.85867
X0.79867 Y2.85867
X0.79867 Y2.86067
X0.79667 Y2.86067
X0.79667 Y2.86133
X0.79533 Y2.86133
X0.79533 Y2.86200
X0.78133 Y2.86200
X0.78133 Y2.86133
X0.78000 Y2.86133
X0.78000 Y2.86067
X0.77867 Y2.86067
X0.77867 Y2.86000
X0.77733 Y2.86000
X0.77733 Y2.85933
X0.77667 Y2.85933
X0.77667 Y2.85867
X0.77600 Y2.85867
X0.77600 Y2.85733
X0.77533 Y2.85733
X0.77533 Y2.85667
X0.77467 Y2.85667
X0.77467 Y2.85533
G04 P0 ( dwell for no time -- G64 should not smooth over this point )
G00 Z0.08000 ( retract )

G00 X0.69867 Y2.85533 ( rapid move to begin. )
G01 Z-0.00800 F6.00000 ( plunge. )
G04 P0 ( dwell for no time -- G64 should not smooth over this point )
X0.69867 Y2.85533
X0.69800 Y2.85533
X0.69800 Y2.85467
X0.69733 Y2.85467
X0.69733 Y2.85400
X0.69667 Y2.85400
X0.69667 Y2.85333
X0.69600 Y2.85333
X0.69600 Y2.85133
X0.69533 Y2.85133
X0.69533 Y2.85000
X0.69467 Y2.85000
X0.69467 Y2.83533
X0.69533 Y2.83533
X0.69533 Y2.83400
X0.69600 Y2.83400
X0.69600 Y2.83200
X0.69800 Y2.83200
X0.69800 Y2.83133
X0.69933 Y2.83133
X0.69933 Y2.83067
X0.70800 Y2.83067
X0.70800 Y2.83000
X0.70933 Y2.83000
X0.70933 Y2.82467
X0.69933 Y2.82467
X0.69933 Y2.82400
X0.69800 Y2.82400
X0.69800 Y2.82333
X0.69600 Y2.82333
X0.69600 Y2.82133
X0.69533 Y2.82133
X0.69533 Y2.82000
X0.69467 Y2.82000
X0.69467 Y2.81533
X0.69533 Y2.81533
X0.69533 Y2.81133
X0.69600 Y2.81133
X0.69600 Y2.80467
X0.69667 Y2.80467
X0.69667 Y2.80133
X0.69733 Y2.80133
X0.69733 Y2.80067
X0.69800 Y2.80067
X0.69800 Y2.80000
X0.69867 Y2.80000
X0.69867 Y2.79933
X0.69933 Y2.79933
X0.69933 Y2.79867
X0.70000 Y2.79867
X0.70000 Y2.79800
X0.70067 Y2.79800
X0.70067 Y2.79733
X0.70133 Y2.79733
X0.70133 Y2.79667
X0.70200 Y2.79667
X0.70200 Y2.79600
X0.70267 Y2.79600
X0.70267 Y2.79533
X0.70333 Y2.79533
X0.70333 Y2.79467
X0.70533 Y2.79467
X0.70533 Y2.79400
X0.70667 Y2.79400
X0.70667 Y2.79333
X0.73667 Y2.79333
X0.73667 Y2.79400
X0.73800 Y2.79400
X0.73800 Y2.79467
X0.74000 Y2.79467
X0.74000 Y2.79533
X0.74067 Y2.79533
X0.74067 Y2.79600
X0.74133 Y2.79600
X0.74133 Y2.79667
X0.74200 Y2.79667
X0.74200 Y2.79733
X0.74267 Y2.79733
X0.74267 Y2.79800
X0.74333 Y2.79800
X0.74333 Y2.79867
X0.74400 Y2.79867
X0.74400 Y2.79933
X0.74467 Y2.79933
X0.74467 Y2.80000
X0.74533 Y2.80000
X0.74533 Y2.80067
X0.74600 Y2.80067
X0.74600 Y2.80267
X0.74667 Y2.80267
X0.74667 Y2.80667
X0.74733 Y2.80667
X0.74733 Y2.81400
X0.74800 Y2.81400
X0.74800 Y2.81667
X0.74867 Y2.81667
X0.74867 Y2.82733
X0.74800 Y2.82733
X0.74800 Y2.82800
X0.74867 Y2.82800
X0.74867 Y2.85000
X0.74800 Y2.85000
X0.74800 Y2.85133
X0.74733 Y2.85133
X0.74733 Y2.85333
X0.74667 Y2.85333
X0.74667 Y2.85400
X0.74600 Y2.85400
X0.74600 Y2.85467
X0.74533 Y2.85467
X0.74533 Y2.85533
X0.74467 Y2.85533
X0.74467 Y2.85600
X0.74400 Y2.85600
X0.74400 Y2.85667
X0.74333 Y2.85667
X0.74333 Y2.85733
X0.74267 Y2.85733
X0.74267 Y2.85800
X0.74200 Y2.85800
X0.74200 Y2.85867
X0.74133 Y2.85867
X0.74133 Y2.85933
X0.74067 Y2.85933
X0.74067 Y2.86000
X0.74000 Y2.86000
X0.74000 Y2.86067
X0.73800 Y2.86067
X0.73800 Y2.86133
X0.73667 Y2.86133
X0.73667 Y2.86200
X0.70667 Y2.86200
X0.70667 Y2.86133
X0.70533 Y2.86133
X0.70533 Y2.86067
X0.70333 Y2.86067
X0.70333 Y2.86000
X0.70267 Y2.86000
X0.70267 Y2.85933
X0.70200 Y2.85933
X0.70200 Y2.85867
X0.70133 Y2.85867
X0.70133 Y2.85800
X0.70000 Y2.85800
X0.70000 Y2.85667
X0.69933 Y2.85667
X0.69933 Y2.85600
X0.69867 Y2.85600
X0.69867 Y2.85533
G04 P0 ( dwell for no time -- G64 should not smooth over this point )
G00 Z0.08000 ( retract )

G00 X0.65467 Y2.85533 ( rapid move to begin. )
G01 Z-0.00800 F6.00000 ( plunge. )
G04 P0 ( dwell for no time -- G64 should not smooth over this point )
X0.65467 Y2.85533
X0.65400 Y2.85533
X0.65400 Y2.85467
X0.65333 Y2.85467
X0.65333 Y2.85400
X0.65267 Y2.85400
X0.65267 Y2.85333
X0.65200 Y2.85333
X0.65200 Y2.85267
X0.65133 Y2.85267
X0.65133 Y2.85200
X0.65067 Y2.85200
X0.65067 Y2.85133
X0.65000 Y2.85133
X0.65000 Y2.85067
X0.64933 Y2.85067
X0.64933 Y2.85000
X0.64867 Y2.85000
X0.64867 Y2.84933
X0.64800 Y2.84933
X0.64800 Y2.84867
X0.64733 Y2.84867
X0.64733 Y2.84800
X0.64667 Y2.84800
X0.64667 Y2.84733
X0.64600 Y2.84733
X0.64600 Y2.84667
X0.64533 Y2.84667
X0.64533 Y2.84600
X0.64467 Y2.84600
X0.64467 Y2.84200
X0.64400 Y2.84200
X0.64400 Y2.82867
X0.64467 Y2.82867
X0.64467 Y2.82467
X0.64667 Y2.82467
X0.64667 Y2.82400
X0.64800 Y2.82400
X0.64800 Y2.82333
X0.65800 Y2.82333
X0.65800 Y2.81733
X0.64800 Y2.81733
X0.64800 Y2.81667
X0.64667 Y2.81667
X0.64667 Y2.81600
X0.64467 Y2.81600
X0.64467 Y2.81200
X0.64400 Y2.81200
X0.64400 Y2.80467
X0.64333 Y2.80467
X0.64333 Y2.79800
X0.64400 Y2.79800
X0.64400 Y2.79667
X0.64467 Y2.79667
X0.64467 Y2.79467
X0.64667 Y2.79467
X0.64667 Y2.79400
X0.64800 Y2.79400
X0.64800 Y2.79333
X0.69267 Y2.79333
X0.69267 Y2.79400
X0.69400 Y2.79400
X0.69400 Y2.79467
X0.69600 Y2.79467
X0.69600 Y2.79667
X0.69667 Y2.79667
X0.69667 Y2.79800
X0.69733 Y2.79800
X0.69733 Y2.80133
X0.69667 Y2.80133
X0.69667 Y2.80467
X0.69600 Y2.80467
X0.69600 Y2.81133
X0.69533 Y2.81133
X0.69533 Y2.81533
X0.69467 Y2.81533
X0.69467 Y2.81600
X0.69400 Y2.81600
X0.69400 Y2.81667
X0.69267 Y2.81667
X0.69267 Y2.81733
X0.68200 Y2.81733
X0.68200 Y2.85733
X0.68133 Y2.85733
X0.68133 Y2.85867
X0.68067 Y2.85867
X0.68067 Y2.86067
X0.67867 Y2.86067
X0.67867 Y2.86133
X0.67733 Y2.86133
X0.67733 Y2.86200
X0.66267 Y2.86200
X0.66267 Y2.86133
X0.66133 Y2.86133
X0.66133 Y2.86067
X0.65933 Y2.86067
X0.65933 Y2.86000
X0.65867 Y2.86000
X0.65867 Y2.85933
X0.65800 Y2.85933
X0.65800 Y2.85867
X0.65733 Y2.85867
X0.65733 Y2.85800
X0.65667 Y2.85800
X0.65667 Y2.85733
X0.65600 Y2.85733
X0.65600 Y2.85667
X0.65533 Y2.85667
X0.65533 Y2.85600
X0.65467 Y2.85600
X0.65467 Y2.85533
G04 P0 ( dwell for no time -- G64 should not smooth over this point )
G00 Z0.08000 ( retract )

G00 X0.59600 Y2.85533 ( rapid move to begin. )
G01 Z-0.00800 F6.00000 ( plunge. )
G04 P0 ( dwell for no time -- G64 should not smooth over this point )
X0.59600 Y2.85533
X0.59533 Y2.85533
X0.59533 Y2.85467
X0.59467 Y2.85467
X0.59467 Y2.85400
X0.59400 Y2.85400
X0.59400 Y2.85333
X0.59267 Y2.85333
X0.59267 Y2.82933
X0.59200 Y2.82933
X0.59200 Y2.82533
X0.59133 Y2.82533
X0.59133 Y2.81533
X0.59200 Y2.81533
X0.59200 Y2.81133
X0.59267 Y2.81133
X0.59267 Y2.80467
X0.59333 Y2.80467
X0.59333 Y2.80200
X0.59400 Y2.80200
X0.59400 Y2.80133
X0.59467 Y2.80133
X0.59467 Y2.80067
X0.59533 Y2.80067
X0.59533 Y2.80000
X0.59600 Y2.80000
X0.59600 Y2.79933
X0.59667 Y2.79933
X0.59667 Y2.79867
X0.59733 Y2.79867
X0.59733 Y2.79800
X0.59800 Y2.79800
X0.59800 Y2.79733
X0.59867 Y2.79733
X0.59867 Y2.79667
X0.59933 Y2.79667
X0.59933 Y2.79600
X0.60000 Y2.79600
X0.60000 Y2.79533
X0.60067 Y2.79533
X0.60067 Y2.79467
X0.60267 Y2.79467
X0.60267 Y2.79400
X0.60400 Y2.79400
X0.60400 Y2.79333
X0.63333 Y2.79333
X0.63333 Y2.79400
X0.63467 Y2.79400
X0.63467 Y2.79467
X0.63667 Y2.79467
X0.63667 Y2.79533
X0.63733 Y2.79533
X0.63733 Y2.79600
X0.63800 Y2.79600
X0.63800 Y2.79667
X0.63867 Y2.79667
X0.63867 Y2.79733
X0.63933 Y2.79733
X0.63933 Y2.79800
X0.64000 Y2.79800
X0.64000 Y2.79867
X0.64067 Y2.79867
X0.64067 Y2.79933
X0.64133 Y2.79933
X0.64133 Y2.80000
X0.64200 Y2.80000
X0.64200 Y2.80067
X0.64267 Y2.80067
X0.64267 Y2.80133
X0.64333 Y2.80133
X0.64333 Y2.80467
X0.64400 Y2.80467
X0.64400 Y2.81200
X0.64467 Y2.81200
X0.64467 Y2.81600
X0.64533 Y2.81600
X0.64533 Y2.82467
X0.64467 Y2.82467
X0.64467 Y2.82867
X0.64400 Y2.82867
X0.64400 Y2.84200
X0.64467 Y2.84200
X0.64467 Y2.84600
X0.64533 Y2.84600
X0.64533 Y2.85000
X0.64467 Y2.85000
X0.64467 Y2.85133
X0.64400 Y2.85133
X0.64400 Y2.85333
X0.64333 Y2.85333
X0.64333 Y2.85400
X0.64267 Y2.85400
X0.64267 Y2.85467
X0.64200 Y2.85467
X0.64200 Y2.85533
X0.64133 Y2.85533
X0.64133 Y2.85600
X0.64067 Y2.85600
X0.64067 Y2.85667
X0.64000 Y2.85667
X0.64000 Y2.85733
X0.63933 Y2.85733
X0.63933 Y2.85800
X0.63867 Y2.85800
X0.63867 Y2.85867
X0.63800 Y2.85867
X0.63800 Y2.85933
X0.63733 Y2.85933
X0.63733 Y2.86000
X0.63667 Y2.86000
X0.63667 Y2.86067
X0.63467 Y2.86067
X0.63467 Y2.86133
X0.63333 Y2.86133
X0.63333 Y2.86200
X0.60400 Y2.86200
X0.60400 Y2.86133
X0.60267 Y2.86133
X0.60267 Y2.86067
X0.60067 Y2.86067
X0.60067 Y2.86000
X0.60000 Y2.86000
X0.60000 Y2.85933
X0.59933 Y2.85933
X0.59933 Y2.85867
X0.59867 Y2.85867
X0.59867 Y2.85800
X0.59800 Y2.85800
X0.59800 Y2.85733
X0.59733 Y2.85733
X0.59733 Y2.85667
X0.59667 Y2.85667
X0.59667 Y2.85600
X0.59600 Y2.85600
X0.59600 Y2.85533
G04 P0 ( dwell for no time -- G64 should not smooth over this point )
G00 Z0.08000 ( retract )

G00 X0.54400 Y2.85533 ( rapid move to begin. )
G01 Z-0.00800 F6.00000 ( plunge. )
G04 P0 ( dwell for no time -- G64 should not smooth over this point )
X0.54400 Y2.85533
X0.54333 Y2.85533
X0.54333 Y2.85467
X0.54267 Y2.85467
X0.54267 Y2.85400
X0.54200 Y2.85400
X0.54200 Y2.85333
X0.54133 Y2.85333
X0.54133 Y2.85133
X0.54067 Y2.85133
X0.54067 Y2.85000
X0.54000 Y2.85000
X0.54000 Y2.83533
X0.54067 Y2.83533
X0.54067 Y2.83400
X0.54133 Y2.83400
X0.54133 Y2.83200
X0.54333 Y2.83200
X0.54333 Y2.83133
X0.54467 Y2.83133
X0.54467 Y2.83067
X0.55600 Y2.83067
X0.55600 Y2.83000
X0.55533 Y2.83000
X0.55533 Y2.82933
X0.55467 Y2.82933
X0.55467 Y2.82867
X0.55400 Y2.82867
X0.55400 Y2.82800
X0.55333 Y2.82800
X0.55333 Y2.82733
X0.55267 Y2.82733
X0.55267 Y2.82667
X0.55200 Y2.82667
X0.55200 Y2.82600
X0.55133 Y2.82600
X0.55133 Y2.82533
X0.55067 Y2.82533
X0.55067 Y2.82467
X0.55000 Y2.82467
X0.55000 Y2.82400
X0.54933 Y2.82400
X0.54933 Y2.82333
X0.54867 Y2.82333
X0.54867 Y2.82267
X0.54800 Y2.82267
X0.54800 Y2.82200
X0.54733 Y2.82200
X0.54733 Y2.82133
X0.54667 Y2.82133
X0.54667 Y2.82067
X0.54600 Y2.82067
X0.54600 Y2.82000
X0.54533 Y2.82000
X0.54533 Y2.81933
X0.54467 Y2.81933
X0.54467 Y2.81867
X0.54400 Y2.81867
X0.54400 Y2.81800
X0.54333 Y2.81800
X0.54333 Y2.81733
X0.54267 Y2.81733
X0.54267 Y2.81667
X0.54200 Y2.81667
X0.54200 Y2.81600
X0.54133 Y2.81600
X0.54133 Y2.81400
X0.54067 Y2.81400
X0.54067 Y2.81267
X0.54000 Y2.81267
X0.54000 Y2.79800
X0.54067 Y2.79800
X0.54067 Y2.79667
X0.54133 Y2.79667
X0.54133 Y2.79467
X0.54333 Y2.79467
X0.54333 Y2.79400
X0.54467 Y2.79400
X0.54467 Y2.79333
X0.58933 Y2.79333
X0.58933 Y2.79400
X0.59067 Y2.79400
X0.59067 Y2.79467
X0.59267 Y2.79467
X0.59267 Y2.79667
X0.59333 Y2.79667
X0.59333 Y2.79800
X0.59400 Y2.79800
X0.59400 Y2.80200
X0.59333 Y2.80200
X0.59333 Y2.80467
X0.59267 Y2.80467
X0.59267 Y2.81133
X0.59200 Y2.81133
X0.59200 Y2.81533
X0.59133 Y2.81533
X0.59133 Y2.81600
X0.59067 Y2.81600
X0.59067 Y2.81667
X0.58933 Y2.81667
X0.58933 Y2.81733
X0.58533 Y2.81733
X0.58533 Y2.81800
X0.58600 Y2.81800
X0.58600 Y2.81867
X0.58667 Y2.81867
X0.58667 Y2.81933
X0.58733 Y2.81933
X0.58733 Y2.82000
X0.58800 Y2.82000
X0.58800 Y2.82067
X0.58867 Y2.82067
X0.58867 Y2.82133
X0.58933 Y2.82133
X0.58933 Y2.82200
X0.59000 Y2.82200
X0.59000 Y2.82267
X0.59067 Y2.82267
X0.59067 Y2.82333
X0.59133 Y2.82333
X0.59133 Y2.82533
X0.59200 Y2.82533
X0.59200 Y2.82933
X0.59267 Y2.82933
X0.59267 Y2.85333
X0.59200 Y2.85333
X0.59200 Y2.85400
X0.59133 Y2.85400
X0.59133 Y2.85467
X0.59067 Y2.85467
X0.59067 Y2.85533
X0.59000 Y2.85533
X0.59000 Y2.85600
X0.58933 Y2.85600
X0.58933 Y2.85667
X0.58867 Y2.85667
X0.58867 Y2.85733
X0.58800 Y2.85733
X0.58800 Y2.85800
X0.58733 Y2.85800
X0.58733 Y2.85867
X0.58667 Y2.85867
X0.58667 Y2.85933
X0.58600 Y2.85933
X0.58600 Y2.86000
X0.58533 Y2.86000
X0.58533 Y2.86067
X0.58333 Y2.86067
X0.58333 Y2.86133
X0.58200 Y2.86133
X0.58200 Y2.86200
X0.55200 Y2.86200
X0.55200 Y2.86133
X0.55067 Y2.86133
X0.55067 Y2.86067
X0.54867 Y2.86067
X0.54867 Y2.86000
X0.54800 Y2.86000
X0.54800 Y2.85933
X0.54733 Y2.85933
X0.54733 Y2.85867
X0.54667 Y2.85867
X0.54667 Y2.85800
X0.54600 Y2.85800
X0.54600 Y2.85733
X0.54533 Y2.85733
X0.54533 Y2.85667
X0.54400 Y2.85667
X0.54400 Y2.85533
G04 P0 ( dwell for no time -- G64 should not smooth over this point )
G00 Z0.08000 ( retract )

G00 X0.43667 Y2.85533 ( rapid move to begin. )
G01 Z-0.00800 F6.00000 ( plunge. )
G04 P0 ( dwell for no time -- G64 should not smooth over this point )
X0.43667 Y2.85533
X0.43667 Y2.85267
X0.43733 Y2.85267
X0.43733 Y2.84867
X0.43800 Y2.84867
X0.43800 Y2.80667
X0.43733 Y2.80667
X0.43733 Y2.80267
X0.43667 Y2.80267
X0.43667 Y2.79800
X0.43733 Y2.79800
X0.43733 Y2.79667
X0.43800 Y2.79667
X0.43800 Y2.79467
X0.44000 Y2.79467
X0.44000 Y2.79400
X0.44133 Y2.79400
X0.44133 Y2.79333
X0.45600 Y2.79333
X0.45600 Y2.79400
X0.45733 Y2.79400
X0.45733 Y2.79467
X0.45933 Y2.79467
X0.45933 Y2.79667
X0.46000 Y2.79667
X0.46000 Y2.79800
X0.46067 Y2.79800
X0.46067 Y2.80800
X0.47867 Y2.80800
X0.47867 Y2.80867
X0.48000 Y2.80867
X0.48000 Y2.80933
X0.48200 Y2.80933
X0.48200 Y2.81067
X0.48267 Y2.81067
X0.48267 Y2.81133
X0.48333 Y2.81133
X0.48333 Y2.81200
X0.48400 Y2.81200
X0.48400 Y2.81267
X0.48467 Y2.81267
X0.48467 Y2.81333
X0.48533 Y2.81333
X0.48533 Y2.81400
X0.48600 Y2.81400
X0.48600 Y2.81467
X0.48667 Y2.81467
X0.48667 Y2.81533
X0.48733 Y2.81533
X0.48733 Y2.81600
X0.48800 Y2.81600
X0.48800 Y2.81667
X0.48867 Y2.81667
X0.48867 Y2.81733
X0.48933 Y2.81733
X0.48933 Y2.81933
X0.49000 Y2.81933
X0.49000 Y2.82067
X0.49067 Y2.82067
X0.49067 Y2.85000
X0.49000 Y2.85000
X0.49000 Y2.85133
X0.48933 Y2.85133
X0.48933 Y2.85333
X0.48867 Y2.85333
X0.48867 Y2.85400
X0.48800 Y2.85400
X0.48800 Y2.85467
X0.48733 Y2.85467
X0.48733 Y2.85533
X0.48667 Y2.85533
X0.48667 Y2.85600
X0.48600 Y2.85600
X0.48600 Y2.85667
X0.48533 Y2.85667
X0.48533 Y2.85733
X0.48467 Y2.85733
X0.48467 Y2.85800
X0.48400 Y2.85800
X0.48400 Y2.85867
X0.48333 Y2.85867
X0.48333 Y2.85933
X0.48267 Y2.85933
X0.48267 Y2.86000
X0.48200 Y2.86000
X0.48200 Y2.86067
X0.48000 Y2.86067
X0.48000 Y2.86133
X0.47867 Y2.86133
X0.47867 Y2.86200
X0.44133 Y2.86200
X0.44133 Y2.86133
X0.44000 Y2.86133
X0.44000 Y2.86067
X0.43800 Y2.86067
X0.43800 Y2.85867
X0.43733 Y2.85867
X0.43733 Y2.85733
X0.43667 Y2.85733
X0.43667 Y2.85533
G04 P0 ( dwell for no time -- G64 should not smooth over this point )
G00 Z0.08000 ( retract )

G00 X0.38933 Y2.85533 ( rapid move to begin. )
G01 Z-0.00800 F6.00000 ( plunge. )
G04 P0 ( dwell for no time -- G64 should not smooth over this point )
X0.38933 Y2.85533
X0.38867 Y2.85533
X0.38867 Y2.85467
X0.38800 Y2.85467
X0.38800 Y2.85400
X0.38733 Y2.85400
X0.38733 Y2.85067
X0.38667 Y2.85067
X0.38667 Y2.84400
X0.38600 Y2.84400
X0.38600 Y2.84000
X0.38533 Y2.84000
X0.38533 Y2.80533
X0.38600 Y2.80533
X0.38600 Y2.80400
X0.38667 Y2.80400
X0.38667 Y2.80200
X0.38733 Y2.80200
X0.38733 Y2.80133
X0.38800 Y2.80133
X0.38800 Y2.80067
X0.38867 Y2.80067
X0.38867 Y2.80000
X0.38933 Y2.80000
X0.38933 Y2.79933
X0.39000 Y2.79933
X0.39000 Y2.79867
X0.39067 Y2.79867
X0.39067 Y2.79800
X0.39133 Y2.79800
X0.39133 Y2.79733
X0.39200 Y2.79733
X0.39200 Y2.79667
X0.39267 Y2.79667
X0.39267 Y2.79600
X0.39333 Y2.79600
X0.39333 Y2.79533
X0.39400 Y2.79533
X0.39400 Y2.79467
X0.39600 Y2.79467
X0.39600 Y2.79400
X0.39733 Y2.79400
X0.39733 Y2.79333
X0.42733 Y2.79333
X0.42733 Y2.79400
X0.42867 Y2.79400
X0.42867 Y2.79467
X0.43067 Y2.79467
X0.43067 Y2.79533
X0.43133 Y2.79533
X0.43133 Y2.79600
X0.43200 Y2.79600
X0.43200 Y2.79667
X0.43267 Y2.79667
X0.43267 Y2.79733
X0.43333 Y2.79733
X0.43333 Y2.79800
X0.43400 Y2.79800
X0.43400 Y2.79867
X0.43467 Y2.79867
X0.43467 Y2.79933
X0.43533 Y2.79933
X0.43533 Y2.80000
X0.43600 Y2.80000
X0.43600 Y2.80067
X0.43667 Y2.80067
X0.43667 Y2.80267
X0.43733 Y2.80267
X0.43733 Y2.80667
X0.43800 Y2.80667
X0.43800 Y2.84867
X0.43733 Y2.84867
X0.43733 Y2.85267
X0.43667 Y2.85267
X0.43667 Y2.85467
X0.43600 Y2.85467
X0.43600 Y2.85533
X0.43533 Y2.85533
X0.43533 Y2.85600
X0.43467 Y2.85600
X0.43467 Y2.85667
X0.43400 Y2.85667
X0.43400 Y2.85733
X0.43333 Y2.85733
X0.43333 Y2.85800
X0.43267 Y2.85800
X0.43267 Y2.85867
X0.43200 Y2.85867
X0.43200 Y2.85933
X0.43133 Y2.85933
X0.43133 Y2.86000
X0.43067 Y2.86000
X0.43067 Y2.86067
X0.42867 Y2.86067
X0.42867 Y2.86133
X0.42733 Y2.86133
X0.42733 Y2.86200
X0.39733 Y2.86200
X0.39733 Y2.86133
X0.39600 Y2.86133
X0.39600 Y2.86067
X0.39400 Y2.86067
X0.39400 Y2.86000
X0.39333 Y2.86000
X0.39333 Y2.85933
X0.39267 Y2.85933
X0.39267 Y2.85867
X0.39200 Y2.85867
X0.39200 Y2.85800
X0.39133 Y2.85800
X0.39133 Y2.85733
X0.39067 Y2.85733
X0.39067 Y2.85667
X0.39000 Y2.85667
X0.39000 Y2.85600
X0.38933 Y2.85600
X0.38933 Y2.85533
G04 P0 ( dwell for no time -- G64 should not smooth over this point )
G00 Z0.08000 ( retract )

G00 X0.33333 Y2.85533 ( rapid move to begin. )
G01 Z-0.00800 F6.00000 ( plunge. )
G04 P0 ( dwell for no time -- G64 should not smooth over this point )
X0.33333 Y2.85533
X0.33333 Y2.84267
X0.33400 Y2.84267
X0.33400 Y2.84133
X0.33467 Y2.84133
X0.33467 Y2.83933
X0.33667 Y2.83933
X0.33667 Y2.83867
X0.33800 Y2.83867
X0.33800 Y2.83800
X0.34867 Y2.83800
X0.34867 Y2.79800
X0.34933 Y2.79800
X0.34933 Y2.79667
X0.35000 Y2.79667
X0.35000 Y2.79467
X0.35200 Y2.79467
X0.35200 Y2.79400
X0.35333 Y2.79400
X0.35333 Y2.79333
X0.36800 Y2.79333
X0.36800 Y2.79400
X0.36933 Y2.79400
X0.36933 Y2.79467
X0.37133 Y2.79467
X0.37133 Y2.79667
X0.37200 Y2.79667
X0.37200 Y2.79800
X0.37267 Y2.79800
X0.37267 Y2.83800
X0.38333 Y2.83800
X0.38333 Y2.83867
X0.38467 Y2.83867
X0.38467 Y2.83933
X0.38533 Y2.83933
X0.38533 Y2.84000
X0.38600 Y2.84000
X0.38600 Y2.84400
X0.38667 Y2.84400
X0.38667 Y2.85067
X0.38733 Y2.85067
X0.38733 Y2.85400
X0.38800 Y2.85400
X0.38800 Y2.85733
X0.38733 Y2.85733
X0.38733 Y2.85867
X0.38667 Y2.85867
X0.38667 Y2.86067
X0.38467 Y2.86067
X0.38467 Y2.86133
X0.38333 Y2.86133
X0.38333 Y2.86200
X0.33800 Y2.86200
X0.33800 Y2.86133
X0.33667 Y2.86133
X0.33667 Y2.86067
X0.33467 Y2.86067
X0.33467 Y2.85867
X0.33400 Y2.85867
X0.33400 Y2.85733
X0.33333 Y2.85733
X0.33333 Y2.85533
G04 P0 ( dwell for no time -- G64 should not smooth over this point )
G00 Z0.08000 ( retract )

G00 X0.23067 Y2.85533 ( rapid move to begin. )
G01 Z-0.00800 F6.00000 ( plunge. )
G04 P0 ( dwell for no time -- G64 should not smooth over this point )
X0.23067 Y2.85533
X0.23067 Y2.84600
X0.23133 Y2.84600
X0.23133 Y2.84467
X0.23200 Y2.84467
X0.23200 Y2.84200
X0.23267 Y2.84200
X0.23267 Y2.82867
X0.23200 Y2.82867
X0.23200 Y2.82600
X0.23133 Y2.82600
X0.23133 Y2.82467
X0.23067 Y2.82467
X0.23067 Y2.81667
X0.23133 Y2.81667
X0.23133 Y2.81467
X0.23200 Y2.81467
X0.23200 Y2.81200
X0.23267 Y2.81200
X0.23267 Y2.79467
X0.23400 Y2.79467
X0.23400 Y2.79400
X0.23533 Y2.79400
X0.23533 Y2.79333
X0.25000 Y2.79333
X0.25000 Y2.79400
X0.25133 Y2.79400
X0.25133 Y2.79467
X0.25333 Y2.79467
X0.25333 Y2.79667
X0.25400 Y2.79667
X0.25400 Y2.79800
X0.25467 Y2.79800
X0.25467 Y2.81933
X0.25533 Y2.81933
X0.25533 Y2.82000
X0.25600 Y2.82000
X0.25600 Y2.82067
X0.25667 Y2.82067
X0.25667 Y2.82133
X0.25733 Y2.82133
X0.25733 Y2.82200
X0.25800 Y2.82200
X0.25800 Y2.82133
X0.25867 Y2.82133
X0.25867 Y2.82067
X0.25933 Y2.82067
X0.25933 Y2.82000
X0.26000 Y2.82000
X0.26000 Y2.81933
X0.26067 Y2.81933
X0.26067 Y2.79800
X0.26133 Y2.79800
X0.26133 Y2.79667
X0.26200 Y2.79667
X0.26200 Y2.79467
X0.26400 Y2.79467
X0.26400 Y2.79400
X0.26533 Y2.79400
X0.26533 Y2.79333
X0.28000 Y2.79333
X0.28000 Y2.79400
X0.28133 Y2.79400
X0.28133 Y2.79467
X0.28333 Y2.79467
X0.28333 Y2.79667
X0.28400 Y2.79667
X0.28400 Y2.79800
X0.28467 Y2.79800
X0.28467 Y2.80267
X0.28400 Y2.80267
X0.28400 Y2.80667
X0.28333 Y2.80667
X0.28333 Y2.83867
X0.28267 Y2.83867
X0.28267 Y2.83933
X0.28200 Y2.83933
X0.28200 Y2.84000
X0.28133 Y2.84000
X0.28133 Y2.84067
X0.28067 Y2.84067
X0.28067 Y2.84133
X0.28000 Y2.84133
X0.28000 Y2.84200
X0.27933 Y2.84200
X0.27933 Y2.84267
X0.27867 Y2.84267
X0.27867 Y2.84333
X0.27800 Y2.84333
X0.27800 Y2.84400
X0.27733 Y2.84400
X0.27733 Y2.84467
X0.27667 Y2.84467
X0.27667 Y2.84533
X0.27600 Y2.84533
X0.27600 Y2.84600
X0.27400 Y2.84600
X0.27400 Y2.84667
X0.27267 Y2.84667
X0.27267 Y2.84733
X0.25467 Y2.84733
X0.25467 Y2.85733
X0.25400 Y2.85733
X0.25400 Y2.85867
X0.25333 Y2.85867
X0.25333 Y2.86067
X0.25133 Y2.86067
X0.25133 Y2.86133
X0.25000 Y2.86133
X0.25000 Y2.86200
X0.23533 Y2.86200
X0.23533 Y2.86133
X0.23400 Y2.86133
X0.23400 Y2.86067
X0.23200 Y2.86067
X0.23200 Y2.85867
X0.23133 Y2.85867
X0.23133 Y2.85733
X0.23067 Y2.85733
X0.23067 Y2.85533
G04 P0 ( dwell for no time -- G64 should not smooth over this point )
G00 Z0.08000 ( retract )

G00 X0.17467 Y2.85533 ( rapid move to begin. )
G01 Z-0.00800 F6.00000 ( plunge. )
G04 P0 ( dwell for no time -- G64 should not smooth over this point )
X0.17467 Y2.85533
X0.17467 Y2.82133
X0.17400 Y2.82133
X0.17400 Y2.82067
X0.17333 Y2.82067
X0.17333 Y2.82000
X0.17267 Y2.82000
X0.17267 Y2.81933
X0.17200 Y2.81933
X0.17200 Y2.81867
X0.17133 Y2.81867
X0.17133 Y2.81933
X0.17067 Y2.81933
X0.17067 Y2.82000
X0.17000 Y2.82000
X0.17000 Y2.82067
X0.16933 Y2.82067
X0.16933 Y2.82133
X0.16867 Y2.82133
X0.16867 Y2.85733
X0.16800 Y2.85733
X0.16800 Y2.85867
X0.16733 Y2.85867
X0.16733 Y2.86067
X0.16533 Y2.86067
X0.16533 Y2.86133
X0.16400 Y2.86133
X0.16400 Y2.86200
X0.14933 Y2.86200
X0.14933 Y2.86133
X0.14800 Y2.86133
X0.14800 Y2.86067
X0.14600 Y2.86067
X0.14600 Y2.84400
X0.14533 Y2.84400
X0.14533 Y2.84000
X0.14467 Y2.84000
X0.14467 Y2.80533
X0.14533 Y2.80533
X0.14533 Y2.80400
X0.14600 Y2.80400
X0.14600 Y2.80200
X0.14667 Y2.80200
X0.14667 Y2.80133
X0.14733 Y2.80133
X0.14733 Y2.80067
X0.14800 Y2.80067
X0.14800 Y2.80000
X0.14867 Y2.80000
X0.14867 Y2.79933
X0.14933 Y2.79933
X0.14933 Y2.79867
X0.15000 Y2.79867
X0.15000 Y2.79800
X0.15067 Y2.79800
X0.15067 Y2.79733
X0.15133 Y2.79733
X0.15133 Y2.79667
X0.15200 Y2.79667
X0.15200 Y2.79600
X0.15267 Y2.79600
X0.15267 Y2.79533
X0.15333 Y2.79533
X0.15333 Y2.79467
X0.15533 Y2.79467
X0.15533 Y2.79400
X0.15667 Y2.79400
X0.15667 Y2.79333
X0.18667 Y2.79333
X0.18667 Y2.79400
X0.18800 Y2.79400
X0.18800 Y2.79467
X0.19000 Y2.79467
X0.19000 Y2.79533
X0.19067 Y2.79533
X0.19067 Y2.79600
X0.19133 Y2.79600
X0.19133 Y2.79667
X0.19200 Y2.79667
X0.19200 Y2.79733
X0.19267 Y2.79733
X0.19267 Y2.79800
X0.19333 Y2.79800
X0.19333 Y2.79867
X0.19400 Y2.79867
X0.19400 Y2.79933
X0.19467 Y2.79933
X0.19467 Y2.80000
X0.19533 Y2.80000
X0.19533 Y2.80067
X0.19600 Y2.80067
X0.19600 Y2.80133
X0.19667 Y2.80133
X0.19667 Y2.80200
X0.19733 Y2.80200
X0.19733 Y2.80400
X0.19800 Y2.80400
X0.19800 Y2.80533
X0.19867 Y2.80533
X0.19867 Y2.82533
X0.19800 Y2.82533
X0.19800 Y2.82933
X0.19733 Y2.82933
X0.19733 Y2.84133
X0.19800 Y2.84133
X0.19800 Y2.84533
X0.19867 Y2.84533
X0.19867 Y2.85733
X0.19800 Y2.85733
X0.19800 Y2.85867
X0.19733 Y2.85867
X0.19733 Y2.86067
X0.19533 Y2.86067
X0.19533 Y2.86133
X0.19400 Y2.86133
X0.19400 Y2.86200
X0.17933 Y2.86200
X0.17933 Y2.86133
X0.17800 Y2.86133
X0.17800 Y2.86067
X0.17600 Y2.86067
X0.17600 Y2.85867
X0.17533 Y2.85867
X0.17533 Y2.85733
X0.17467 Y2.85733
X0.17467 Y2.85533
G04 P0 ( dwell for no time -- G64 should not smooth over this point )
G00 Z0.08000 ( retract )

G00 X0.09333 Y2.85533 ( rapid move to begin. )
G01 Z-0.00800 F6.00000 ( plunge. )
G04 P0 ( dwell for no time -- G64 should not smooth over this point )
X0.09333 Y2.85533
X0.09333 Y2.84267
X0.09400 Y2.84267
X0.09400 Y2.84133
X0.09467 Y2.84133
X0.09467 Y2.83933
X0.09667 Y2.83933
X0.09667 Y2.83867
X0.09800 Y2.83867
X0.09800 Y2.83800
X0.10800 Y2.83800
X0.10800 Y2.79800
X0.10867 Y2.79800
X0.10867 Y2.79667
X0.10933 Y2.79667
X0.10933 Y2.79467
X0.11133 Y2.79467
X0.11133 Y2.79400
X0.11267 Y2.79400
X0.11267 Y2.79333
X0.12733 Y2.79333
X0.12733 Y2.79400
X0.12867 Y2.79400
X0.12867 Y2.79467
X0.13067 Y2.79467
X0.13067 Y2.79667
X0.13133 Y2.79667
X0.13133 Y2.79800
X0.13200 Y2.79800
X0.13200 Y2.83800
X0.14267 Y2.83800
X0.14267 Y2.83867
X0.14400 Y2.83867
X0.14400 Y2.83933
X0.14467 Y2.83933
X0.14467 Y2.84000
X0.14533 Y2.84000
X0.14533 Y2.84400
X0.14600 Y2.84400
X0.14600 Y2.86067
X0.14400 Y2.86067
X0.14400 Y2.86133
X0.14267 Y2.86133
X0.14267 Y2.86200
X0.09800 Y2.86200
X0.09800 Y2.86133
X0.09667 Y2.86133
X0.09667 Y2.86067
X0.09467 Y2.86067
X0.09467 Y2.85867
X0.09400 Y2.85867
X0.09400 Y2.85733
X0.09333 Y2.85733
X0.09333 Y2.85533
G04 P0 ( dwell for no time -- G64 should not smooth over this point )
G00 Z0.08000 ( retract )

G00 X0.20333 Y2.84800 ( rapid move to begin. )
G01 Z-0.00800 F6.00000 ( plunge. )
G04 P0 ( dwell for no time -- G64 should not smooth over this point )
X0.20333 Y2.84800
X0.20333 Y2.84733
X0.20067 Y2.84733
X0.20067 Y2.84667
X0.19933 Y2.84667
X0.19933 Y2.84600
X0.19867 Y2.84600
X0.19867 Y2.84533
X0.19800 Y2.84533
X0.19800 Y2.84133
X0.19733 Y2.84133
X0.19733 Y2.82933
X0.19800 Y2.82933
X0.19800 Y2.82533
X0.19867 Y2.82533
X0.19867 Y2.82467
X0.19933 Y2.82467
X0.19933 Y2.82400
X0.20067 Y2.82400
X0.20067 Y2.82333
X0.20333 Y2.82333
X0.20333 Y2.80533
X0.20400 Y2.80533
X0.20400 Y2.80400
X0.20467 Y2.80400
X0.20467 Y2.80200
X0.20600 Y2.80200
X0.20600 Y2.80133
X0.20667 Y2.80133
X0.20667 Y2.80067
X0.20733 Y2.80067
X0.20733 Y2.80000
X0.20800 Y2.80000
X0.20800 Y2.79933
X0.20867 Y2.79933
X0.20867 Y2.79867
X0.20933 Y2.79867
X0.20933 Y2.79800
X0.21000 Y2.79800
X0.21000 Y2.79733
X0.21067 Y2.79733
X0.21067 Y2.79667
X0.21133 Y2.79667
X0.21133 Y2.79600
X0.21200 Y2.79600
X0.21200 Y2.79533
X0.21267 Y2.79533
X0.21267 Y2.79467
X0.21467 Y2.79467
X0.21467 Y2.79400
X0.21600 Y2.79400
X0.21600 Y2.79333
X0.23067 Y2.79333
X0.23067 Y2.79400
X0.23200 Y2.79400
X0.23200 Y2.79467
X0.23267 Y2.79467
X0.23267 Y2.81200
X0.23200 Y2.81200
X0.23200 Y2.81467
X0.23133 Y2.81467
X0.23133 Y2.81667
X0.23067 Y2.81667
X0.23067 Y2.81867
X0.23000 Y2.81867
X0.23000 Y2.81933
X0.22933 Y2.81933
X0.22933 Y2.82000
X0.22867 Y2.82000
X0.22867 Y2.82067
X0.22800 Y2.82067
X0.22800 Y2.82133
X0.22733 Y2.82133
X0.22733 Y2.82333
X0.23067 Y2.82333
X0.23067 Y2.82467
X0.23133 Y2.82467
X0.23133 Y2.82600
X0.23200 Y2.82600
X0.23200 Y2.82867
X0.23267 Y2.82867
X0.23267 Y2.84200
X0.23200 Y2.84200
X0.23200 Y2.84467
X0.23133 Y2.84467
X0.23133 Y2.84600
X0.23067 Y2.84600
X0.23067 Y2.84733
X0.22733 Y2.84733
X0.22733 Y2.85000
X0.22667 Y2.85000
X0.22667 Y2.85133
X0.22600 Y2.85133
X0.22600 Y2.85333
X0.22400 Y2.85333
X0.22400 Y2.85400
X0.22267 Y2.85400
X0.22267 Y2.85467
X0.20800 Y2.85467
X0.20800 Y2.85400
X0.20667 Y2.85400
X0.20667 Y2.85333
X0.20467 Y2.85333
X0.20467 Y2.85133
X0.20400 Y2.85133
X0.20400 Y2.85000
X0.20333 Y2.85000
X0.20333 Y2.84800
G04 P0 ( dwell for no time -- G64 should not smooth over this point )
G00 Z0.08000 ( retract )

G00 X1.91667 Y2.84067 ( rapid move to begin. )
G01 Z-0.00800 F6.00000 ( plunge. )
G04 P0 ( dwell for no time -- G64 should not smooth over this point )
X1.91667 Y2.84067
X1.91600 Y2.84067
X1.91600 Y2.83933
X1.91533 Y2.83933
X1.91533 Y2.83800
X1.91467 Y2.83800
X1.91467 Y2.83733
X1.91400 Y2.83733
X1.91400 Y2.83867
X1.91333 Y2.83867
X1.91333 Y2.84000
X1.91267 Y2.84000
X1.91267 Y2.84133
X1.91200 Y2.84133
X1.91200 Y2.84267
X1.91133 Y2.84267
X1.91133 Y2.84400
X1.91067 Y2.84400
X1.91067 Y2.84467
X1.90933 Y2.84467
X1.90933 Y2.84533
X1.90867 Y2.84533
X1.90867 Y2.84600
X1.90733 Y2.84600
X1.90733 Y2.84667
X1.90600 Y2.84667
X1.90600 Y2.84733
X1.89200 Y2.84733
X1.89200 Y2.84667
X1.89067 Y2.84667
X1.89067 Y2.84600
X1.88867 Y2.84600
X1.88867 Y2.84400
X1.88800 Y2.84400
X1.88800 Y2.84267
X1.88733 Y2.84267
X1.88733 Y2.83800
X1.88800 Y2.83800
X1.88800 Y2.83400
X1.88867 Y2.83400
X1.88867 Y2.82667
X1.88933 Y2.82667
X1.88933 Y2.82333
X1.89000 Y2.82333
X1.89000 Y2.82200
X1.89067 Y2.82200
X1.89067 Y2.82067
X1.89133 Y2.82067
X1.89133 Y2.81933
X1.89200 Y2.81933
X1.89200 Y2.81800
X1.89267 Y2.81800
X1.89267 Y2.81667
X1.89333 Y2.81667
X1.89333 Y2.81533
X1.89400 Y2.81533
X1.89400 Y2.81400
X1.89467 Y2.81400
X1.89467 Y2.81267
X1.89533 Y2.81267
X1.89533 Y2.81133
X1.89600 Y2.81133
X1.89600 Y2.81000
X1.89667 Y2.81000
X1.89667 Y2.80867
X1.89733 Y2.80867
X1.89733 Y2.80733
X1.89800 Y2.80733
X1.89800 Y2.80600
X1.89867 Y2.80600
X1.89867 Y2.80467
X1.89933 Y2.80467
X1.89933 Y2.80333
X1.90000 Y2.80333
X1.90000 Y2.80200
X1.90067 Y2.80200
X1.90067 Y2.80067
X1.90133 Y2.80067
X1.90133 Y2.79933
X1.90200 Y2.79933
X1.90200 Y2.79800
X1.90267 Y2.79800
X1.90267 Y2.79667
X1.90333 Y2.79667
X1.90333 Y2.79600
X1.90400 Y2.79600
X1.90400 Y2.79467
X1.90600 Y2.79467
X1.90600 Y2.79400
X1.90733 Y2.79400
X1.90733 Y2.79333
X1.92200 Y2.79333
X1.92200 Y2.79400
X1.92333 Y2.79400
X1.92333 Y2.79467
X1.92533 Y2.79467
X1.92533 Y2.79600
X1.92600 Y2.79600
X1.92600 Y2.79733
X1.92667 Y2.79733
X1.92667 Y2.79867
X1.92733 Y2.79867
X1.92733 Y2.80000
X1.92800 Y2.80000
X1.92800 Y2.80133
X1.92867 Y2.80133
X1.92867 Y2.80267
X1.92933 Y2.80267
X1.92933 Y2.80400
X1.93000 Y2.80400
X1.93000 Y2.80533
X1.93067 Y2.80533
X1.93067 Y2.80667
X1.93133 Y2.80667
X1.93133 Y2.80800
X1.93200 Y2.80800
X1.93200 Y2.80933
X1.93267 Y2.80933
X1.93267 Y2.81067
X1.93333 Y2.81067
X1.93333 Y2.81200
X1.93400 Y2.81200
X1.93400 Y2.81333
X1.93467 Y2.81333
X1.93467 Y2.81467
X1.93533 Y2.81467
X1.93533 Y2.81600
X1.93600 Y2.81600
X1.93600 Y2.81733
X1.93667 Y2.81733
X1.93667 Y2.81867
X1.93733 Y2.81867
X1.93733 Y2.82000
X1.93800 Y2.82000
X1.93800 Y2.82133
X1.93867 Y2.82133
X1.93867 Y2.82267
X1.93933 Y2.82267
X1.93933 Y2.82400
X1.94000 Y2.82400
X1.94000 Y2.82533
X1.94067 Y2.82533
X1.94067 Y2.82733
X1.94133 Y2.82733
X1.94133 Y2.84267
X1.94067 Y2.84267
X1.94067 Y2.84400
X1.94000 Y2.84400
X1.94000 Y2.84600
X1.93800 Y2.84600
X1.93800 Y2.84667
X1.93667 Y2.84667
X1.93667 Y2.84733
X1.92267 Y2.84733
X1.92267 Y2.84667
X1.92133 Y2.84667
X1.92133 Y2.84600
X1.92000 Y2.84600
X1.92000 Y2.84533
X1.91933 Y2.84533
X1.91933 Y2.84467
X1.91800 Y2.84467
X1.91800 Y2.84333
X1.91733 Y2.84333
X1.91733 Y2.84200
X1.91667 Y2.84200
X1.91667 Y2.84067
G04 P0 ( dwell for no time -- G64 should not smooth over this point )
G00 Z0.08000 ( retract )

G00 X1.84000 Y2.84067 ( rapid move to begin. )
G01 Z-0.00800 F6.00000 ( plunge. )
G04 P0 ( dwell for no time -- G64 should not smooth over this point )
X1.84000 Y2.84067
X1.83933 Y2.84067
X1.83933 Y2.84000
X1.83867 Y2.84000
X1.83867 Y2.83800
X1.83800 Y2.83800
X1.83800 Y2.83400
X1.83733 Y2.83400
X1.83733 Y2.82800
X1.83667 Y2.82800
X1.83667 Y2.82533
X1.83600 Y2.82533
X1.83600 Y2.80533
X1.83667 Y2.80533
X1.83667 Y2.80400
X1.83733 Y2.80400
X1.83733 Y2.80200
X1.83800 Y2.80200
X1.83800 Y2.80133
X1.83867 Y2.80133
X1.83867 Y2.80067
X1.83933 Y2.80067
X1.83933 Y2.80000
X1.84000 Y2.80000
X1.84000 Y2.79933
X1.84067 Y2.79933
X1.84067 Y2.79867
X1.84133 Y2.79867
X1.84133 Y2.79800
X1.84200 Y2.79800
X1.84200 Y2.79733
X1.84267 Y2.79733
X1.84267 Y2.79667
X1.84333 Y2.79667
X1.84333 Y2.79600
X1.84400 Y2.79600
X1.84400 Y2.79533
X1.84467 Y2.79533
X1.84467 Y2.79467
X1.84667 Y2.79467
X1.84667 Y2.79400
X1.84800 Y2.79400
X1.84800 Y2.79333
X1.87800 Y2.79333
X1.87800 Y2.79400
X1.87933 Y2.79400
X1.87933 Y2.79467
X1.88133 Y2.79467
X1.88133 Y2.79667
X1.88200 Y2.79667
X1.88200 Y2.79800
X1.88267 Y2.79800
X1.88267 Y2.80800
X1.88533 Y2.80800
X1.88533 Y2.80867
X1.88667 Y2.80867
X1.88667 Y2.80933
X1.88867 Y2.80933
X1.88867 Y2.81133
X1.88933 Y2.81133
X1.88933 Y2.81267
X1.89000 Y2.81267
X1.89000 Y2.82333
X1.88933 Y2.82333
X1.88933 Y2.82667
X1.88867 Y2.82667
X1.88867 Y2.83400
X1.88800 Y2.83400
X1.88800 Y2.83800
X1.88733 Y2.83800
X1.88733 Y2.84000
X1.88667 Y2.84000
X1.88667 Y2.84067
X1.88600 Y2.84067
X1.88600 Y2.84133
X1.88533 Y2.84133
X1.88533 Y2.84200
X1.88467 Y2.84200
X1.88467 Y2.84267
X1.88400 Y2.84267
X1.88400 Y2.84333
X1.88333 Y2.84333
X1.88333 Y2.84400
X1.88267 Y2.84400
X1.88267 Y2.84467
X1.88200 Y2.84467
X1.88200 Y2.84533
X1.88133 Y2.84533
X1.88133 Y2.84600
X1.87933 Y2.84600
X1.87933 Y2.84667
X1.87800 Y2.84667
X1.87800 Y2.84733
X1.84800 Y2.84733
X1.84800 Y2.84667
X1.84667 Y2.84667
X1.84667 Y2.84600
X1.84467 Y2.84600
X1.84467 Y2.84533
X1.84400 Y2.84533
X1.84400 Y2.84467
X1.84333 Y2.84467
X1.84333 Y2.84400
X1.84267 Y2.84400
X1.84267 Y2.84333
X1.84200 Y2.84333
X1.84200 Y2.84267
X1.84133 Y2.84267
X1.84133 Y2.84200
X1.84067 Y2.84200
X1.84067 Y2.84133
X1.84000 Y2.84133
X1.84000 Y2.84067
G04 P0 ( dwell for no time -- G64 should not smooth over this point )
G00 Z0.08000 ( retract )

G00 X1.79333 Y2.84067 ( rapid move to begin. )
G01 Z-0.00800 F6.00000 ( plunge. )
G04 P0 ( dwell for no time -- G64 should not smooth over this point )
X1.79333 Y2.84067
X1.79333 Y2.79800
X1.79400 Y2.79800
X1.79400 Y2.79667
X1.79467 Y2.79667
X1.79467 Y2.79467
X1.79667 Y2.79467
X1.79667 Y2.79400
X1.79800 Y2.79400
X1.79800 Y2.79333
X1.81267 Y2.79333
X1.81267 Y2.79400
X1.81400 Y2.79400
X1.81400 Y2.79467
X1.81600 Y2.79467
X1.81600 Y2.79667
X1.81667 Y2.79667
X1.81667 Y2.79800
X1.81733 Y2.79800
X1.81733 Y2.81200
X1.81800 Y2.81200
X1.81800 Y2.81267
X1.81867 Y2.81267
X1.81867 Y2.81333
X1.81933 Y2.81333
X1.81933 Y2.81400
X1.82000 Y2.81400
X1.82000 Y2.81467
X1.82067 Y2.81467
X1.82067 Y2.81533
X1.82133 Y2.81533
X1.82133 Y2.81600
X1.82200 Y2.81600
X1.82200 Y2.81667
X1.82267 Y2.81667
X1.82267 Y2.81733
X1.82333 Y2.81733
X1.82333 Y2.81800
X1.82400 Y2.81800
X1.82400 Y2.81867
X1.82467 Y2.81867
X1.82467 Y2.81933
X1.82533 Y2.81933
X1.82533 Y2.82000
X1.82600 Y2.82000
X1.82600 Y2.82067
X1.82667 Y2.82067
X1.82667 Y2.82133
X1.82733 Y2.82133
X1.82733 Y2.82200
X1.82800 Y2.82200
X1.82800 Y2.82267
X1.82867 Y2.82267
X1.82867 Y2.82333
X1.83467 Y2.82333
X1.83467 Y2.82400
X1.83600 Y2.82400
X1.83600 Y2.82533
X1.83667 Y2.82533
X1.83667 Y2.82800
X1.83733 Y2.82800
X1.83733 Y2.83400
X1.83800 Y2.83400
X1.83800 Y2.83800
X1.83867 Y2.83800
X1.83867 Y2.84000
X1.83933 Y2.84000
X1.83933 Y2.84267
X1.83867 Y2.84267
X1.83867 Y2.84400
X1.83800 Y2.84400
X1.83800 Y2.84600
X1.83600 Y2.84600
X1.83600 Y2.84667
X1.83467 Y2.84667
X1.83467 Y2.84733
X1.81267 Y2.84733
X1.81267 Y2.84733
X1.79800 Y2.84733
X1.79800 Y2.84667
X1.79667 Y2.84667
X1.79667 Y2.84600
X1.79467 Y2.84600
X1.79467 Y2.84400
X1.79400 Y2.84400
X1.79400 Y2.84267
X1.79333 Y2.84267
X1.79333 Y2.84067
G04 P0 ( dwell for no time -- G64 should not smooth over this point )
G00 Z0.08000 ( retract )

G00 X0.28600 Y2.84067 ( rapid move to begin. )
G01 Z-0.00800 F6.00000 ( plunge. )
G04 P0 ( dwell for no time -- G64 should not smooth over this point )
X0.28600 Y2.84067
X0.28533 Y2.84067
X0.28533 Y2.84000
X0.28467 Y2.84000
X0.28467 Y2.83933
X0.28400 Y2.83933
X0.28400 Y2.83867
X0.28333 Y2.83867
X0.28333 Y2.80667
X0.28400 Y2.80667
X0.28400 Y2.80267
X0.28467 Y2.80267
X0.28467 Y2.80067
X0.28533 Y2.80067
X0.28533 Y2.80000
X0.28600 Y2.80000
X0.28600 Y2.79933
X0.28667 Y2.79933
X0.28667 Y2.79867
X0.28733 Y2.79867
X0.28733 Y2.79800
X0.28800 Y2.79800
X0.28800 Y2.79733
X0.28867 Y2.79733
X0.28867 Y2.79667
X0.28933 Y2.79667
X0.28933 Y2.79600
X0.29000 Y2.79600
X0.29000 Y2.79533
X0.29067 Y2.79533
X0.29067 Y2.79467
X0.29267 Y2.79467
X0.29267 Y2.79400
X0.29400 Y2.79400
X0.29400 Y2.79333
X0.32400 Y2.79333
X0.32400 Y2.79400
X0.32533 Y2.79400
X0.32533 Y2.79467
X0.32733 Y2.79467
X0.32733 Y2.79667
X0.32800 Y2.79667
X0.32800 Y2.79800
X0.32867 Y2.79800
X0.32867 Y2.80800
X0.33133 Y2.80800
X0.33133 Y2.80867
X0.33267 Y2.80867
X0.33267 Y2.80933
X0.33467 Y2.80933
X0.33467 Y2.81133
X0.33533 Y2.81133
X0.33533 Y2.81267
X0.33600 Y2.81267
X0.33600 Y2.83533
X0.33533 Y2.83533
X0.33533 Y2.83667
X0.33467 Y2.83667
X0.33467 Y2.83867
X0.33400 Y2.83867
X0.33400 Y2.83933
X0.33333 Y2.83933
X0.33333 Y2.84000
X0.33267 Y2.84000
X0.33267 Y2.84067
X0.33200 Y2.84067
X0.33200 Y2.84133
X0.33133 Y2.84133
X0.33133 Y2.84200
X0.33067 Y2.84200
X0.33067 Y2.84267
X0.33000 Y2.84267
X0.33000 Y2.84333
X0.32933 Y2.84333
X0.32933 Y2.84400
X0.32867 Y2.84400
X0.32867 Y2.84467
X0.32800 Y2.84467
X0.32800 Y2.84533
X0.32733 Y2.84533
X0.32733 Y2.84600
X0.32533 Y2.84600
X0.32533 Y2.84667
X0.32400 Y2.84667
X0.32400 Y2.84733
X0.29400 Y2.84733
X0.29400 Y2.84667
X0.29267 Y2.84667
X0.29267 Y2.84600
X0.29067 Y2.84600
X0.29067 Y2.84533
X0.29000 Y2.84533
X0.29000 Y2.84467
X0.28933 Y2.84467
X0.28933 Y2.84400
X0.28867 Y2.84400
X0.28867 Y2.84333
X0.28800 Y2.84333
X0.28800 Y2.84267
X0.28733 Y2.84267
X0.28733 Y2.84200
X0.28667 Y2.84200
X0.28667 Y2.84133
X0.28600 Y2.84133
X0.28600 Y2.84067
G04 P0 ( dwell for no time -- G64 should not smooth over this point )
G00 Z0.08000 ( retract )

G00 X2.04200 Y2.81800 ( rapid move to begin. )
G01 Z-0.00800 F6.00000 ( plunge. )
G04 P0 ( dwell for no time -- G64 should not smooth over this point )
X2.04200 Y2.81800
X2.04200 Y2.81600
X2.04267 Y2.81600
X2.04267 Y2.81333
X2.04333 Y2.81333
X2.04333 Y2.79467
X2.04533 Y2.79467
X2.04533 Y2.79400
X2.04667 Y2.79400
X2.04667 Y2.79333
X2.06933 Y2.79333
X2.06933 Y2.79400
X2.07067 Y2.79400
X2.07067 Y2.79467
X2.07267 Y2.79467
X2.07267 Y2.79667
X2.07333 Y2.79667
X2.07333 Y2.80000
X2.07267 Y2.80000
X2.07267 Y2.80200
X2.07200 Y2.80200
X2.07200 Y2.80400
X2.07133 Y2.80400
X2.07133 Y2.80800
X2.07067 Y2.80800
X2.07067 Y2.81867
X2.07000 Y2.81867
X2.07000 Y2.82133
X2.06933 Y2.82133
X2.06933 Y2.82267
X2.06867 Y2.82267
X2.06867 Y2.82400
X2.06800 Y2.82400
X2.06800 Y2.82467
X2.04667 Y2.82467
X2.04667 Y2.82400
X2.04533 Y2.82400
X2.04533 Y2.82333
X2.04333 Y2.82333
X2.04333 Y2.82133
X2.04267 Y2.82133
X2.04267 Y2.82000
X2.04200 Y2.82000
X2.04200 Y2.81800
G04 P0 ( dwell for no time -- G64 should not smooth over this point )
G00 Z0.08000 ( retract )

G00 X0.77333 Y2.73133 ( rapid move to begin. )
G01 Z-0.00800 F6.00000 ( plunge. )
G04 P0 ( dwell for no time -- G64 should not smooth over this point )
X0.77333 Y2.73133
X0.77267 Y2.73133
X0.77267 Y2.73067
X0.77200 Y2.73067
X0.77200 Y2.73000
X0.77133 Y2.73000
X0.77133 Y2.72933
X0.77067 Y2.72933
X0.77067 Y2.72867
X0.77000 Y2.72867
X0.77000 Y2.72800
X0.76933 Y2.72800
X0.76933 Y2.72733
X0.76867 Y2.72733
X0.76867 Y2.72667
X0.76800 Y2.72667
X0.76800 Y2.72600
X0.76733 Y2.72600
X0.76733 Y2.72467
X0.76667 Y2.72467
X0.76667 Y2.72333
X0.76600 Y2.72333
X0.76600 Y2.72267
X0.64200 Y2.72267
X0.64200 Y2.72200
X0.63933 Y2.72200
X0.63933 Y2.72133
X0.63733 Y2.72133
X0.63733 Y2.72067
X0.63533 Y2.72067
X0.63533 Y2.72000
X0.63400 Y2.72000
X0.63400 Y2.71933
X0.63333 Y2.71933
X0.63333 Y2.71867
X0.63267 Y2.71867
X0.63267 Y2.71800
X0.63200 Y2.71800
X0.63200 Y2.71733
X0.63133 Y2.71733
X0.63133 Y2.71667
X0.63067 Y2.71667
X0.63067 Y2.71600
X0.63000 Y2.71600
X0.63000 Y2.71533
X0.62933 Y2.71533
X0.62933 Y2.71467
X0.62867 Y2.71467
X0.62867 Y2.71400
X0.62800 Y2.71400
X0.62800 Y2.71333
X0.62733 Y2.71333
X0.62733 Y2.71267
X0.62667 Y2.71267
X0.62667 Y2.71200
X0.62600 Y2.71200
X0.62600 Y2.71133
X0.62533 Y2.71133
X0.62533 Y2.71067
X0.62467 Y2.71067
X0.62467 Y2.71000
X0.62400 Y2.71000
X0.62400 Y2.70933
X0.62333 Y2.70933
X0.62333 Y2.70867
X0.62267 Y2.70867
X0.62267 Y2.70800
X0.62200 Y2.70800
X0.62200 Y2.70733
X0.62133 Y2.70733
X0.62133 Y2.70667
X0.62067 Y2.70667
X0.62067 Y2.70600
X0.62000 Y2.70600
X0.62000 Y2.70533
X0.61933 Y2.70533
X0.61933 Y2.70467
X0.61867 Y2.70467
X0.61867 Y2.70400
X0.61800 Y2.70400
X0.61800 Y2.70333
X0.61733 Y2.70333
X0.61733 Y2.70267
X0.61667 Y2.70267
X0.61667 Y2.70200
X0.61600 Y2.70200
X0.61600 Y2.70133
X0.61533 Y2.70133
X0.61533 Y2.70067
X0.61467 Y2.70067
X0.61467 Y2.70000
X0.61400 Y2.70000
X0.61400 Y2.69933
X0.61333 Y2.69933
X0.61333 Y2.69867
X0.61267 Y2.69867
X0.61267 Y2.69800
X0.61200 Y2.69800
X0.61200 Y2.69733
X0.61133 Y2.69733
X0.61133 Y2.69667
X0.61067 Y2.69667
X0.61067 Y2.69600
X0.61000 Y2.69600
X0.61000 Y2.69533
X0.60933 Y2.69533
X0.60933 Y2.69467
X0.60867 Y2.69467
X0.60867 Y2.69400
X0.60800 Y2.69400
X0.60800 Y2.69333
X0.60733 Y2.69333
X0.60733 Y2.69267
X0.60667 Y2.69267
X0.60667 Y2.69200
X0.60600 Y2.69200
X0.60600 Y2.69133
X0.60533 Y2.69133
X0.60533 Y2.69067
X0.60467 Y2.69067
X0.60467 Y2.69000
X0.60400 Y2.69000
X0.60400 Y2.68933
X0.60333 Y2.68933
X0.60333 Y2.68867
X0.60267 Y2.68867
X0.60267 Y2.68800
X0.60200 Y2.68800
X0.60200 Y2.68733
X0.60133 Y2.68733
X0.60133 Y2.68667
X0.60067 Y2.68667
X0.60067 Y2.68600
X0.60000 Y2.68600
X0.60000 Y2.68533
X0.59933 Y2.68533
X0.59933 Y2.68467
X0.59867 Y2.68467
X0.59867 Y2.68400
X0.59800 Y2.68400
X0.59800 Y2.68333
X0.59733 Y2.68333
X0.59733 Y2.68267
X0.59667 Y2.68267
X0.59667 Y2.68200
X0.59600 Y2.68200
X0.59600 Y2.68133
X0.59533 Y2.68133
X0.59533 Y2.68067
X0.59467 Y2.68067
X0.59467 Y2.68000
X0.59400 Y2.68000
X0.59400 Y2.67933
X0.59333 Y2.67933
X0.59333 Y2.67867
X0.59267 Y2.67867
X0.59267 Y2.67800
X0.59200 Y2.67800
X0.59200 Y2.67733
X0.59133 Y2.67733
X0.59133 Y2.67667
X0.59067 Y2.67667
X0.59067 Y2.67600
X0.59000 Y2.67600
X0.59000 Y2.67533
X0.58933 Y2.67533
X0.58933 Y2.67467
X0.58867 Y2.67467
X0.58867 Y2.67400
X0.58800 Y2.67400
X0.58800 Y2.67333
X0.58733 Y2.67333
X0.58733 Y2.67267
X0.58667 Y2.67267
X0.58667 Y2.67200
X0.58600 Y2.67200
X0.58600 Y2.67133
X0.58533 Y2.67133
X0.58533 Y2.67067
X0.58467 Y2.67067
X0.58467 Y2.67000
X0.58400 Y2.67000
X0.58400 Y2.66933
X0.58333 Y2.66933
X0.58333 Y2.66867
X0.58267 Y2.66867
X0.58267 Y2.66800
X0.58200 Y2.66800
X0.58200 Y2.66733
X0.58133 Y2.66733
X0.58133 Y2.66667
X0.58067 Y2.66667
X0.58067 Y2.66600
X0.58000 Y2.66600
X0.58000 Y2.66533
X0.57933 Y2.66533
X0.57933 Y2.66467
X0.57867 Y2.66467
X0.57867 Y2.66400
X0.57800 Y2.66400
X0.57800 Y2.66333
X0.57733 Y2.66333
X0.57733 Y2.66267
X0.57667 Y2.66267
X0.57667 Y2.66200
X0.57600 Y2.66200
X0.57600 Y2.66133
X0.57533 Y2.66133
X0.57533 Y2.66067
X0.57467 Y2.66067
X0.57467 Y2.66000
X0.57400 Y2.66000
X0.57400 Y2.65933
X0.57333 Y2.65933
X0.57333 Y2.65867
X0.57267 Y2.65867
X0.57267 Y2.65800
X0.57200 Y2.65800
X0.57200 Y2.65733
X0.57133 Y2.65733
X0.57133 Y2.65667
X0.57067 Y2.65667
X0.57067 Y2.65600
X0.57000 Y2.65600
X0.57000 Y2.65533
X0.56933 Y2.65533
X0.56933 Y2.65467
X0.56867 Y2.65467
X0.56867 Y2.65400
X0.56800 Y2.65400
X0.56800 Y2.65333
X0.56733 Y2.65333
X0.56733 Y2.65267
X0.56667 Y2.65267
X0.56667 Y2.65200
X0.56600 Y2.65200
X0.56600 Y2.65133
X0.56533 Y2.65133
X0.56533 Y2.65067
X0.56467 Y2.65067
X0.56467 Y2.65000
X0.56400 Y2.65000
X0.56400 Y2.64933
X0.56333 Y2.64933
X0.56333 Y2.64867
X0.56267 Y2.64867
X0.56267 Y2.64800
X0.56200 Y2.64800
X0.56200 Y2.64733
X0.56133 Y2.64733
X0.56133 Y2.64667
X0.56067 Y2.64667
X0.56067 Y2.64600
X0.56000 Y2.64600
X0.56000 Y2.64533
X0.55933 Y2.64533
X0.55933 Y2.64467
X0.55867 Y2.64467
X0.55867 Y2.64400
X0.55800 Y2.64400
X0.55800 Y2.64333
X0.55733 Y2.64333
X0.55733 Y2.64267
X0.55667 Y2.64267
X0.55667 Y2.64200
X0.55600 Y2.64200
X0.55600 Y2.64133
X0.55533 Y2.64133
X0.55533 Y2.64067
X0.55467 Y2.64067
X0.55467 Y2.64000
X0.55400 Y2.64000
X0.55400 Y2.63933
X0.55333 Y2.63933
X0.55333 Y2.63867
X0.55267 Y2.63867
X0.55267 Y2.63800
X0.55200 Y2.63800
X0.55200 Y2.63733
X0.55133 Y2.63733
X0.55133 Y2.63667
X0.55067 Y2.63667
X0.55067 Y2.63600
X0.55000 Y2.63600
X0.55000 Y2.63533
X0.54933 Y2.63533
X0.54933 Y2.63467
X0.54867 Y2.63467
X0.54867 Y2.63400
X0.54800 Y2.63400
X0.54800 Y2.63333
X0.54733 Y2.63333
X0.54733 Y2.63267
X0.54667 Y2.63267
X0.54667 Y2.63200
X0.54600 Y2.63200
X0.54600 Y2.63133
X0.54533 Y2.63133
X0.54533 Y2.63067
X0.54467 Y2.63067
X0.54467 Y2.63000
X0.54400 Y2.63000
X0.54400 Y2.62933
X0.54333 Y2.62933
X0.54333 Y2.62867
X0.54267 Y2.62867
X0.54267 Y2.62800
X0.54200 Y2.62800
X0.54200 Y2.62733
X0.54133 Y2.62733
X0.54133 Y2.62667
X0.54067 Y2.62667
X0.54067 Y2.62600
X0.54000 Y2.62600
X0.54000 Y2.62533
X0.53933 Y2.62533
X0.53933 Y2.62467
X0.53867 Y2.62467
X0.53867 Y2.62400
X0.53800 Y2.62400
X0.53800 Y2.62333
X0.53733 Y2.62333
X0.53733 Y2.62267
X0.53667 Y2.62267
X0.53667 Y2.62200
X0.53600 Y2.62200
X0.53600 Y2.62133
X0.53533 Y2.62133
X0.53533 Y2.62067
X0.53467 Y2.62067
X0.53467 Y2.62000
X0.53400 Y2.62000
X0.53400 Y2.61933
X0.53333 Y2.61933
X0.53333 Y2.61867
X0.53267 Y2.61867
X0.53267 Y2.61800
X0.53200 Y2.61800
X0.53200 Y2.61733
X0.53133 Y2.61733
X0.53133 Y2.61667
X0.53067 Y2.61667
X0.53067 Y2.61600
X0.53000 Y2.61600
X0.53000 Y2.61533
X0.52933 Y2.61533
X0.52933 Y2.61467
X0.52867 Y2.61467
X0.52867 Y2.61400
X0.52800 Y2.61400
X0.52800 Y2.61333
X0.52733 Y2.61333
X0.52733 Y2.61267
X0.52667 Y2.61267
X0.52667 Y2.61200
X0.52600 Y2.61200
X0.52600 Y2.61133
X0.52533 Y2.61133
X0.52533 Y2.61067
X0.52467 Y2.61067
X0.52467 Y2.61000
X0.52400 Y2.61000
X0.52400 Y2.60933
X0.52333 Y2.60933
X0.52333 Y2.60867
X0.52267 Y2.60867
X0.52267 Y2.60800
X0.52200 Y2.60800
X0.52200 Y2.60733
X0.52133 Y2.60733
X0.52133 Y2.60667
X0.52067 Y2.60667
X0.52067 Y2.60600
X0.52000 Y2.60600
X0.52000 Y2.60533
X0.51933 Y2.60533
X0.51933 Y2.60467
X0.51867 Y2.60467
X0.51867 Y2.60400
X0.51800 Y2.60400
X0.51800 Y2.60333
X0.51733 Y2.60333
X0.51733 Y2.60267
X0.51667 Y2.60267
X0.51667 Y2.60200
X0.51600 Y2.60200
X0.51600 Y2.60133
X0.51533 Y2.60133
X0.51533 Y2.60067
X0.51467 Y2.60067
X0.51467 Y2.60000
X0.51400 Y2.60000
X0.51400 Y2.59933
X0.51333 Y2.59933
X0.51333 Y2.59867
X0.51267 Y2.59867
X0.51267 Y2.59800
X0.51200 Y2.59800
X0.51200 Y2.59733
X0.51133 Y2.59733
X0.51133 Y2.59667
X0.51067 Y2.59667
X0.51067 Y2.59600
X0.51000 Y2.59600
X0.51000 Y2.59533
X0.50933 Y2.59533
X0.50933 Y2.59467
X0.50867 Y2.59467
X0.50867 Y2.59400
X0.50800 Y2.59400
X0.50800 Y2.59333
X0.50733 Y2.59333
X0.50733 Y2.59267
X0.50667 Y2.59267
X0.50667 Y2.59200
X0.50600 Y2.59200
X0.50600 Y2.59133
X0.50533 Y2.59133
X0.50533 Y2.59067
X0.50467 Y2.59067
X0.50467 Y2.59000
X0.50400 Y2.59000
X0.50400 Y2.58933
X0.50333 Y2.58933
X0.50333 Y2.58867
X0.50267 Y2.58867
X0.50267 Y2.58800
X0.50200 Y2.58800
X0.50200 Y2.58733
X0.50133 Y2.58733
X0.50133 Y2.58667
X0.50067 Y2.58667
X0.50067 Y2.58600
X0.50000 Y2.58600
X0.50000 Y2.58533
X0.49933 Y2.58533
X0.49933 Y2.58467
X0.49867 Y2.58467
X0.49867 Y2.58400
X0.49800 Y2.58400
X0.49800 Y2.58333
X0.49733 Y2.58333
X0.49733 Y2.58267
X0.49667 Y2.58267
X0.49667 Y2.58200
X0.49600 Y2.58200
X0.49600 Y2.58133
X0.49533 Y2.58133
X0.49533 Y2.58067
X0.49467 Y2.58067
X0.49467 Y2.58000
X0.49400 Y2.58000
X0.49400 Y2.57933
X0.49333 Y2.57933
X0.49333 Y2.57867
X0.49267 Y2.57867
X0.49267 Y2.57800
X0.49200 Y2.57800
X0.49200 Y2.57733
X0.49133 Y2.57733
X0.49133 Y2.57667
X0.49067 Y2.57667
X0.49067 Y2.57600
X0.49000 Y2.57600
X0.49000 Y2.57533
X0.48933 Y2.57533
X0.48933 Y2.57467
X0.48867 Y2.57467
X0.48867 Y2.57400
X0.48800 Y2.57400
X0.48800 Y2.57333
X0.48733 Y2.57333
X0.48733 Y2.57267
X0.48667 Y2.57267
X0.48667 Y2.57200
X0.48600 Y2.57200
X0.48600 Y2.57133
X0.48533 Y2.57133
X0.48533 Y2.57067
X0.48467 Y2.57067
X0.48467 Y2.57000
X0.48400 Y2.57000
X0.48400 Y2.56933
X0.48333 Y2.56933
X0.48333 Y2.56867
X0.48267 Y2.56867
X0.48267 Y2.56800
X0.48200 Y2.56800
X0.48200 Y2.56733
X0.48133 Y2.56733
X0.48133 Y2.56667
X0.48067 Y2.56667
X0.48067 Y2.56600
X0.48000 Y2.56600
X0.48000 Y2.56533
X0.47933 Y2.56533
X0.47933 Y2.56467
X0.47867 Y2.56467
X0.47867 Y2.56400
X0.47800 Y2.56400
X0.47800 Y2.56333
X0.47733 Y2.56333
X0.47733 Y2.56267
X0.47667 Y2.56267
X0.47667 Y2.56200
X0.47600 Y2.56200
X0.47600 Y2.56133
X0.47533 Y2.56133
X0.47533 Y2.56067
X0.47467 Y2.56067
X0.47467 Y2.56000
X0.47400 Y2.56000
X0.47400 Y2.55933
X0.47333 Y2.55933
X0.47333 Y2.55867
X0.47267 Y2.55867
X0.47267 Y2.55800
X0.47200 Y2.55800
X0.47200 Y2.55733
X0.47133 Y2.55733
X0.47133 Y2.55667
X0.47067 Y2.55667
X0.47067 Y2.55600
X0.47000 Y2.55600
X0.47000 Y2.55533
X0.46933 Y2.55533
X0.46933 Y2.55467
X0.46867 Y2.55467
X0.46867 Y2.55400
X0.46800 Y2.55400
X0.46800 Y2.55333
X0.46733 Y2.55333
X0.46733 Y2.55267
X0.46667 Y2.55267
X0.46667 Y2.55200
X0.46600 Y2.55200
X0.46600 Y2.55133
X0.46533 Y2.55133
X0.46533 Y2.55067
X0.46467 Y2.55067
X0.46467 Y2.55000
X0.46400 Y2.55000
X0.46400 Y2.54933
X0.46333 Y2.54933
X0.46333 Y2.54867
X0.46267 Y2.54867
X0.46267 Y2.54800
X0.46200 Y2.54800
X0.46200 Y2.54733
X0.46133 Y2.54733
X0.46133 Y2.54667
X0.46067 Y2.54667
X0.46067 Y2.54600
X0.46000 Y2.54600
X0.46000 Y2.54533
X0.45933 Y2.54533
X0.45933 Y2.54467
X0.45867 Y2.54467
X0.45867 Y2.54400
X0.45800 Y2.54400
X0.45800 Y2.54333
X0.45733 Y2.54333
X0.45733 Y2.54267
X0.45667 Y2.54267
X0.45667 Y2.54200
X0.45600 Y2.54200
X0.45600 Y2.54133
X0.45533 Y2.54133
X0.45533 Y2.54067
X0.45467 Y2.54067
X0.45467 Y2.54000
X0.45400 Y2.54000
X0.45400 Y2.53933
X0.45333 Y2.53933
X0.45333 Y2.53867
X0.45267 Y2.53867
X0.45267 Y2.53800
X0.45200 Y2.53800
X0.45200 Y2.53733
X0.45133 Y2.53733
X0.45133 Y2.53667
X0.45067 Y2.53667
X0.45067 Y2.53600
X0.45000 Y2.53600
X0.45000 Y2.53533
X0.44933 Y2.53533
X0.44933 Y2.53467
X0.44867 Y2.53467
X0.44867 Y2.53400
X0.44800 Y2.53400
X0.44800 Y2.53333
X0.44733 Y2.53333
X0.44733 Y2.53267
X0.44667 Y2.53267
X0.44667 Y2.53200
X0.44600 Y2.53200
X0.44600 Y2.53133
X0.44533 Y2.53133
X0.44533 Y2.53067
X0.44467 Y2.53067
X0.44467 Y2.53000
X0.44400 Y2.53000
X0.44400 Y2.52933
X0.44333 Y2.52933
X0.44333 Y2.52867
X0.44267 Y2.52867
X0.44267 Y2.52800
X0.44200 Y2.52800
X0.44200 Y2.52733
X0.44133 Y2.52733
X0.44133 Y2.52667
X0.44067 Y2.52667
X0.44067 Y2.52600
X0.44000 Y2.52600
X0.44000 Y2.52533
X0.43933 Y2.52533
X0.43933 Y2.52467
X0.43867 Y2.52467
X0.43867 Y2.52400
X0.43800 Y2.52400
X0.43800 Y2.52333
X0.43733 Y2.52333
X0.43733 Y2.52267
X0.43667 Y2.52267
X0.43667 Y2.52200
X0.43600 Y2.52200
X0.43600 Y2.52133
X0.43533 Y2.52133
X0.43533 Y2.52067
X0.43467 Y2.52067
X0.43467 Y2.52000
X0.43400 Y2.52000
X0.43400 Y2.51933
X0.43333 Y2.51933
X0.43333 Y2.51867
X0.43267 Y2.51867
X0.43267 Y2.51800
X0.43200 Y2.51800
X0.43200 Y2.51733
X0.43133 Y2.51733
X0.43133 Y2.51667
X0.43067 Y2.51667
X0.43067 Y2.51600
X0.43000 Y2.51600
X0.43000 Y2.51533
X0.42933 Y2.51533
X0.42933 Y2.51467
X0.42867 Y2.51467
X0.42867 Y2.51400
X0.42800 Y2.51400
X0.42800 Y2.51333
X0.42733 Y2.51333
X0.42733 Y2.51267
X0.42667 Y2.51267
X0.42667 Y2.51200
X0.42600 Y2.51200
X0.42600 Y2.51133
X0.42533 Y2.51133
X0.42533 Y2.51067
X0.42467 Y2.51067
X0.42467 Y2.51000
X0.42400 Y2.51000
X0.42400 Y2.50933
X0.42333 Y2.50933
X0.42333 Y2.50867
X0.42267 Y2.50867
X0.42267 Y2.50800
X0.42200 Y2.50800
X0.42200 Y2.50733
X0.42133 Y2.50733
X0.42133 Y2.50667
X0.42067 Y2.50667
X0.42067 Y2.50600
X0.42000 Y2.50600
X0.42000 Y2.50533
X0.41933 Y2.50533
X0.41933 Y2.50467
X0.41867 Y2.50467
X0.41867 Y2.50400
X0.41800 Y2.50400
X0.41800 Y2.50333
X0.41733 Y2.50333
X0.41733 Y2.50267
X0.41667 Y2.50267
X0.41667 Y2.50200
X0.41600 Y2.50200
X0.41600 Y2.50133
X0.41533 Y2.50133
X0.41533 Y2.50067
X0.41467 Y2.50067
X0.41467 Y2.50000
X0.41400 Y2.50000
X0.41400 Y2.49933
X0.41333 Y2.49933
X0.41333 Y2.49867
X0.41267 Y2.49867
X0.41267 Y2.49800
X0.41200 Y2.49800
X0.41200 Y2.49733
X0.41133 Y2.49733
X0.41133 Y2.49667
X0.41067 Y2.49667
X0.41067 Y2.49600
X0.41000 Y2.49600
X0.41000 Y2.49533
X0.40933 Y2.49533
X0.40933 Y2.49467
X0.40867 Y2.49467
X0.40867 Y2.49400
X0.40800 Y2.49400
X0.40800 Y2.49333
X0.40733 Y2.49333
X0.40733 Y2.49267
X0.40667 Y2.49267
X0.40667 Y2.49200
X0.40600 Y2.49200
X0.40600 Y2.49133
X0.40533 Y2.49133
X0.40533 Y2.49067
X0.40467 Y2.49067
X0.40467 Y2.49000
X0.40400 Y2.49000
X0.40400 Y2.48933
X0.40333 Y2.48933
X0.40333 Y2.48867
X0.40267 Y2.48867
X0.40267 Y2.48800
X0.40200 Y2.48800
X0.40200 Y2.48733
X0.40133 Y2.48733
X0.40133 Y2.48667
X0.40067 Y2.48667
X0.40067 Y2.48600
X0.40000 Y2.48600
X0.40000 Y2.48533
X0.39933 Y2.48533
X0.39933 Y2.48467
X0.39867 Y2.48467
X0.39867 Y2.48400
X0.39800 Y2.48400
X0.39800 Y2.48333
X0.39733 Y2.48333
X0.39733 Y2.48267
X0.39667 Y2.48267
X0.39667 Y2.48200
X0.39600 Y2.48200
X0.39600 Y2.48133
X0.39533 Y2.48133
X0.39533 Y2.48067
X0.39467 Y2.48067
X0.39467 Y2.48000
X0.39400 Y2.48000
X0.39400 Y2.47933
X0.39333 Y2.47933
X0.39333 Y2.47867
X0.39267 Y2.47867
X0.39267 Y2.47800
X0.39200 Y2.47800
X0.39200 Y2.47733
