( pcb2gcode 1.1.4 )

G94     ( Inches per minute feed rate. )
G20     ( Units == INCHES.             )
G90     ( Absolute coordinates.        )
S30000  ( RPM spindle speed.           )
M3      ( Spindle on clockwise.        )

G64 P0.00500 ( set maximum deviation from commanded toolpath )

G04 P0 ( dwell for no time -- G64 should not smooth over this point )
G00 Z0.08000 ( retract )

G00 X0.06700 Y1.62760 ( rapid move to begin. )
G01 Z-0.00800 F6.00000 ( plunge. )
G04 P0 ( dwell for no time -- G64 should not smooth over this point )
X0.06700 Y1.62760
X0.06600 Y1.62760
X0.06600 Y0.05960
X0.06700 Y0.05960
X0.06700 Y0.05760
X0.06800 Y0.05760
X0.06800 Y0.05560
X0.07000 Y0.05560
X0.07000 Y0.05460
X0.07200 Y0.05460
X0.07200 Y0.05360
X0.87800 Y0.05360
X0.87800 Y0.05460
X0.88000 Y0.05460
X0.88000 Y0.05560
X0.88200 Y0.05560
X0.88200 Y0.05760
X0.88300 Y0.05760
X0.88300 Y0.05960
X0.88400 Y0.05960
X0.88400 Y1.62760
X0.88300 Y1.62760
X0.88300 Y1.62960
X0.88200 Y1.62960
X0.88200 Y1.63160
X0.88000 Y1.63160
X0.88000 Y1.63260
X0.87800 Y1.63260
X0.87800 Y1.63360
X0.07200 Y1.63360
X0.07200 Y1.63260
X0.07000 Y1.63260
X0.07000 Y1.63160
X0.06800 Y1.63160
X0.06800 Y1.62960
X0.06700 Y1.62960
X0.06700 Y1.62760
G04 P0 ( dwell for no time -- G64 should not smooth over this point )
G00 Z0.08000 ( retract )

G00 X0.56000 Y1.54660 ( rapid move to begin. )
G01 Z-0.00800 F6.00000 ( plunge. )
G04 P0 ( dwell for no time -- G64 should not smooth over this point )
X0.56000 Y1.54660
X0.55900 Y1.54660
X0.55900 Y1.54560
X0.55800 Y1.54560
X0.55800 Y1.54460
X0.55700 Y1.54460
X0.55700 Y1.54360
X0.55600 Y1.54360
X0.55600 Y1.54260
X0.55500 Y1.54260
X0.55500 Y1.54160
X0.55400 Y1.54160
X0.55400 Y1.54060
X0.55300 Y1.54060
X0.55300 Y1.53960
X0.55200 Y1.53960
X0.55200 Y1.53860
X0.55100 Y1.53860
X0.55100 Y1.53760
X0.55000 Y1.53760
X0.55000 Y1.53660
X0.54900 Y1.53660
X0.54900 Y1.53560
X0.54800 Y1.53560
X0.54800 Y1.50760
X0.54700 Y1.50760
X0.54700 Y1.50660
X0.54600 Y1.50660
X0.54600 Y1.50560
X0.54500 Y1.50560
X0.54500 Y1.50460
X0.54400 Y1.50460
X0.54400 Y1.50260
X0.54300 Y1.50260
X0.54300 Y1.50160
X0.54200 Y1.50160
X0.54200 Y1.50060
X0.54100 Y1.50060
X0.54100 Y1.49960
X0.54000 Y1.49960
X0.54000 Y1.49860
X0.53900 Y1.49860
X0.53900 Y1.49760
X0.53800 Y1.49760
X0.53800 Y1.49660
X0.53700 Y1.49660
X0.53700 Y1.49560
X0.53600 Y1.49560
X0.53600 Y1.49460
X0.53500 Y1.49460
X0.53500 Y1.49360
X0.53400 Y1.49360
X0.53400 Y1.49260
X0.53300 Y1.49260
X0.53300 Y1.49160
X0.53200 Y1.49160
X0.53200 Y1.49060
X0.53100 Y1.49060
X0.53100 Y1.48960
X0.53000 Y1.48960
X0.53000 Y1.48860
X0.52900 Y1.48860
X0.52900 Y1.48760
X0.52800 Y1.48760
X0.52800 Y1.48660
X0.52700 Y1.48660
X0.52700 Y1.48560
X0.52600 Y1.48560
X0.52600 Y1.48360
X0.52500 Y1.48360
X0.52500 Y1.48260
X0.52400 Y1.48260
X0.52400 Y1.48160
X0.52300 Y1.48160
X0.52300 Y1.48060
X0.52200 Y1.48060
X0.52200 Y1.47960
X0.52100 Y1.47960
X0.52100 Y1.47860
X0.52000 Y1.47860
X0.52000 Y1.47760
X0.51900 Y1.47760
X0.51900 Y1.47660
X0.51800 Y1.47660
X0.51800 Y1.31160
X0.51900 Y1.31160
X0.51900 Y1.30960
X0.52000 Y1.30960
X0.52000 Y1.30760
X0.52100 Y1.30760
X0.52100 Y1.30660
X0.52200 Y1.30660
X0.52200 Y1.30560
X0.52300 Y1.30560
X0.52300 Y1.30460
X0.52400 Y1.30460
X0.52400 Y1.30360
X0.52500 Y1.30360
X0.52500 Y1.30260
X0.52600 Y1.30260
X0.52600 Y1.30160
X0.52700 Y1.30160
X0.52700 Y1.30060
X0.52800 Y1.30060
X0.52800 Y1.29960
X0.52900 Y1.29960
X0.52900 Y1.29860
X0.53000 Y1.29860
X0.53000 Y1.29760
X0.53100 Y1.29760
X0.53100 Y1.29660
X0.53200 Y1.29660
X0.53200 Y1.29560
X0.53300 Y1.29560
X0.53300 Y1.29460
X0.53400 Y1.29460
X0.53400 Y1.29360
X0.53500 Y1.29360
X0.53500 Y1.29260
X0.53600 Y1.29260
X0.53600 Y1.29160
X0.53700 Y1.29160
X0.53700 Y1.29060
X0.53800 Y1.29060
X0.53800 Y1.28960
X0.53900 Y1.28960
X0.53900 Y1.28860
X0.54000 Y1.28860
X0.54000 Y1.28760
X0.54100 Y1.28760
X0.54100 Y1.28660
X0.54200 Y1.28660
X0.54200 Y1.28560
X0.54300 Y1.28560
X0.54300 Y1.28460
X0.54400 Y1.28460
X0.54400 Y1.28360
X0.54500 Y1.28360
X0.54500 Y1.28260
X0.54600 Y1.28260
X0.54600 Y1.28160
X0.54700 Y1.28160
X0.54700 Y1.28060
X0.54800 Y1.28060
X0.54800 Y1.27960
X0.54900 Y1.27960
X0.54900 Y1.27860
X0.55000 Y1.27860
X0.55000 Y1.27760
X0.55100 Y1.27760
X0.55100 Y1.27660
X0.55200 Y1.27660
X0.55200 Y1.27560
X0.55300 Y1.27560
X0.55300 Y1.27460
X0.55400 Y1.27460
X0.55400 Y1.27360
X0.55500 Y1.27360
X0.55500 Y1.27260
X0.55600 Y1.27260
X0.55600 Y1.27160
X0.55700 Y1.27160
X0.55700 Y1.27060
X0.55800 Y1.27060
X0.55800 Y1.26960
X0.55900 Y1.26960
X0.55900 Y1.26860
X0.56000 Y1.26860
X0.56000 Y1.26760
X0.56100 Y1.26760
X0.56100 Y1.26660
X0.56200 Y1.26660
X0.56200 Y1.26560
X0.56300 Y1.26560
X0.56300 Y1.26460
X0.56400 Y1.26460
X0.56400 Y1.26360
X0.56500 Y1.26360
X0.56500 Y1.26260
X0.56600 Y1.26260
X0.56600 Y1.26160
X0.56700 Y1.26160
X0.56700 Y1.26060
X0.56800 Y1.26060
X0.56800 Y1.25960
X0.56900 Y1.25960
X0.56900 Y1.25860
X0.57000 Y1.25860
X0.57000 Y1.25760
X0.57100 Y1.25760
X0.57100 Y1.25660
X0.57200 Y1.25660
X0.57200 Y1.25560
X0.57300 Y1.25560
X0.57300 Y1.25460
X0.57400 Y1.25460
X0.57400 Y1.25360
X0.57500 Y1.25360
X0.57500 Y1.25260
X0.57600 Y1.25260
X0.57600 Y1.25160
X0.57700 Y1.25160
X0.57700 Y1.25060
X0.57800 Y1.25060
X0.57800 Y1.24960
X0.57900 Y1.24960
X0.57900 Y1.24860
X0.58000 Y1.24860
X0.58000 Y1.24760
X0.58100 Y1.24760
X0.58100 Y1.24660
X0.58200 Y1.24660
X0.58200 Y1.24560
X0.58300 Y1.24560
X0.58300 Y1.24460
X0.58400 Y1.24460
X0.58400 Y1.24360
X0.58500 Y1.24360
X0.58500 Y1.24260
X0.58600 Y1.24260
X0.58600 Y1.24160
X0.58700 Y1.24160
X0.58700 Y1.24060
X0.58800 Y1.24060
X0.58800 Y1.23960
X0.58900 Y1.23960
X0.58900 Y1.23860
X0.59000 Y1.23860
X0.59000 Y1.23760
X0.59100 Y1.23760
X0.59100 Y1.23660
X0.59200 Y1.23660
X0.59200 Y1.23560
X0.59300 Y1.23560
X0.59300 Y1.23460
X0.59400 Y1.23460
X0.59400 Y1.23360
X0.59500 Y1.23360
X0.59500 Y1.23260
X0.59600 Y1.23260
X0.59600 Y1.23160
X0.59700 Y1.23160
X0.59700 Y1.23060
X0.59800 Y1.23060
X0.59800 Y1.22960
X0.59900 Y1.22960
X0.59900 Y1.22860
X0.60000 Y1.22860
X0.60000 Y1.22760
X0.60100 Y1.22760
X0.60100 Y1.22660
X0.60200 Y1.22660
X0.60200 Y1.22560
X0.60300 Y1.22560
X0.60300 Y1.22460
X0.60400 Y1.22460
X0.60400 Y1.22360
X0.60500 Y1.22360
X0.60500 Y1.22260
X0.60600 Y1.22260
X0.60600 Y1.22160
X0.60700 Y1.22160
X0.60700 Y1.22060
X0.60800 Y1.22060
X0.60800 Y1.21960
X0.60900 Y1.21960
X0.60900 Y1.21860
X0.61000 Y1.21860
X0.61000 Y1.21760
X0.61100 Y1.21760
X0.61100 Y1.21660
X0.61200 Y1.21660
X0.61200 Y1.21560
X0.61300 Y1.21560
X0.61300 Y1.21460
X0.61400 Y1.21460
X0.61400 Y1.21360
X0.61500 Y1.21360
X0.61500 Y1.21260
X0.61600 Y1.21260
X0.61600 Y1.21160
X0.61700 Y1.21160
X0.61700 Y1.21060
X0.61800 Y1.21060
X0.61800 Y1.20960
X0.61900 Y1.20960
X0.61900 Y1.20860
X0.62000 Y1.20860
X0.62000 Y1.20760
X0.62100 Y1.20760
X0.62100 Y1.20660
X0.62200 Y1.20660
X0.62200 Y1.20560
X0.62300 Y1.20560
X0.62300 Y1.20460
X0.62400 Y1.20460
X0.62400 Y1.20360
X0.62500 Y1.20360
X0.62500 Y1.20260
X0.62600 Y1.20260
X0.62600 Y1.20160
X0.62700 Y1.20160
X0.62700 Y1.20060
X0.62800 Y1.20060
X0.62800 Y1.19960
X0.62900 Y1.19960
X0.62900 Y1.19860
X0.63000 Y1.19860
X0.63000 Y1.19760
X0.63100 Y1.19760
X0.63100 Y1.19660
X0.63200 Y1.19660
X0.63200 Y1.19560
X0.63300 Y1.19560
X0.63300 Y1.19460
X0.63400 Y1.19460
X0.63400 Y1.19360
X0.63500 Y1.19360
X0.63500 Y1.19260
X0.63600 Y1.19260
X0.63600 Y1.19160
X0.63700 Y1.19160
X0.63700 Y1.19060
X0.63800 Y1.19060
X0.63800 Y1.18960
X0.63900 Y1.18960
X0.63900 Y1.18860
X0.64000 Y1.18860
X0.64000 Y1.18760
X0.64100 Y1.18760
X0.64100 Y1.18660
X0.64200 Y1.18660
X0.64200 Y1.18560
X0.64300 Y1.18560
X0.64300 Y1.18460
X0.64400 Y1.18460
X0.64400 Y1.18360
X0.64500 Y1.18360
X0.64500 Y1.18260
X0.64600 Y1.18260
X0.64600 Y1.18160
X0.64700 Y1.18160
X0.64700 Y1.18060
X0.64800 Y1.18060
X0.64800 Y1.17960
X0.64900 Y1.17960
X0.64900 Y1.17860
X0.65000 Y1.17860
X0.65000 Y1.17760
X0.65100 Y1.17760
X0.65100 Y1.17660
X0.65200 Y1.17660
X0.65200 Y1.17560
X0.65300 Y1.17560
X0.65300 Y1.17460
X0.65400 Y1.17460
X0.65400 Y1.17360
X0.65500 Y1.17360
X0.65500 Y1.17260
X0.65600 Y1.17260
X0.65600 Y1.17160
X0.65700 Y1.17160
X0.65700 Y1.17060
X0.65800 Y1.17060
X0.65800 Y1.16960
X0.65900 Y1.16960
X0.65900 Y1.16860
X0.66000 Y1.16860
X0.66000 Y1.16760
X0.66100 Y1.16760
X0.66100 Y1.16660
X0.66200 Y1.16660
X0.66200 Y1.16560
X0.66300 Y1.16560
X0.66300 Y1.16460
X0.66400 Y1.16460
X0.66400 Y1.16360
X0.66500 Y1.16360
X0.66500 Y1.16260
X0.66600 Y1.16260
X0.66600 Y1.16160
X0.66700 Y1.16160
X0.66700 Y1.16060
X0.66800 Y1.16060
X0.66800 Y0.57760
X0.66700 Y0.57760
X0.66700 Y0.57660
X0.66600 Y0.57660
X0.66600 Y0.57560
X0.66500 Y0.57560
X0.66500 Y0.57460
X0.66400 Y0.57460
X0.66400 Y0.57360
X0.66300 Y0.57360
X0.66300 Y0.57260
X0.66200 Y0.57260
X0.66200 Y0.57160
X0.66100 Y0.57160
X0.66100 Y0.57060
X0.66000 Y0.57060
X0.66000 Y0.56960
X0.65900 Y0.56960
X0.65900 Y0.56860
X0.65800 Y0.56860
X0.65800 Y0.56760
X0.65700 Y0.56760
X0.65700 Y0.56660
X0.65600 Y0.56660
X0.65600 Y0.56560
X0.65500 Y0.56560
X0.65500 Y0.56460
X0.65400 Y0.56460
X0.65400 Y0.56360
X0.65300 Y0.56360
X0.65300 Y0.56260
X0.65200 Y0.56260
X0.65200 Y0.56160
X0.65100 Y0.56160
X0.65100 Y0.56060
X0.65000 Y0.56060
X0.65000 Y0.55960
X0.64900 Y0.55960
X0.64900 Y0.55860
X0.64800 Y0.55860
X0.64800 Y0.55760
X0.64700 Y0.55760
X0.64700 Y0.55660
X0.64600 Y0.55660
X0.64600 Y0.55560
X0.64500 Y0.55560
X0.64500 Y0.55460
X0.64400 Y0.55460
X0.64400 Y0.55360
X0.64300 Y0.55360
X0.64300 Y0.55260
X0.64200 Y0.55260
X0.64200 Y0.55160
X0.64100 Y0.55160
X0.64100 Y0.55060
X0.64000 Y0.55060
X0.64000 Y0.54960
X0.63900 Y0.54960
X0.63900 Y0.54860
X0.63800 Y0.54860
X0.63800 Y0.54760
X0.63700 Y0.54760
X0.63700 Y0.54660
X0.63600 Y0.54660
X0.63600 Y0.54560
X0.63500 Y0.54560
X0.63500 Y0.54460
X0.63400 Y0.54460
X0.63400 Y0.54360
X0.63300 Y0.54360
X0.63300 Y0.54260
X0.63200 Y0.54260
X0.63200 Y0.54160
X0.63100 Y0.54160
X0.63100 Y0.54060
X0.63000 Y0.54060
X0.63000 Y0.53960
X0.62900 Y0.53960
X0.62900 Y0.53860
X0.62800 Y0.53860
X0.62800 Y0.53760
X0.62700 Y0.53760
X0.62700 Y0.53660
X0.62600 Y0.53660
X0.62600 Y0.53560
X0.62500 Y0.53560
X0.62500 Y0.53460
X0.62400 Y0.53460
X0.62400 Y0.53360
X0.62300 Y0.53360
X0.62300 Y0.53260
X0.62200 Y0.53260
X0.62200 Y0.53160
X0.62100 Y0.53160
X0.62100 Y0.53060
X0.62000 Y0.53060
X0.62000 Y0.52960
X0.61900 Y0.52960
X0.61900 Y0.52860
X0.61800 Y0.52860
X0.61800 Y0.52760
X0.61700 Y0.52760
X0.61700 Y0.52660
X0.61600 Y0.52660
X0.61600 Y0.52560
X0.61500 Y0.52560
X0.61500 Y0.52460
X0.61400 Y0.52460
X0.61400 Y0.52360
X0.61300 Y0.52360
X0.61300 Y0.52260
X0.61200 Y0.52260
X0.61200 Y0.52160
X0.61100 Y0.52160
X0.61100 Y0.52060
X0.61000 Y0.52060
X0.61000 Y0.51960
X0.60900 Y0.51960
X0.60900 Y0.51860
X0.60800 Y0.51860
X0.60800 Y0.51760
X0.60700 Y0.51760
X0.60700 Y0.51660
X0.60600 Y0.51660
X0.60600 Y0.51560
X0.60500 Y0.51560
X0.60500 Y0.51460
X0.60400 Y0.51460
X0.60400 Y0.51360
X0.60300 Y0.51360
X0.60300 Y0.51260
X0.60200 Y0.51260
X0.60200 Y0.51160
X0.60100 Y0.51160
X0.60100 Y0.51060
X0.60000 Y0.51060
X0.60000 Y0.50960
X0.59900 Y0.50960
X0.59900 Y0.50860
X0.59800 Y0.50860
X0.59800 Y0.50760
X0.59700 Y0.50760
X0.59700 Y0.50660
X0.59600 Y0.50660
X0.59600 Y0.50560
X0.59500 Y0.50560
X0.59500 Y0.50460
X0.59400 Y0.50460
X0.59400 Y0.50360
X0.59300 Y0.50360
X0.59300 Y0.50260
X0.59200 Y0.50260
X0.59200 Y0.50160
X0.59100 Y0.50160
X0.59100 Y0.50060
X0.59000 Y0.50060
X0.59000 Y0.49960
X0.58900 Y0.49960
X0.58900 Y0.49860
X0.58800 Y0.49860
X0.58800 Y0.49760
X0.58700 Y0.49760
X0.58700 Y0.49660
X0.58600 Y0.49660
X0.58600 Y0.49560
X0.58500 Y0.49560
X0.58500 Y0.49460
X0.58400 Y0.49460
X0.58400 Y0.49360
X0.58300 Y0.49360
X0.58300 Y0.49260
X0.58200 Y0.49260
X0.58200 Y0.49160
X0.58100 Y0.49160
X0.58100 Y0.49060
X0.58000 Y0.49060
X0.58000 Y0.48960
X0.57900 Y0.48960
X0.57900 Y0.48860
X0.57800 Y0.48860
X0.57800 Y0.48760
X0.57700 Y0.48760
X0.57700 Y0.48660
X0.57600 Y0.48660
X0.57600 Y0.48560
X0.57500 Y0.48560
X0.57500 Y0.48460
X0.57400 Y0.48460
X0.57400 Y0.48360
X0.57300 Y0.48360
X0.57300 Y0.48260
X0.57200 Y0.48260
X0.57200 Y0.48160
X0.57100 Y0.48160
X0.57100 Y0.48060
X0.57000 Y0.48060
X0.57000 Y0.47860
X0.56900 Y0.47860
X0.56900 Y0.47660
X0.56800 Y0.47660
X0.56800 Y0.40260
X0.56400 Y0.40260
X0.56400 Y0.40160
X0.56300 Y0.40160
X0.56300 Y0.40060
X0.56200 Y0.40060
X0.56200 Y0.39960
X0.56100 Y0.39960
X0.56100 Y0.39860
X0.56000 Y0.39860
X0.56000 Y0.39760
X0.55900 Y0.39760
X0.55900 Y0.39660
X0.55800 Y0.39660
X0.55800 Y0.39560
X0.55700 Y0.39560
X0.55700 Y0.39460
X0.55600 Y0.39460
X0.55600 Y0.39360
X0.55500 Y0.39360
X0.55500 Y0.39260
X0.55400 Y0.39260
X0.55400 Y0.39160
X0.55300 Y0.39160
X0.55300 Y0.39060
X0.55200 Y0.39060
X0.55200 Y0.38960
X0.55100 Y0.38960
X0.55100 Y0.38860
X0.55000 Y0.38860
X0.55000 Y0.38760
X0.54900 Y0.38760
X0.54900 Y0.38660
X0.54800 Y0.38660
X0.54800 Y0.35160
X0.54900 Y0.35160
X0.54900 Y0.35060
X0.55000 Y0.35060
X0.55000 Y0.34960
X0.55100 Y0.34960
X0.55100 Y0.34860
X0.55200 Y0.34860
X0.55200 Y0.34760
X0.55300 Y0.34760
X0.55300 Y0.34660
X0.55400 Y0.34660
X0.55400 Y0.34560
X0.55500 Y0.34560
X0.55500 Y0.34460
X0.55600 Y0.34460
X0.55600 Y0.34360
X0.55700 Y0.34360
X0.55700 Y0.34260
X0.55800 Y0.34260
X0.55800 Y0.34160
X0.55900 Y0.34160
X0.55900 Y0.34060
X0.56000 Y0.34060
X0.56000 Y0.33960
X0.56100 Y0.33960
X0.56100 Y0.33860
X0.56200 Y0.33860
X0.56200 Y0.33760
X0.56300 Y0.33760
X0.56300 Y0.33660
X0.56400 Y0.33660
X0.56400 Y0.33560
X0.59900 Y0.33560
X0.59900 Y0.33660
X0.60000 Y0.33660
X0.60000 Y0.33760
X0.60100 Y0.33760
X0.60100 Y0.33860
X0.60200 Y0.33860
X0.60200 Y0.33960
X0.60300 Y0.33960
X0.60300 Y0.34060
X0.60400 Y0.34060
X0.60400 Y0.34160
X0.60500 Y0.34160
X0.60500 Y0.34260
X0.60600 Y0.34260
X0.60600 Y0.34360
X0.60700 Y0.34360
X0.60700 Y0.34460
X0.60800 Y0.34460
X0.60800 Y0.34560
X0.60900 Y0.34560
X0.60900 Y0.34660
X0.61000 Y0.34660
X0.61000 Y0.34760
X0.61100 Y0.34760
X0.61100 Y0.34860
X0.61200 Y0.34860
X0.61200 Y0.34960
X0.61300 Y0.34960
X0.61300 Y0.35060
X0.61400 Y0.35060
X0.61400 Y0.35160
X0.61500 Y0.35160
X0.61500 Y0.38560
X0.61400 Y0.38560
X0.61400 Y0.38660
X0.61300 Y0.38660
X0.61300 Y0.38760
X0.61200 Y0.38760
X0.61200 Y0.38860
X0.61100 Y0.38860
X0.61100 Y0.38960
X0.61000 Y0.38960
X0.61000 Y0.39060
X0.60900 Y0.39060
X0.60900 Y0.39160
X0.60800 Y0.39160
X0.60800 Y0.39260
X0.60700 Y0.39260
X0.60700 Y0.39360
X0.60600 Y0.39360
X0.60600 Y0.39460
X0.60500 Y0.39460
X0.60500 Y0.39560
X0.60400 Y0.39560
X0.60400 Y0.39660
X0.60300 Y0.39660
X0.60300 Y0.39760
X0.60200 Y0.39760
X0.60200 Y0.39860
X0.60100 Y0.39860
X0.60100 Y0.39960
X0.60000 Y0.39960
X0.60000 Y0.40060
X0.59900 Y0.40060
X0.59900 Y0.40260
X0.59500 Y0.40260
X0.59500 Y0.46060
X0.59600 Y0.46060
X0.59600 Y0.46160
X0.59700 Y0.46160
X0.59700 Y0.46260
X0.59800 Y0.46260
X0.59800 Y0.46360
X0.59900 Y0.46360
X0.59900 Y0.46560
X0.60000 Y0.46560
X0.60000 Y0.46660
X0.60100 Y0.46660
X0.60100 Y0.46760
X0.60200 Y0.46760
X0.60200 Y0.46860
X0.60300 Y0.46860
X0.60300 Y0.46960
X0.60400 Y0.46960
X0.60400 Y0.47060
X0.60500 Y0.47060
X0.60500 Y0.47160
X0.60600 Y0.47160
X0.60600 Y0.47260
X0.60700 Y0.47260
X0.60700 Y0.47360
X0.60800 Y0.47360
X0.60800 Y0.47460
X0.60900 Y0.47460
X0.60900 Y0.47560
X0.61000 Y0.47560
X0.61000 Y0.47660
X0.61100 Y0.47660
X0.61100 Y0.47760
X0.61200 Y0.47760
X0.61200 Y0.47860
X0.61300 Y0.47860
X0.61300 Y0.47960
X0.61400 Y0.47960
X0.61400 Y0.48060
X0.61500 Y0.48060
X0.61500 Y0.48160
X0.61600 Y0.48160
X0.61600 Y0.48260
X0.61700 Y0.48260
X0.61700 Y0.48360
X0.61800 Y0.48360
X0.61800 Y0.48460
X0.61900 Y0.48460
X0.61900 Y0.48560
X0.62000 Y0.48560
X0.62000 Y0.48660
X0.62100 Y0.48660
X0.62100 Y0.48760
X0.62200 Y0.48760
X0.62200 Y0.48860
X0.62300 Y0.48860
X0.62300 Y0.48960
X0.62400 Y0.48960
X0.62400 Y0.49060
X0.62500 Y0.49060
X0.62500 Y0.49160
X0.62600 Y0.49160
X0.62600 Y0.49260
X0.62800 Y0.49260
X0.62800 Y0.49360
X0.62900 Y0.49360
X0.62900 Y0.49460
X0.63000 Y0.49460
X0.63000 Y0.49560
X0.63100 Y0.49560
X0.63100 Y0.49660
X0.63200 Y0.49660
X0.63200 Y0.49760
X0.63300 Y0.49760
X0.63300 Y0.49860
X0.63400 Y0.49860
X0.63400 Y0.49960
X0.63500 Y0.49960
X0.63500 Y0.50060
X0.63600 Y0.50060
X0.63600 Y0.50160
X0.63700 Y0.50160
X0.63700 Y0.50260
X0.63800 Y0.50260
X0.63800 Y0.50360
X0.63900 Y0.50360
X0.63900 Y0.50460
X0.64000 Y0.50460
X0.64000 Y0.50560
X0.64100 Y0.50560
X0.64100 Y0.50660
X0.64200 Y0.50660
X0.64200 Y0.50760
X0.64300 Y0.50760
X0.64300 Y0.50860
X0.64400 Y0.50860
X0.64400 Y0.50960
X0.64500 Y0.50960
X0.64500 Y0.51060
X0.64600 Y0.51060
X0.64600 Y0.51160
X0.64700 Y0.51160
X0.64700 Y0.51260
X0.64800 Y0.51260
X0.64800 Y0.51360
X0.64900 Y0.51360
X0.64900 Y0.51460
X0.65000 Y0.51460
X0.65000 Y0.51560
X0.65100 Y0.51560
X0.65100 Y0.51660
X0.65200 Y0.51660
X0.65200 Y0.51760
X0.65300 Y0.51760
X0.65300 Y0.51860
X0.65400 Y0.51860
X0.65400 Y0.51960
X0.65500 Y0.51960
X0.65500 Y0.52060
X0.65600 Y0.52060
X0.65600 Y0.52160
X0.65700 Y0.52160
X0.65700 Y0.52260
X0.65800 Y0.52260
X0.65800 Y0.52360
X0.65900 Y0.52360
X0.65900 Y0.52460
X0.66000 Y0.52460
X0.66000 Y0.52560
X0.66100 Y0.52560
X0.66100 Y0.52660
X0.66200 Y0.52660
X0.66200 Y0.52760
X0.66300 Y0.52760
X0.66300 Y0.52860
X0.66400 Y0.52860
X0.66400 Y0.52960
X0.66500 Y0.52960
X0.66500 Y0.53060
X0.66600 Y0.53060
X0.66600 Y0.53260
X0.66800 Y0.53260
X0.66800 Y0.53360
X0.66900 Y0.53360
X0.66900 Y0.53460
X0.67000 Y0.53460
X0.67000 Y0.53560
X0.67100 Y0.53560
X0.67100 Y0.53660
X0.67200 Y0.53660
X0.67200 Y0.53760
X0.67300 Y0.53760
X0.67300 Y0.53860
X0.67400 Y0.53860
X0.67400 Y0.53960
X0.67500 Y0.53960
X0.67500 Y0.54060
X0.67600 Y0.54060
X0.67600 Y0.54160
X0.67700 Y0.54160
X0.67700 Y0.54260
X0.67800 Y0.54260
X0.67800 Y0.54360
X0.67900 Y0.54360
X0.67900 Y0.54460
X0.68000 Y0.54460
X0.68000 Y0.54560
X0.68100 Y0.54560
X0.68100 Y0.54660
X0.68200 Y0.54660
X0.68200 Y0.54860
X0.68400 Y0.54860
X0.68400 Y0.54960
X0.68500 Y0.54960
X0.68500 Y0.55060
X0.68600 Y0.55060
X0.68600 Y0.55160
X0.68700 Y0.55160
X0.68700 Y0.55260
X0.68800 Y0.55260
X0.68800 Y0.55360
X0.68900 Y0.55360
X0.68900 Y0.55460
X0.69000 Y0.55460
X0.69000 Y0.55560
X0.69100 Y0.55560
X0.69100 Y0.55660
X0.69200 Y0.55660
X0.69200 Y0.55760
X0.69300 Y0.55760
X0.69300 Y0.55960
X0.69400 Y0.55960
X0.69400 Y0.56160
X0.69500 Y0.56160
X0.69500 Y1.17660
X0.69400 Y1.17660
X0.69400 Y1.17860
X0.69300 Y1.17860
X0.69300 Y1.17960
X0.69200 Y1.17960
X0.69200 Y1.18060
X0.69100 Y1.18060
X0.69100 Y1.18160
X0.69000 Y1.18160
X0.69000 Y1.18260
X0.68900 Y1.18260
X0.68900 Y1.18360
X0.68800 Y1.18360
X0.68800 Y1.18460
X0.68700 Y1.18460
X0.68700 Y1.18560
X0.68600 Y1.18560
X0.68600 Y1.18660
X0.68500 Y1.18660
X0.68500 Y1.18760
X0.68400 Y1.18760
X0.68400 Y1.18860
X0.68300 Y1.18860
X0.68300 Y1.18960
X0.68200 Y1.18960
X0.68200 Y1.19060
X0.68100 Y1.19060
X0.68100 Y1.19160
X0.68000 Y1.19160
X0.68000 Y1.19260
X0.67900 Y1.19260
X0.67900 Y1.19360
X0.67800 Y1.19360
X0.67800 Y1.19460
X0.67700 Y1.19460
X0.67700 Y1.19560
X0.67600 Y1.19560
X0.67600 Y1.19660
X0.67500 Y1.19660
X0.67500 Y1.19760
X0.67400 Y1.19760
X0.67400 Y1.19860
X0.67300 Y1.19860
X0.67300 Y1.19960
X0.67200 Y1.19960
X0.67200 Y1.20060
X0.67100 Y1.20060
X0.67100 Y1.20160
X0.67000 Y1.20160
X0.67000 Y1.20260
X0.66900 Y1.20260
X0.66900 Y1.20360
X0.66800 Y1.20360
X0.66800 Y1.20460
X0.66700 Y1.20460
X0.66700 Y1.20560
X0.66600 Y1.20560
X0.66600 Y1.20660
X0.66500 Y1.20660
X0.66500 Y1.20760
X0.66400 Y1.20760
X0.66400 Y1.20860
X0.66300 Y1.20860
X0.66300 Y1.20960
X0.66200 Y1.20960
X0.66200 Y1.21060
X0.66100 Y1.21060
X0.66100 Y1.21160
X0.66000 Y1.21160
X0.66000 Y1.21260
X0.65900 Y1.21260
X0.65900 Y1.21360
X0.65800 Y1.21360
X0.65800 Y1.21460
X0.65700 Y1.21460
X0.65700 Y1.21560
X0.65600 Y1.21560
X0.65600 Y1.21660
X0.65500 Y1.21660
X0.65500 Y1.21760
X0.65400 Y1.21760
X0.65400 Y1.21860
X0.65300 Y1.21860
X0.65300 Y1.21960
X0.65200 Y1.21960
X0.65200 Y1.22060
X0.65100 Y1.22060
X0.65100 Y1.22160
X0.65000 Y1.22160
X0.65000 Y1.22260
X0.64900 Y1.22260
X0.64900 Y1.22360
X0.64800 Y1.22360
X0.64800 Y1.22460
X0.64700 Y1.22460
X0.64700 Y1.22560
X0.64600 Y1.22560
X0.64600 Y1.22660
X0.64500 Y1.22660
X0.64500 Y1.22760
X0.64400 Y1.22760
X0.64400 Y1.22860
X0.64300 Y1.22860
X0.64300 Y1.22960
X0.64200 Y1.22960
X0.64200 Y1.23060
X0.64100 Y1.23060
X0.64100 Y1.23160
X0.64000 Y1.23160
X0.64000 Y1.23260
X0.63900 Y1.23260
X0.63900 Y1.23360
X0.63800 Y1.23360
X0.63800 Y1.23460
X0.63700 Y1.23460
X0.63700 Y1.23560
X0.63600 Y1.23560
X0.63600 Y1.23660
X0.63500 Y1.23660
X0.63500 Y1.23760
X0.63400 Y1.23760
X0.63400 Y1.23860
X0.63300 Y1.23860
X0.63300 Y1.23960
X0.63200 Y1.23960
X0.63200 Y1.24060
X0.63100 Y1.24060
X0.63100 Y1.24160
X0.63000 Y1.24160
X0.63000 Y1.24260
X0.62900 Y1.24260
X0.62900 Y1.24360
X0.62800 Y1.24360
X0.62800 Y1.24460
X0.62700 Y1.24460
X0.62700 Y1.24560
X0.62600 Y1.24560
X0.62600 Y1.24660
X0.62500 Y1.24660
X0.62500 Y1.24760
X0.62400 Y1.24760
X0.62400 Y1.24860
X0.62300 Y1.24860
X0.62300 Y1.24960
X0.62200 Y1.24960
X0.62200 Y1.25060
X0.62100 Y1.25060
X0.62100 Y1.25160
X0.62000 Y1.25160
X0.62000 Y1.25260
X0.61900 Y1.25260
X0.61900 Y1.25360
X0.61800 Y1.25360
X0.61800 Y1.25460
X0.61700 Y1.25460
X0.61700 Y1.25560
X0.61600 Y1.25560
X0.61600 Y1.25660
X0.61500 Y1.25660
X0.61500 Y1.25760
X0.61400 Y1.25760
X0.61400 Y1.25860
X0.61300 Y1.25860
X0.61300 Y1.25960
X0.61200 Y1.25960
X0.61200 Y1.26060
X0.61100 Y1.26060
X0.61100 Y1.26160
X0.61000 Y1.26160
X0.61000 Y1.26260
X0.60900 Y1.26260
X0.60900 Y1.26360
X0.60800 Y1.26360
X0.60800 Y1.26460
X0.60700 Y1.26460
X0.60700 Y1.26560
X0.60600 Y1.26560
X0.60600 Y1.26660
X0.60500 Y1.26660
X0.60500 Y1.26760
X0.60400 Y1.26760
X0.60400 Y1.26860
X0.60300 Y1.26860
X0.60300 Y1.26960
X0.60200 Y1.26960
X0.60200 Y1.27060
X0.60100 Y1.27060
X0.60100 Y1.27160
X0.60000 Y1.27160
X0.60000 Y1.27260
X0.59900 Y1.27260
X0.59900 Y1.27360
X0.59800 Y1.27360
X0.59800 Y1.27460
X0.59700 Y1.27460
X0.59700 Y1.27560
X0.59600 Y1.27560
X0.59600 Y1.27660
X0.59500 Y1.27660
X0.59500 Y1.27760
X0.59400 Y1.27760
X0.59400 Y1.27860
X0.59300 Y1.27860
X0.59300 Y1.27960
X0.59200 Y1.27960
X0.59200 Y1.28060
X0.59100 Y1.28060
X0.59100 Y1.28160
X0.59000 Y1.28160
X0.59000 Y1.28260
X0.58900 Y1.28260
X0.58900 Y1.28360
X0.58800 Y1.28360
X0.58800 Y1.28460
X0.58700 Y1.28460
X0.58700 Y1.28560
X0.58600 Y1.28560
X0.58600 Y1.28660
X0.58500 Y1.28660
X0.58500 Y1.28760
X0.58400 Y1.28760
X0.58400 Y1.28860
X0.58300 Y1.28860
X0.58300 Y1.28960
X0.58200 Y1.28960
X0.58200 Y1.29060
X0.58100 Y1.29060
X0.58100 Y1.29160
X0.58000 Y1.29160
X0.58000 Y1.29260
X0.57900 Y1.29260
X0.57900 Y1.29360
X0.57800 Y1.29360
X0.57800 Y1.29460
X0.57700 Y1.29460
X0.57700 Y1.29560
X0.57600 Y1.29560
X0.57600 Y1.29660
X0.57500 Y1.29660
X0.57500 Y1.29760
X0.57400 Y1.29760
X0.57400 Y1.29860
X0.57300 Y1.29860
X0.57300 Y1.29960
X0.57200 Y1.29960
X0.57200 Y1.30060
X0.57100 Y1.30060
X0.57100 Y1.30160
X0.57000 Y1.30160
X0.57000 Y1.30260
X0.56900 Y1.30260
X0.56900 Y1.30360
X0.56800 Y1.30360
X0.56800 Y1.30460
X0.56700 Y1.30460
X0.56700 Y1.30560
X0.56600 Y1.30560
X0.56600 Y1.30660
X0.56500 Y1.30660
X0.56500 Y1.30760
X0.56400 Y1.30760
X0.56400 Y1.30860
X0.56300 Y1.30860
X0.56300 Y1.30960
X0.56200 Y1.30960
X0.56200 Y1.31060
X0.56100 Y1.31060
X0.56100 Y1.31160
X0.56000 Y1.31160
X0.56000 Y1.31260
X0.55900 Y1.31260
X0.55900 Y1.31360
X0.55800 Y1.31360
X0.55800 Y1.31460
X0.55700 Y1.31460
X0.55700 Y1.31560
X0.55600 Y1.31560
X0.55600 Y1.31660
X0.55500 Y1.31660
X0.55500 Y1.31760
X0.55400 Y1.31760
X0.55400 Y1.31860
X0.55300 Y1.31860
X0.55300 Y1.31960
X0.55200 Y1.31960
X0.55200 Y1.32060
X0.55100 Y1.32060
X0.55100 Y1.32160
X0.55000 Y1.32160
X0.55000 Y1.32260
X0.54900 Y1.32260
X0.54900 Y1.32460
X0.54800 Y1.32460
X0.54800 Y1.32560
X0.54700 Y1.32560
X0.54700 Y1.32660
X0.54600 Y1.32660
X0.54600 Y1.32760
X0.54500 Y1.32760
X0.54500 Y1.46060
X0.54600 Y1.46060
X0.54600 Y1.46160
X0.54700 Y1.46160
X0.54700 Y1.46260
X0.54800 Y1.46260
X0.54800 Y1.46360
X0.54900 Y1.46360
X0.54900 Y1.46560
X0.55000 Y1.46560
X0.55000 Y1.46660
X0.55100 Y1.46660
X0.55100 Y1.46760
X0.55200 Y1.46760
X0.55200 Y1.46860
X0.55300 Y1.46860
X0.55300 Y1.46960
X0.55400 Y1.46960
X0.55400 Y1.47060
X0.55500 Y1.47060
X0.55500 Y1.47160
X0.55600 Y1.47160
X0.55600 Y1.47260
X0.55700 Y1.47260
X0.55700 Y1.47360
X0.55800 Y1.47360
X0.55800 Y1.47460
X0.55900 Y1.47460
X0.55900 Y1.47560
X0.56000 Y1.47560
X0.56000 Y1.47660
X0.56100 Y1.47660
X0.56100 Y1.47760
X0.56200 Y1.47760
X0.56200 Y1.47860
X0.56300 Y1.47860
X0.56300 Y1.47960
X0.56400 Y1.47960
X0.56400 Y1.48060
X0.56500 Y1.48060
X0.56500 Y1.48160
X0.56700 Y1.48160
X0.56700 Y1.48260
X0.56800 Y1.48260
X0.56800 Y1.48360
X0.56900 Y1.48360
X0.56900 Y1.48460
X0.57000 Y1.48460
X0.57000 Y1.48560
X0.59900 Y1.48560
X0.59900 Y1.48660
X0.60000 Y1.48660
X0.60000 Y1.48760
X0.60100 Y1.48760
X0.60100 Y1.48860
X0.60200 Y1.48860
X0.60200 Y1.48960
X0.60300 Y1.48960
X0.60300 Y1.49060
X0.60400 Y1.49060
X0.60400 Y1.49160
X0.60500 Y1.49160
X0.60500 Y1.49260
X0.60600 Y1.49260
X0.60600 Y1.49360
X0.60700 Y1.49360
X0.60700 Y1.49460
X0.60800 Y1.49460
X0.60800 Y1.49560
X0.60900 Y1.49560
X0.60900 Y1.49660
X0.61000 Y1.49660
X0.61000 Y1.49760
X0.61100 Y1.49760
X0.61100 Y1.49860
X0.61200 Y1.49860
X0.61200 Y1.49960
X0.61300 Y1.49960
X0.61300 Y1.50060
X0.61400 Y1.50060
X0.61400 Y1.50160
X0.61500 Y1.50160
X0.61500 Y1.53560
X0.61400 Y1.53560
X0.61400 Y1.53660
X0.61300 Y1.53660
X0.61300 Y1.53760
X0.61200 Y1.53760
X0.61200 Y1.53960
X0.61100 Y1.53960
X0.61100 Y1.54060
X0.61000 Y1.54060
X0.61000 Y1.54160
X0.60900 Y1.54160
X0.60900 Y1.54260
X0.60800 Y1.54260
X0.60800 Y1.54360
X0.60700 Y1.54360
X0.60700 Y1.54460
X0.60600 Y1.54460
X0.60600 Y1.54560
X0.60500 Y1.54560
X0.60500 Y1.54660
X0.60400 Y1.54660
X0.60400 Y1.54760
X0.60300 Y1.54760
X0.60300 Y1.54860
X0.60200 Y1.54860
X0.60200 Y1.54960
X0.60000 Y1.54960
X0.60000 Y1.55160
X0.59900 Y1.55160
X0.59900 Y1.55260
X0.56500 Y1.55260
X0.56500 Y1.55160
X0.56400 Y1.55160
X0.56400 Y1.54960
X0.56200 Y1.54960
X0.56200 Y1.54860
X0.56100 Y1.54860
X0.56100 Y1.54760
X0.56000 Y1.54760
X0.56000 Y1.54660
G04 P0 ( dwell for no time -- G64 should not smooth over this point )
G00 Z0.08000 ( retract )

G00 X0.46000 Y1.54660 ( rapid move to begin. )
G01 Z-0.00800 F6.00000 ( plunge. )
G04 P0 ( dwell for no time -- G64 should not smooth over this point )
X0.46000 Y1.54660
X0.45900 Y1.54660
X0.45900 Y1.54560
X0.45800 Y1.54560
X0.45800 Y1.54460
X0.45700 Y1.54460
X0.45700 Y1.54360
X0.45600 Y1.54360
X0.45600 Y1.54260
X0.45500 Y1.54260
X0.45500 Y1.54160
X0.45400 Y1.54160
X0.45400 Y1.54060
X0.45300 Y1.54060
X0.45300 Y1.53960
X0.45200 Y1.53960
X0.45200 Y1.53860
X0.45100 Y1.53860
X0.45100 Y1.53760
X0.45000 Y1.53760
X0.45000 Y1.53660
X0.44900 Y1.53660
X0.44900 Y1.53560
X0.44800 Y1.53560
X0.44800 Y1.50760
X0.44700 Y1.50760
X0.44700 Y1.50660
X0.44600 Y1.50660
X0.44600 Y1.50560
X0.44500 Y1.50560
X0.44500 Y1.50460
X0.44400 Y1.50460
X0.44400 Y1.50260
X0.44300 Y1.50260
X0.44300 Y1.50160
X0.44200 Y1.50160
X0.44200 Y1.50060
X0.44100 Y1.50060
X0.44100 Y1.49960
X0.44000 Y1.49960
X0.44000 Y1.49860
X0.43900 Y1.49860
X0.43900 Y1.49760
X0.43800 Y1.49760
X0.43800 Y1.49660
X0.43700 Y1.49660
X0.43700 Y1.49560
X0.43600 Y1.49560
X0.43600 Y1.49460
X0.43500 Y1.49460
X0.43500 Y1.49360
X0.43400 Y1.49360
X0.43400 Y1.49260
X0.43300 Y1.49260
X0.43300 Y1.49160
X0.43200 Y1.49160
X0.43200 Y1.49060
X0.43100 Y1.49060
X0.43100 Y1.48960
X0.43000 Y1.48960
X0.43000 Y1.48860
X0.42900 Y1.48860
X0.42900 Y1.48760
X0.42800 Y1.48760
X0.42800 Y1.48660
X0.42700 Y1.48660
X0.42700 Y1.48560
X0.42600 Y1.48560
X0.42600 Y1.48360
X0.42500 Y1.48360
X0.42500 Y1.48260
X0.42400 Y1.48260
X0.42400 Y1.48160
X0.42300 Y1.48160
X0.42300 Y1.48060
X0.42200 Y1.48060
X0.42200 Y1.47960
X0.42100 Y1.47960
X0.42100 Y1.47860
X0.42000 Y1.47860
X0.42000 Y1.47760
X0.41900 Y1.47760
X0.41900 Y1.47660
X0.41800 Y1.47660
X0.41800 Y1.37760
X0.41700 Y1.37760
X0.41700 Y1.37660
X0.41600 Y1.37660
X0.41600 Y1.37560
X0.41500 Y1.37560
X0.41500 Y1.37460
X0.41400 Y1.37460
X0.41400 Y1.37260
X0.41300 Y1.37260
X0.41300 Y1.37160
X0.41200 Y1.37160
X0.41200 Y1.37060
X0.41100 Y1.37060
X0.41100 Y1.36960
X0.41000 Y1.36960
X0.41000 Y1.36860
X0.40900 Y1.36860
X0.40900 Y1.36760
X0.40800 Y1.36760
X0.40800 Y1.36660
X0.40700 Y1.36660
X0.40700 Y1.36560
X0.40600 Y1.36560
X0.40600 Y1.36460
X0.40500 Y1.36460
X0.40500 Y1.36360
X0.40400 Y1.36360
X0.40400 Y1.36260
X0.40300 Y1.36260
X0.40300 Y1.36160
X0.40200 Y1.36160
X0.40200 Y1.35960
X0.40000 Y1.35960
X0.40000 Y1.35860
X0.39900 Y1.35860
X0.39900 Y1.35760
X0.39800 Y1.35760
X0.39800 Y1.35660
X0.39700 Y1.35660
X0.39700 Y1.35560
X0.39600 Y1.35560
X0.39600 Y1.35460
X0.39500 Y1.35460
X0.39500 Y1.35360
X0.39400 Y1.35360
X0.39400 Y1.35260
X0.39300 Y1.35260
X0.39300 Y1.35160
X0.39200 Y1.35160
X0.39200 Y1.35060
X0.39100 Y1.35060
X0.39100 Y1.34960
X0.39000 Y1.34960
X0.39000 Y1.34860
X0.38900 Y1.34860
X0.38900 Y1.34760
X0.38800 Y1.34760
X0.38800 Y1.34660
X0.38700 Y1.34660
X0.38700 Y1.34560
X0.38600 Y1.34560
X0.38600 Y1.34360
X0.38400 Y1.34360
X0.38400 Y1.34260
X0.38300 Y1.34260
X0.38300 Y1.34160
X0.38200 Y1.34160
X0.38200 Y1.34060
X0.38100 Y1.34060
X0.38100 Y1.33960
X0.38000 Y1.33960
X0.38000 Y1.33860
X0.37900 Y1.33860
X0.37900 Y1.33760
X0.37800 Y1.33760
X0.37800 Y1.33660
X0.37700 Y1.33660
X0.37700 Y1.33560
X0.37600 Y1.33560
X0.37600 Y1.33460
X0.37500 Y1.33460
X0.37500 Y1.33360
X0.37400 Y1.33360
X0.37400 Y1.33260
X0.37300 Y1.33260
X0.37300 Y1.33160
X0.37200 Y1.33160
X0.37200 Y1.33060
X0.37100 Y1.33060
X0.37100 Y1.32960
X0.37000 Y1.32960
X0.37000 Y1.32760
X0.36800 Y1.32760
X0.36800 Y1.32660
X0.36700 Y1.32660
X0.36700 Y1.32560
X0.36600 Y1.32560
X0.36600 Y1.32460
X0.36500 Y1.32460
X0.36500 Y1.32360
X0.36400 Y1.32360
X0.36400 Y1.32260
X0.36300 Y1.32260
X0.36300 Y1.32160
X0.36200 Y1.32160
X0.36200 Y1.32060
X0.36100 Y1.32060
X0.36100 Y1.31960
X0.36000 Y1.31960
X0.36000 Y1.31860
X0.35900 Y1.31860
X0.35900 Y1.31760
X0.35800 Y1.31760
X0.35800 Y1.31660
X0.35700 Y1.31660
X0.35700 Y1.31560
X0.35600 Y1.31560
X0.35600 Y1.31460
X0.35500 Y1.31460
X0.35500 Y1.31360
X0.35400 Y1.31360
X0.35400 Y1.31160
X0.35200 Y1.31160
X0.35200 Y1.31060
X0.35100 Y1.31060
X0.35100 Y1.30960
X0.35000 Y1.30960
X0.35000 Y1.30860
X0.34900 Y1.30860
X0.34900 Y1.30760
X0.34800 Y1.30760
X0.34800 Y1.30660
X0.34700 Y1.30660
X0.34700 Y1.30560
X0.34600 Y1.30560
X0.34600 Y1.30460
X0.34500 Y1.30460
X0.34500 Y1.30360
X0.34400 Y1.30360
X0.34400 Y1.30260
X0.34300 Y1.30260
X0.34300 Y1.30160
X0.34200 Y1.30160
X0.34200 Y1.30060
X0.34100 Y1.30060
X0.34100 Y1.29960
X0.34000 Y1.29960
X0.34000 Y1.29860
X0.33900 Y1.29860
X0.33900 Y1.29760
X0.33800 Y1.29760
X0.33800 Y1.29660
X0.33700 Y1.29660
X0.33700 Y1.29560
X0.33600 Y1.29560
X0.33600 Y1.29460
X0.33500 Y1.29460
X0.33500 Y1.29360
X0.33400 Y1.29360
X0.33400 Y1.29260
X0.33300 Y1.29260
X0.33300 Y1.29160
X0.33200 Y1.29160
X0.33200 Y1.29060
X0.33100 Y1.29060
X0.33100 Y1.28960
X0.33000 Y1.28960
X0.33000 Y1.28860
X0.32900 Y1.28860
X0.32900 Y1.28760
X0.32800 Y1.28760
X0.32800 Y1.28660
X0.32700 Y1.28660
X0.32700 Y1.28560
X0.32600 Y1.28560
X0.32600 Y1.28460
X0.32500 Y1.28460
X0.32500 Y1.28360
X0.32400 Y1.28360
X0.32400 Y1.28260
X0.32300 Y1.28260
X0.32300 Y1.28160
X0.32200 Y1.28160
X0.32200 Y1.28060
X0.32100 Y1.28060
X0.32100 Y1.27960
X0.32000 Y1.27960
X0.32000 Y1.27860
X0.31900 Y1.27860
X0.31900 Y1.27760
X0.31800 Y1.27760
X0.31800 Y1.27660
X0.31700 Y1.27660
X0.31700 Y1.27560
X0.31600 Y1.27560
X0.31600 Y1.27460
X0.31500 Y1.27460
X0.31500 Y1.27360
X0.31400 Y1.27360
X0.31400 Y1.27260
X0.31300 Y1.27260
X0.31300 Y1.27160
X0.31200 Y1.27160
X0.31200 Y1.27060
X0.31100 Y1.27060
X0.31100 Y1.26960
X0.31000 Y1.26960
X0.31000 Y1.26860
X0.30900 Y1.26860
X0.30900 Y1.26760
X0.30800 Y1.26760
X0.30800 Y1.26660
X0.30700 Y1.26660
X0.30700 Y1.26460
X0.30500 Y1.26460
X0.30500 Y1.26360
X0.30400 Y1.26360
X0.30400 Y1.26260
X0.30300 Y1.26260
X0.30300 Y1.26160
X0.30200 Y1.26160
X0.30200 Y1.26060
X0.30100 Y1.26060
X0.30100 Y1.25960
X0.30000 Y1.25960
X0.30000 Y1.25860
X0.29900 Y1.25860
X0.29900 Y1.25760
X0.29800 Y1.25760
X0.29800 Y1.25660
X0.29700 Y1.25660
X0.29700 Y1.25560
X0.29600 Y1.25560
X0.29600 Y1.25460
X0.29500 Y1.25460
X0.29500 Y1.25360
X0.29400 Y1.25360
X0.29400 Y1.25260
X0.29300 Y1.25260
X0.29300 Y1.25160
X0.29200 Y1.25160
X0.29200 Y1.25060
X0.29100 Y1.25060
X0.29100 Y1.24860
X0.28900 Y1.24860
X0.28900 Y1.24760
X0.28800 Y1.24760
X0.28800 Y1.24660
X0.28700 Y1.24660
X0.28700 Y1.24560
X0.28600 Y1.24560
X0.28600 Y1.24460
X0.28500 Y1.24460
X0.28500 Y1.24360
X0.28400 Y1.24360
X0.28400 Y1.24260
X0.28300 Y1.24260
X0.28300 Y1.24160
X0.28200 Y1.24160
X0.28200 Y1.24060
X0.28100 Y1.24060
X0.28100 Y1.23960
X0.28000 Y1.23960
X0.28000 Y1.23760
X0.27900 Y1.23760
X0.27900 Y1.23660
X0.27800 Y1.23660
X0.27800 Y1.23560
X0.27700 Y1.23560
X0.27700 Y1.23460
X0.27600 Y1.23460
X0.27600 Y1.23360
X0.27500 Y1.23360
X0.27500 Y1.23260
X0.27400 Y1.23260
X0.27400 Y1.23160
X0.27300 Y1.23160
X0.27300 Y1.23060
X0.27200 Y1.23060
X0.27200 Y1.22960
X0.27100 Y1.22960
X0.27100 Y1.22860
X0.27000 Y1.22860
X0.27000 Y1.22760
X0.26900 Y1.22760
X0.26900 Y1.22660
X0.26800 Y1.22660
X0.26800 Y1.22560
X0.26700 Y1.22560
X0.26700 Y1.22460
X0.26600 Y1.22460
X0.26600 Y1.22360
X0.26500 Y1.22360
X0.26500 Y1.22260
X0.26400 Y1.22260
X0.26400 Y1.22160
X0.26300 Y1.22160
X0.26300 Y1.22060
X0.26200 Y1.22060
X0.26200 Y1.21960
X0.26100 Y1.21960
X0.26100 Y1.21860
X0.26000 Y1.21860
X0.26000 Y1.21760
X0.25900 Y1.21760
X0.25900 Y1.21660
X0.25800 Y1.21660
X0.25800 Y1.21560
X0.25700 Y1.21560
X0.25700 Y1.21460
X0.25600 Y1.21460
X0.25600 Y1.21360
X0.25500 Y1.21360
X0.25500 Y1.21260
X0.25400 Y1.21260
X0.25400 Y1.21160
X0.25300 Y1.21160
X0.25300 Y1.21060
X0.25200 Y1.21060
X0.25200 Y1.20960
X0.25100 Y1.20960
X0.25100 Y1.20860
X0.25000 Y1.20860
X0.25000 Y1.20760
X0.24900 Y1.20760
X0.24900 Y1.20660
X0.24800 Y1.20660
X0.24800 Y1.20560
X0.24700 Y1.20560
X0.24700 Y1.20460
X0.24600 Y1.20460
X0.24600 Y1.20360
X0.24500 Y1.20360
X0.24500 Y1.20260
X0.24400 Y1.20260
X0.24400 Y1.20160
X0.24300 Y1.20160
X0.24300 Y1.20060
X0.24200 Y1.20060
X0.24200 Y1.19960
X0.24100 Y1.19960
X0.24100 Y1.19860
X0.24000 Y1.19860
X0.24000 Y1.19760
X0.23900 Y1.19760
X0.23900 Y1.19660
X0.23800 Y1.19660
X0.23800 Y1.19560
X0.23700 Y1.19560
X0.23700 Y1.19460
X0.23600 Y1.19460
X0.23600 Y1.19360
X0.23500 Y1.19360
X0.23500 Y1.19260
X0.23400 Y1.19260
X0.23400 Y1.19160
X0.23300 Y1.19160
X0.23300 Y1.19060
X0.23200 Y1.19060
X0.23200 Y1.18960
X0.23100 Y1.18960
X0.23100 Y1.18860
X0.23000 Y1.18860
X0.23000 Y1.18760
X0.22900 Y1.18760
X0.22900 Y1.18660
X0.22800 Y1.18660
X0.22800 Y1.18560
X0.22700 Y1.18560
X0.22700 Y1.18460
X0.22600 Y1.18460
X0.22600 Y1.18360
X0.22500 Y1.18360
X0.22500 Y1.18260
X0.22400 Y1.18260
X0.22400 Y1.18160
X0.22300 Y1.18160
X0.22300 Y1.18060
X0.22200 Y1.18060
X0.22200 Y1.17960
X0.22100 Y1.17960
X0.22100 Y1.17860
X0.22000 Y1.17860
X0.22000 Y1.17760
X0.21900 Y1.17760
X0.21900 Y1.17660
X0.21800 Y1.17660
X0.21800 Y0.61160
X0.21900 Y0.61160
X0.21900 Y0.60960
X0.22000 Y0.60960
X0.22000 Y0.60860
X0.22100 Y0.60860
X0.22100 Y0.60760
X0.22200 Y0.60760
X0.22200 Y0.60660
X0.22300 Y0.60660
X0.22300 Y0.60560
X0.22400 Y0.60560
X0.22400 Y0.60460
X0.22500 Y0.60460
X0.22500 Y0.60360
X0.22600 Y0.60360
X0.22600 Y0.60260
X0.22700 Y0.60260
X0.22700 Y0.60160
X0.22800 Y0.60160
X0.22800 Y0.60060
X0.22900 Y0.60060
X0.22900 Y0.59960
X0.23000 Y0.59960
X0.23000 Y0.59860
X0.23100 Y0.59860
X0.23100 Y0.59760
X0.23200 Y0.59760
X0.23200 Y0.59660
X0.23300 Y0.59660
X0.23300 Y0.59560
X0.23400 Y0.59560
X0.23400 Y0.59460
X0.23500 Y0.59460
X0.23500 Y0.59360
X0.23600 Y0.59360
X0.23600 Y0.59260
X0.23700 Y0.59260
X0.23700 Y0.59160
X0.23800 Y0.59160
X0.23800 Y0.59060
X0.23900 Y0.59060
X0.23900 Y0.58960
X0.24000 Y0.58960
X0.24000 Y0.58860
X0.24100 Y0.58860
X0.24100 Y0.58760
X0.24200 Y0.58760
X0.24200 Y0.58660
X0.24300 Y0.58660
X0.24300 Y0.58560
X0.24400 Y0.58560
X0.24400 Y0.58460
X0.24500 Y0.58460
X0.24500 Y0.58360
X0.24600 Y0.58360
X0.24600 Y0.58260
X0.24700 Y0.58260
X0.24700 Y0.58160
X0.24800 Y0.58160
X0.24800 Y0.58060
X0.24900 Y0.58060
X0.24900 Y0.57960
X0.25000 Y0.57960
X0.25000 Y0.57860
X0.25100 Y0.57860
X0.25100 Y0.57760
X0.25200 Y0.57760
X0.25200 Y0.57660
X0.25300 Y0.57660
X0.25300 Y0.57560
X0.25400 Y0.57560
X0.25400 Y0.57460
X0.25500 Y0.57460
X0.25500 Y0.57360
X0.25600 Y0.57360
X0.25600 Y0.57260
X0.25700 Y0.57260
X0.25700 Y0.57160
X0.25800 Y0.57160
X0.25800 Y0.57060
X0.25900 Y0.57060
X0.25900 Y0.56960
X0.26000 Y0.56960
X0.26000 Y0.56860
X0.26100 Y0.56860
X0.26100 Y0.56760
X0.26200 Y0.56760
X0.26200 Y0.56660
X0.26300 Y0.56660
X0.26300 Y0.56560
X0.26400 Y0.56560
X0.26400 Y0.56460
X0.26600 Y0.56460
X0.26600 Y0.56260
X0.26700 Y0.56260
X0.26700 Y0.56160
X0.26800 Y0.56160
X0.26800 Y0.56060
X0.26900 Y0.56060
X0.26900 Y0.55960
X0.27000 Y0.55960
X0.27000 Y0.55860
X0.27100 Y0.55860
X0.27100 Y0.55760
X0.27200 Y0.55760
X0.27200 Y0.55660
X0.27300 Y0.55660
X0.27300 Y0.55560
X0.27400 Y0.55560
X0.27400 Y0.55460
X0.27500 Y0.55460
X0.27500 Y0.55360
X0.27600 Y0.55360
X0.27600 Y0.55260
X0.27700 Y0.55260
X0.27700 Y0.55160
X0.27800 Y0.55160
X0.27800 Y0.55060
X0.27900 Y0.55060
X0.27900 Y0.54960
X0.28000 Y0.54960
X0.28000 Y0.54860
X0.28100 Y0.54860
X0.28100 Y0.54760
X0.28200 Y0.54760
X0.28200 Y0.54660
X0.28300 Y0.54660
X0.28300 Y0.54560
X0.28400 Y0.54560
X0.28400 Y0.54460
X0.28500 Y0.54460
X0.28500 Y0.54360
X0.28600 Y0.54360
X0.28600 Y0.54260
X0.28700 Y0.54260
X0.28700 Y0.54160
X0.28800 Y0.54160
X0.28800 Y0.54060
X0.28900 Y0.54060
X0.28900 Y0.53960
X0.29000 Y0.53960
X0.29000 Y0.53860
X0.29100 Y0.53860
X0.29100 Y0.53760
X0.29200 Y0.53760
X0.29200 Y0.53660
X0.29300 Y0.53660
X0.29300 Y0.53560
X0.29400 Y0.53560
X0.29400 Y0.53460
X0.29500 Y0.53460
X0.29500 Y0.53360
X0.29600 Y0.53360
X0.29600 Y0.53260
X0.29700 Y0.53260
X0.29700 Y0.53160
X0.29800 Y0.53160
X0.29800 Y0.53060
X0.29900 Y0.53060
X0.29900 Y0.52960
X0.30000 Y0.52960
X0.30000 Y0.52860
X0.30100 Y0.52860
X0.30100 Y0.52760
X0.30200 Y0.52760
X0.30200 Y0.52660
X0.30300 Y0.52660
X0.30300 Y0.52560
X0.30400 Y0.52560
X0.30400 Y0.52460
X0.30500 Y0.52460
X0.30500 Y0.52360
X0.30600 Y0.52360
X0.30600 Y0.52260
X0.30700 Y0.52260
X0.30700 Y0.52160
X0.30800 Y0.52160
X0.30800 Y0.52060
X0.30900 Y0.52060
X0.30900 Y0.51960
X0.31000 Y0.51960
X0.31000 Y0.51860
X0.31100 Y0.51860
X0.31100 Y0.51760
X0.31200 Y0.51760
X0.31200 Y0.51660
X0.31300 Y0.51660
X0.31300 Y0.51560
X0.31400 Y0.51560
X0.31400 Y0.51460
X0.31500 Y0.51460
X0.31500 Y0.51360
X0.31600 Y0.51360
X0.31600 Y0.51260
X0.31700 Y0.51260
X0.31700 Y0.51160
X0.31800 Y0.51160
X0.31800 Y0.51060
X0.31900 Y0.51060
X0.31900 Y0.50960
X0.32000 Y0.50960
X0.32000 Y0.50860
X0.32100 Y0.50860
X0.32100 Y0.50760
X0.32200 Y0.50760
X0.32200 Y0.50660
X0.32300 Y0.50660
X0.32300 Y0.50560
X0.32400 Y0.50560
X0.32400 Y0.50460
X0.32500 Y0.50460
X0.32500 Y0.50360
X0.32600 Y0.50360
X0.32600 Y0.50260
X0.32700 Y0.50260
X0.32700 Y0.50160
X0.32800 Y0.50160
X0.32800 Y0.50060
X0.32900 Y0.50060
X0.32900 Y0.49960
X0.33000 Y0.49960
X0.33000 Y0.49860
X0.33100 Y0.49860
X0.33100 Y0.49760
X0.33200 Y0.49760
X0.33200 Y0.49660
X0.33300 Y0.49660
X0.33300 Y0.49560
X0.33400 Y0.49560
X0.33400 Y0.49460
X0.33500 Y0.49460
X0.33500 Y0.49360
X0.33600 Y0.49360
X0.33600 Y0.49260
X0.33700 Y0.49260
X0.33700 Y0.49160
X0.33800 Y0.49160
X0.33800 Y0.49060
X0.33900 Y0.49060
X0.33900 Y0.48960
X0.34000 Y0.48960
X0.34000 Y0.48860
X0.34100 Y0.48860
X0.34100 Y0.48760
X0.34200 Y0.48760
X0.34200 Y0.48660
X0.34300 Y0.48660
X0.34300 Y0.48560
X0.34400 Y0.48560
X0.34400 Y0.48460
X0.34500 Y0.48460
X0.34500 Y0.48360
X0.34600 Y0.48360
X0.34600 Y0.48260
X0.34700 Y0.48260
X0.34700 Y0.48160
X0.34800 Y0.48160
X0.34800 Y0.48060
X0.34900 Y0.48060
X0.34900 Y0.47960
X0.35000 Y0.47960
X0.35000 Y0.47860
X0.35100 Y0.47860
X0.35100 Y0.47760
X0.35200 Y0.47760
X0.35200 Y0.47660
X0.35300 Y0.47660
X0.35300 Y0.47560
X0.35400 Y0.47560
X0.35400 Y0.47460
X0.35500 Y0.47460
X0.35500 Y0.47360
X0.35600 Y0.47360
X0.35600 Y0.47260
X0.35700 Y0.47260
X0.35700 Y0.47160
X0.35800 Y0.47160
X0.35800 Y0.47060
X0.35900 Y0.47060
X0.35900 Y0.46960
X0.36000 Y0.46960
X0.36000 Y0.46860
X0.36100 Y0.46860
X0.36100 Y0.46760
X0.36200 Y0.46760
X0.36200 Y0.46660
X0.36300 Y0.46660
X0.36300 Y0.46560
X0.36400 Y0.46560
X0.36400 Y0.46460
X0.36500 Y0.46460
X0.36500 Y0.46360
X0.36600 Y0.46360
X0.36600 Y0.46260
X0.36700 Y0.46260
X0.36700 Y0.46160
X0.36800 Y0.46160
X0.36800 Y0.46060
X0.36900 Y0.46060
X0.36900 Y0.45960
X0.37000 Y0.45960
X0.37000 Y0.45860
X0.37100 Y0.45860
X0.37100 Y0.45760
X0.37200 Y0.45760
X0.37200 Y0.45660
X0.37300 Y0.45660
X0.37300 Y0.45560
X0.37400 Y0.45560
X0.37400 Y0.45460
X0.37500 Y0.45460
X0.37500 Y0.45360
X0.37600 Y0.45360
X0.37600 Y0.45260
X0.37700 Y0.45260
X0.37700 Y0.45160
X0.37800 Y0.45160
X0.37800 Y0.45060
X0.37900 Y0.45060
X0.37900 Y0.44960
X0.38000 Y0.44960
X0.38000 Y0.44860
X0.38100 Y0.44860
X0.38100 Y0.44760
X0.38200 Y0.44760
X0.38200 Y0.44660
X0.38300 Y0.44660
X0.38300 Y0.44560
X0.38400 Y0.44560
X0.38400 Y0.44460
X0.38500 Y0.44460
X0.38500 Y0.44360
X0.38600 Y0.44360
X0.38600 Y0.44260
X0.38700 Y0.44260
X0.38700 Y0.44160
X0.38800 Y0.44160
X0.38800 Y0.44060
X0.38900 Y0.44060
X0.38900 Y0.43960
X0.39000 Y0.43960
X0.39000 Y0.43860
X0.39100 Y0.43860
X0.39100 Y0.43760
X0.39200 Y0.43760
X0.39200 Y0.43660
X0.39300 Y0.43660
X0.39300 Y0.43560
X0.39400 Y0.43560
X0.39400 Y0.43460
X0.39500 Y0.43460
X0.39500 Y0.43360
X0.39600 Y0.43360
X0.39600 Y0.43260
X0.39700 Y0.43260
X0.39700 Y0.43160
X0.39800 Y0.43160
X0.39800 Y0.43060
X0.39900 Y0.43060
X0.39900 Y0.42960
X0.40000 Y0.42960
X0.40000 Y0.42860
X0.40100 Y0.42860
X0.40100 Y0.42760
X0.40200 Y0.42760
X0.40200 Y0.42660
X0.40300 Y0.42660
X0.40300 Y0.42560
X0.40400 Y0.42560
X0.40400 Y0.42460
X0.40500 Y0.42460
X0.40500 Y0.42360
X0.40600 Y0.42360
X0.40600 Y0.42260
X0.40700 Y0.42260
X0.40700 Y0.42160
X0.40800 Y0.42160
X0.40800 Y0.42060
X0.40900 Y0.42060
X0.40900 Y0.41960
X0.41000 Y0.41960
X0.41000 Y0.41860
X0.41100 Y0.41860
X0.41100 Y0.41760
X0.41200 Y0.41760
X0.41200 Y0.41660
X0.41300 Y0.41660
X0.41300 Y0.41560
X0.41400 Y0.41560
X0.41400 Y0.41460
X0.41500 Y0.41460
X0.41500 Y0.41360
X0.41600 Y0.41360
X0.41600 Y0.41260
X0.41700 Y0.41260
X0.41700 Y0.41160
X0.41800 Y0.41160
X0.41800 Y0.41060
X0.41900 Y0.41060
X0.41900 Y0.40960
X0.42000 Y0.40960
X0.42000 Y0.40860
X0.42100 Y0.40860
X0.42100 Y0.40760
X0.42200 Y0.40760
X0.42200 Y0.40660
X0.42300 Y0.40660
X0.42300 Y0.40560
X0.42400 Y0.40560
X0.42400 Y0.40460
X0.42500 Y0.40460
X0.42500 Y0.40360
X0.42600 Y0.40360
X0.42600 Y0.40260
X0.42700 Y0.40260
X0.42700 Y0.40160
X0.42800 Y0.40160
X0.42800 Y0.40060
X0.42900 Y0.40060
X0.42900 Y0.39960
X0.43000 Y0.39960
X0.43000 Y0.39860
X0.43100 Y0.39860
X0.43100 Y0.39760
X0.43200 Y0.39760
X0.43200 Y0.39660
X0.43300 Y0.39660
X0.43300 Y0.39560
X0.43400 Y0.39560
X0.43400 Y0.39460
X0.43500 Y0.39460
X0.43500 Y0.39360
X0.43600 Y0.39360
X0.43600 Y0.39260
X0.43700 Y0.39260
X0.43700 Y0.39160
X0.43800 Y0.39160
X0.43800 Y0.39060
X0.43900 Y0.39060
X0.43900 Y0.38960
X0.44000 Y0.38960
X0.44000 Y0.38860
X0.44100 Y0.38860
X0.44100 Y0.38760
X0.44200 Y0.38760
X0.44200 Y0.38660
X0.44300 Y0.38660
X0.44300 Y0.38560
X0.44400 Y0.38560
X0.44400 Y0.38360
X0.44500 Y0.38360
X0.44500 Y0.38260
X0.44600 Y0.38260
X0.44600 Y0.38160
X0.44700 Y0.38160
X0.44700 Y0.38060
X0.44800 Y0.38060
X0.44800 Y0.35160
X0.44900 Y0.35160
X0.44900 Y0.35060
X0.45000 Y0.35060
X0.45000 Y0.34960
X0.45100 Y0.34960
X0.45100 Y0.34860
X0.45200 Y0.34860
X0.45200 Y0.34760
X0.45300 Y0.34760
X0.45300 Y0.34660
X0.45400 Y0.34660
X0.45400 Y0.34560
X0.45500 Y0.34560
X0.45500 Y0.34460
X0.45600 Y0.34460
X0.45600 Y0.34360
X0.45700 Y0.34360
X0.45700 Y0.34260
X0.45900 Y0.34260
X0.45900 Y0.34060
X0.46000 Y0.34060
X0.46000 Y0.33960
X0.46100 Y0.33960
X0.46100 Y0.33860
X0.46300 Y0.33860
X0.46300 Y0.33760
X0.46400 Y0.33760
X0.46400 Y0.33660
X0.46500 Y0.33660
X0.46500 Y0.33560
X0.49900 Y0.33560
X0.49900 Y0.33660
X0.50000 Y0.33660
X0.50000 Y0.33760
X0.50100 Y0.33760
X0.50100 Y0.33860
X0.50200 Y0.33860
X0.50200 Y0.33960
X0.50300 Y0.33960
X0.50300 Y0.34060
X0.50400 Y0.34060
X0.50400 Y0.34160
X0.50500 Y0.34160
X0.50500 Y0.34260
X0.50600 Y0.34260
X0.50600 Y0.34360
X0.50700 Y0.34360
X0.50700 Y0.34460
X0.50800 Y0.34460
X0.50800 Y0.34560
X0.50900 Y0.34560
X0.50900 Y0.34660
X0.51000 Y0.34660
X0.51000 Y0.34760
X0.51100 Y0.34760
X0.51100 Y0.34860
X0.51200 Y0.34860
X0.51200 Y0.34960
X0.51300 Y0.34960
X0.51300 Y0.35060
X0.51400 Y0.35060
X0.51400 Y0.35160
X0.51500 Y0.35160
X0.51500 Y0.38660
X0.51400 Y0.38660
X0.51400 Y0.38760
X0.51300 Y0.38760
X0.51300 Y0.38860
X0.51200 Y0.38860
X0.51200 Y0.38960
X0.51100 Y0.38960
X0.51100 Y0.39060
X0.51000 Y0.39060
X0.51000 Y0.39160
X0.50900 Y0.39160
X0.50900 Y0.39260
X0.50800 Y0.39260
X0.50800 Y0.39360
X0.50700 Y0.39360
X0.50700 Y0.39460
X0.50600 Y0.39460
X0.50600 Y0.39560
X0.50500 Y0.39560
X0.50500 Y0.39660
X0.50400 Y0.39660
X0.50400 Y0.39760
X0.50300 Y0.39760
X0.50300 Y0.39860
X0.50200 Y0.39860
X0.50200 Y0.39960
X0.50100 Y0.39960
X0.50100 Y0.40060
X0.50000 Y0.40060
X0.50000 Y0.40160
X0.49900 Y0.40160
X0.49900 Y0.40260
X0.47000 Y0.40260
X0.47000 Y0.40360
X0.46900 Y0.40360
X0.46900 Y0.40460
X0.46800 Y0.40460
X0.46800 Y0.40560
X0.46700 Y0.40560
X0.46700 Y0.40660
X0.46600 Y0.40660
X0.46600 Y0.40760
X0.46500 Y0.40760
X0.46500 Y0.40860
X0.46400 Y0.40860
X0.46400 Y0.40960
X0.46300 Y0.40960
X0.46300 Y0.41060
X0.46200 Y0.41060
X0.46200 Y0.41160
X0.46100 Y0.41160
X0.46100 Y0.41260
X0.46000 Y0.41260
X0.46000 Y0.41360
X0.45900 Y0.41360
X0.45900 Y0.41460
X0.45800 Y0.41460
X0.45800 Y0.41560
X0.45700 Y0.41560
X0.45700 Y0.41660
X0.45600 Y0.41660
X0.45600 Y0.41760
X0.45500 Y0.41760
X0.45500 Y0.41860
X0.45400 Y0.41860
X0.45400 Y0.41960
X0.45300 Y0.41960
X0.45300 Y0.42060
X0.45200 Y0.42060
X0.45200 Y0.42160
X0.45100 Y0.42160
X0.45100 Y0.42260
X0.45000 Y0.42260
X0.45000 Y0.42360
X0.44900 Y0.42360
X0.44900 Y0.42460
X0.44800 Y0.42460
X0.44800 Y0.42560
X0.44700 Y0.42560
X0.44700 Y0.42660
X0.44600 Y0.42660
X0.44600 Y0.42760
X0.44500 Y0.42760
X0.44500 Y0.42860
X0.44400 Y0.42860
X0.44400 Y0.42960
X0.44300 Y0.42960
X0.44300 Y0.43060
X0.44200 Y0.43060
X0.44200 Y0.43160
X0.44100 Y0.43160
X0.44100 Y0.43260
X0.44000 Y0.43260
X0.44000 Y0.43360
X0.43900 Y0.43360
X0.43900 Y0.43460
X0.43800 Y0.43460
X0.43800 Y0.43560
X0.43700 Y0.43560
X0.43700 Y0.43660
X0.43600 Y0.43660
X0.43600 Y0.43760
X0.43500 Y0.43760
X0.43500 Y0.43860
X0.43400 Y0.43860
X0.43400 Y0.43960
X0.43300 Y0.43960
X0.43300 Y0.44060
X0.43200 Y0.44060
X0.43200 Y0.44160
X0.43100 Y0.44160
X0.43100 Y0.44260
X0.43000 Y0.44260
X0.43000 Y0.44360
X0.42900 Y0.44360
X0.42900 Y0.44460
X0.42800 Y0.44460
X0.42800 Y0.44560
X0.42700 Y0.44560
X0.42700 Y0.44660
X0.42600 Y0.44660
X0.42600 Y0.44760
X0.42500 Y0.44760
X0.42500 Y0.44860
X0.42400 Y0.44860
X0.42400 Y0.44960
X0.42300 Y0.44960
X0.42300 Y0.45060
X0.42200 Y0.45060
X0.42200 Y0.45160
X0.42100 Y0.45160
X0.42100 Y0.45260
X0.42000 Y0.45260
X0.42000 Y0.45360
X0.41900 Y0.45360
X0.41900 Y0.45460
X0.41800 Y0.45460
X0.41800 Y0.45560
X0.41700 Y0.45560
X0.41700 Y0.45660
X0.41600 Y0.45660
X0.41600 Y0.45760
X0.41500 Y0.45760
X0.41500 Y0.45860
X0.41400 Y0.45860
X0.41400 Y0.45960
X0.41300 Y0.45960
X0.41300 Y0.46060
X0.41200 Y0.46060
X0.41200 Y0.46160
X0.41100 Y0.46160
X0.41100 Y0.46260
X0.41000 Y0.46260
X0.41000 Y0.46360
X0.40900 Y0.46360
X0.40900 Y0.46460
X0.40800 Y0.46460
X0.40800 Y0.46560
X0.40700 Y0.46560
X0.40700 Y0.46660
X0.40600 Y0.46660
X0.40600 Y0.46760
X0.40500 Y0.46760
X0.40500 Y0.46860
X0.40400 Y0.46860
X0.40400 Y0.46960
X0.40300 Y0.46960
X0.40300 Y0.47060
X0.40200 Y0.47060
X0.40200 Y0.47160
X0.40100 Y0.47160
X0.40100 Y0.47260
X0.40000 Y0.47260
X0.40000 Y0.47360
X0.39900 Y0.47360
X0.39900 Y0.47460
X0.39800 Y0.47460
X0.39800 Y0.47560
X0.39700 Y0.47560
X0.39700 Y0.47660
X0.39600 Y0.47660
X0.39600 Y0.47760
X0.39500 Y0.47760
X0.39500 Y0.47860
X0.39400 Y0.47860
X0.39400 Y0.47960
X0.39300 Y0.47960
X0.39300 Y0.48060
X0.39200 Y0.48060
X0.39200 Y0.48160
X0.39100 Y0.48160
X0.39100 Y0.48260
X0.39000 Y0.48260
X0.39000 Y0.48360
X0.38900 Y0.48360
X0.38900 Y0.48460
X0.38800 Y0.48460
X0.38800 Y0.48560
X0.38700 Y0.48560
X0.38700 Y0.48660
X0.38600 Y0.48660
X0.38600 Y0.48760
X0.38500 Y0.48760
X0.38500 Y0.48860
X0.38400 Y0.48860
X0.38400 Y0.48960
X0.38300 Y0.48960
X0.38300 Y0.49060
X0.38200 Y0.49060
X0.38200 Y0.49160
X0.38100 Y0.49160
X0.38100 Y0.49260
X0.38000 Y0.49260
X0.38000 Y0.49360
X0.37900 Y0.49360
X0.37900 Y0.49460
X0.37800 Y0.49460
X0.37800 Y0.49560
X0.37700 Y0.49560
X0.37700 Y0.49660
X0.37600 Y0.49660
X0.37600 Y0.49760
X0.37500 Y0.49760
X0.37500 Y0.49860
X0.37400 Y0.49860
X0.37400 Y0.49960
X0.37300 Y0.49960
X0.37300 Y0.50060
X0.37200 Y0.50060
X0.37200 Y0.50160
X0.37100 Y0.50160
X0.37100 Y0.50260
X0.37000 Y0.50260
X0.37000 Y0.50360
X0.36900 Y0.50360
X0.36900 Y0.50460
X0.36800 Y0.50460
X0.36800 Y0.50560
X0.36700 Y0.50560
X0.36700 Y0.50660
X0.36600 Y0.50660
X0.36600 Y0.50760
X0.36500 Y0.50760
X0.36500 Y0.50860
X0.36400 Y0.50860
X0.36400 Y0.50960
X0.36300 Y0.50960
X0.36300 Y0.51060
X0.36200 Y0.51060
X0.36200 Y0.51160
X0.36100 Y0.51160
X0.36100 Y0.51260
X0.36000 Y0.51260
X0.36000 Y0.51360
X0.35900 Y0.51360
X0.35900 Y0.51460
X0.35800 Y0.51460
X0.35800 Y0.51560
X0.35700 Y0.51560
X0.35700 Y0.51660
X0.35600 Y0.51660
X0.35600 Y0.51760
X0.35500 Y0.51760
X0.35500 Y0.51860
X0.35400 Y0.51860
X0.35400 Y0.51960
X0.35300 Y0.51960
X0.35300 Y0.52060
X0.35200 Y0.52060
X0.35200 Y0.52160
X0.35100 Y0.52160
X0.35100 Y0.52260
X0.35000 Y0.52260
X0.35000 Y0.52360
X0.34900 Y0.52360
X0.34900 Y0.52460
X0.34800 Y0.52460
X0.34800 Y0.52560
X0.34700 Y0.52560
X0.34700 Y0.52660
X0.34600 Y0.52660
X0.34600 Y0.52760
X0.34500 Y0.52760
X0.34500 Y0.52860
X0.34400 Y0.52860
X0.34400 Y0.52960
X0.34300 Y0.52960
X0.34300 Y0.53060
X0.34200 Y0.53060
X0.34200 Y0.53160
X0.34100 Y0.53160
X0.34100 Y0.53260
X0.34000 Y0.53260
X0.34000 Y0.53360
X0.33900 Y0.53360
X0.33900 Y0.53460
X0.33800 Y0.53460
X0.33800 Y0.53560
X0.33700 Y0.53560
X0.33700 Y0.53660
X0.33600 Y0.53660
X0.33600 Y0.53760
X0.33500 Y0.53760
X0.33500 Y0.53860
X0.33400 Y0.53860
X0.33400 Y0.53960
X0.33300 Y0.53960
X0.33300 Y0.54060
X0.33200 Y0.54060
X0.33200 Y0.54160
X0.33100 Y0.54160
X0.33100 Y0.54260
X0.33000 Y0.54260
X0.33000 Y0.54360
X0.32900 Y0.54360
X0.32900 Y0.54460
X0.32800 Y0.54460
X0.32800 Y0.54560
X0.32700 Y0.54560
X0.32700 Y0.54660
X0.32600 Y0.54660
X0.32600 Y0.54760
X0.32500 Y0.54760
X0.32500 Y0.54860
X0.32400 Y0.54860
X0.32400 Y0.54960
X0.32300 Y0.54960
X0.32300 Y0.55060
X0.32200 Y0.55060
X0.32200 Y0.55160
X0.32100 Y0.55160
X0.32100 Y0.55260
X0.32000 Y0.55260
X0.32000 Y0.55360
X0.31900 Y0.55360
X0.31900 Y0.55460
X0.31800 Y0.55460
X0.31800 Y0.55560
X0.31700 Y0.55560
X0.31700 Y0.55660
X0.31600 Y0.55660
X0.31600 Y0.55760
X0.31500 Y0.55760
X0.31500 Y0.55860
X0.31400 Y0.55860
X0.31400 Y0.55960
X0.31300 Y0.55960
X0.31300 Y0.56060
X0.31200 Y0.56060
X0.31200 Y0.56160
X0.31100 Y0.56160
X0.31100 Y0.56260
X0.31000 Y0.56260
X0.31000 Y0.56360
X0.30900 Y0.56360
X0.30900 Y0.56460
X0.30800 Y0.56460
X0.30800 Y0.56560
X0.30700 Y0.56560
X0.30700 Y0.56660
X0.30600 Y0.56660
X0.30600 Y0.56760
X0.30500 Y0.56760
X0.30500 Y0.56860
X0.30400 Y0.56860
X0.30400 Y0.56960
X0.30300 Y0.56960
X0.30300 Y0.57060
X0.30200 Y0.57060
X0.30200 Y0.57160
X0.30100 Y0.57160
X0.30100 Y0.57260
X0.30000 Y0.57260
X0.30000 Y0.57360
X0.29900 Y0.57360
X0.29900 Y0.57460
X0.29800 Y0.57460
X0.29800 Y0.57560
X0.29700 Y0.57560
X0.29700 Y0.57660
X0.29600 Y0.57660
X0.29600 Y0.57760
X0.29500 Y0.57760
X0.29500 Y0.57860
X0.29400 Y0.57860
X0.29400 Y0.57960
X0.29300 Y0.57960
X0.29300 Y0.58060
X0.29200 Y0.58060
X0.29200 Y0.58160
X0.29100 Y0.58160
X0.29100 Y0.58260
X0.29000 Y0.58260
X0.29000 Y0.58360
X0.28900 Y0.58360
X0.28900 Y0.58460
X0.28800 Y0.58460
X0.28800 Y0.58560
X0.28700 Y0.58560
X0.28700 Y0.58660
X0.28600 Y0.58660
X0.28600 Y0.58760
X0.28500 Y0.58760
X0.28500 Y0.58860
X0.28400 Y0.58860
X0.28400 Y0.58960
X0.28300 Y0.58960
X0.28300 Y0.59060
X0.28200 Y0.59060
X0.28200 Y0.59160
X0.28100 Y0.59160
X0.28100 Y0.59260
X0.28000 Y0.59260
X0.28000 Y0.59360
X0.27900 Y0.59360
X0.27900 Y0.59460
X0.27800 Y0.59460
X0.27800 Y0.59560
X0.27700 Y0.59560
X0.27700 Y0.59660
X0.27600 Y0.59660
X0.27600 Y0.59760
X0.27500 Y0.59760
X0.27500 Y0.59860
X0.27400 Y0.59860
X0.27400 Y0.59960
X0.27300 Y0.59960
X0.27300 Y0.60060
X0.27200 Y0.60060
X0.27200 Y0.60160
X0.27100 Y0.60160
X0.27100 Y0.60260
X0.27000 Y0.60260
X0.27000 Y0.60360
X0.26900 Y0.60360
X0.26900 Y0.60460
X0.26800 Y0.60460
X0.26800 Y0.60560
X0.26700 Y0.60560
X0.26700 Y0.60660
X0.26600 Y0.60660
X0.26600 Y0.60760
X0.26500 Y0.60760
X0.26500 Y0.60860
X0.26400 Y0.60860
X0.26400 Y0.60960
X0.26300 Y0.60960
X0.26300 Y0.61060
X0.26200 Y0.61060
X0.26200 Y0.61160
X0.26100 Y0.61160
X0.26100 Y0.61260
X0.26000 Y0.61260
X0.26000 Y0.61360
X0.25900 Y0.61360
X0.25900 Y0.61460
X0.25800 Y0.61460
X0.25800 Y0.61560
X0.25700 Y0.61560
X0.25700 Y0.61660
X0.25600 Y0.61660
X0.25600 Y0.61760
X0.25500 Y0.61760
X0.25500 Y0.61860
X0.25400 Y0.61860
X0.25400 Y0.61960
X0.25300 Y0.61960
X0.25300 Y0.62060
X0.25200 Y0.62060
X0.25200 Y0.62160
X0.25100 Y0.62160
X0.25100 Y0.62260
X0.25000 Y0.62260
X0.25000 Y0.62360
X0.24900 Y0.62360
X0.24900 Y0.62460
X0.24800 Y0.62460
X0.24800 Y0.62560
X0.24700 Y0.62560
X0.24700 Y0.62660
X0.24600 Y0.62660
X0.24600 Y0.62760
X0.24500 Y0.62760
X0.24500 Y1.16060
X0.24600 Y1.16060
X0.24600 Y1.16160
X0.24700 Y1.16160
X0.24700 Y1.16260
X0.24800 Y1.16260
X0.24800 Y1.16360
X0.24900 Y1.16360
X0.24900 Y1.16460
X0.25000 Y1.16460
X0.25000 Y1.16560
X0.25100 Y1.16560
X0.25100 Y1.16660
X0.25200 Y1.16660
X0.25200 Y1.16760
X0.25300 Y1.16760
X0.25300 Y1.16860
X0.25400 Y1.16860
X0.25400 Y1.16960
X0.25500 Y1.16960
X0.25500 Y1.17060
X0.25600 Y1.17060
X0.25600 Y1.17160
X0.25700 Y1.17160
X0.25700 Y1.17260
X0.25800 Y1.17260
X0.25800 Y1.17360
X0.25900 Y1.17360
X0.25900 Y1.17460
X0.26000 Y1.17460
X0.26000 Y1.17560
X0.26100 Y1.17560
X0.26100 Y1.17660
X0.26200 Y1.17660
X0.26200 Y1.17760
X0.26300 Y1.17760
X0.26300 Y1.17860
X0.26400 Y1.17860
X0.26400 Y1.17960
X0.26500 Y1.17960
X0.26500 Y1.18060
X0.26600 Y1.18060
X0.26600 Y1.18160
X0.26700 Y1.18160
X0.26700 Y1.18260
X0.26800 Y1.18260
X0.26800 Y1.18360
X0.26900 Y1.18360
X0.26900 Y1.18460
X0.27000 Y1.18460
X0.27000 Y1.18560
X0.27100 Y1.18560
X0.27100 Y1.18660
X0.27200 Y1.18660
X0.27200 Y1.18760
X0.27300 Y1.18760
X0.27300 Y1.18860
X0.27400 Y1.18860
X0.27400 Y1.18960
X0.27500 Y1.18960
X0.27500 Y1.19060
X0.27600 Y1.19060
X0.27600 Y1.19160
X0.27700 Y1.19160
X0.27700 Y1.19260
X0.27800 Y1.19260
X0.27800 Y1.19360
X0.27900 Y1.19360
X0.27900 Y1.19460
X0.28000 Y1.19460
X0.28000 Y1.19560
X0.28100 Y1.19560
X0.28100 Y1.19660
X0.28200 Y1.19660
X0.28200 Y1.19760
X0.28300 Y1.19760
X0.28300 Y1.19860
X0.28400 Y1.19860
X0.28400 Y1.19960
X0.28500 Y1.19960
X0.28500 Y1.20060
X0.28600 Y1.20060
X0.28600 Y1.20160
X0.28700 Y1.20160
X0.28700 Y1.20260
X0.28800 Y1.20260
X0.28800 Y1.20360
X0.28900 Y1.20360
X0.28900 Y1.20460
X0.29000 Y1.20460
X0.29000 Y1.20560
X0.29100 Y1.20560
X0.29100 Y1.20660
X0.29200 Y1.20660
X0.29200 Y1.20760
X0.29300 Y1.20760
X0.29300 Y1.20860
X0.29400 Y1.20860
X0.29400 Y1.20960
X0.29500 Y1.20960
X0.29500 Y1.21060
X0.29600 Y1.21060
X0.29600 Y1.21160
X0.29700 Y1.21160
X0.29700 Y1.21260
X0.29800 Y1.21260
X0.29800 Y1.21360
X0.29900 Y1.21360
X0.29900 Y1.21460
X0.30000 Y1.21460
X0.30000 Y1.21560
X0.30100 Y1.21560
X0.30100 Y1.21660
X0.30200 Y1.21660
X0.30200 Y1.21760
X0.30300 Y1.21760
X0.30300 Y1.21860
X0.30400 Y1.21860
X0.30400 Y1.21960
X0.30500 Y1.21960
X0.30500 Y1.22060
X0.30600 Y1.22060
X0.30600 Y1.22160
X0.30700 Y1.22160
X0.30700 Y1.22260
X0.30800 Y1.22260
X0.30800 Y1.22360
X0.30900 Y1.22360
X0.30900 Y1.22460
X0.31000 Y1.22460
X0.31000 Y1.22560
X0.31100 Y1.22560
X0.31100 Y1.22660
X0.31200 Y1.22660
X0.31200 Y1.22760
X0.31300 Y1.22760
X0.31300 Y1.22860
X0.31400 Y1.22860
X0.31400 Y1.22960
X0.31500 Y1.22960
X0.31500 Y1.23060
X0.31600 Y1.23060
X0.31600 Y1.23160
X0.31700 Y1.23160
X0.31700 Y1.23260
X0.31800 Y1.23260
X0.31800 Y1.23360
X0.31900 Y1.23360
X0.31900 Y1.23460
X0.32000 Y1.23460
X0.32000 Y1.23560
X0.32100 Y1.23560
X0.32100 Y1.23660
X0.32200 Y1.23660
X0.32200 Y1.23760
X0.32300 Y1.23760
X0.32300 Y1.23860
X0.32400 Y1.23860
X0.32400 Y1.23960
X0.32500 Y1.23960
X0.32500 Y1.24060
X0.32600 Y1.24060
X0.32600 Y1.24160
X0.32700 Y1.24160
X0.32700 Y1.24260
X0.32800 Y1.24260
X0.32800 Y1.24360
X0.32900 Y1.24360
X0.32900 Y1.24460
X0.33000 Y1.24460
X0.33000 Y1.24560
X0.33100 Y1.24560
X0.33100 Y1.24660
X0.33200 Y1.24660
X0.33200 Y1.24760
X0.33300 Y1.24760
X0.33300 Y1.24860
X0.33400 Y1.24860
X0.33400 Y1.24960
X0.33500 Y1.24960
X0.33500 Y1.25060
X0.33600 Y1.25060
X0.33600 Y1.25160
X0.33700 Y1.25160
X0.33700 Y1.25260
X0.33800 Y1.25260
X0.33800 Y1.25360
X0.33900 Y1.25360
X0.33900 Y1.25460
X0.34000 Y1.25460
X0.34000 Y1.25560
X0.34100 Y1.25560
X0.34100 Y1.25660
X0.34200 Y1.25660
X0.34200 Y1.25760
X0.34300 Y1.25760
X0.34300 Y1.25860
X0.34400 Y1.25860
X0.34400 Y1.25960
X0.34500 Y1.25960
X0.34500 Y1.26060
X0.34600 Y1.26060
X0.34600 Y1.26160
X0.34700 Y1.26160
X0.34700 Y1.26260
X0.34800 Y1.26260
X0.34800 Y1.26360
X0.34900 Y1.26360
X0.34900 Y1.26460
X0.35000 Y1.26460
X0.35000 Y1.26560
X0.35100 Y1.26560
X0.35100 Y1.26660
X0.35200 Y1.26660
X0.35200 Y1.26760
X0.35300 Y1.26760
X0.35300 Y1.26860
X0.35400 Y1.26860
X0.35400 Y1.26960
X0.35500 Y1.26960
X0.35500 Y1.27060
X0.35600 Y1.27060
X0.35600 Y1.27160
X0.35700 Y1.27160
X0.35700 Y1.27260
X0.35800 Y1.27260
X0.35800 Y1.27360
X0.35900 Y1.27360
X0.35900 Y1.27460
X0.36000 Y1.27460
X0.36000 Y1.27560
X0.36100 Y1.27560
X0.36100 Y1.27660
X0.36200 Y1.27660
X0.36200 Y1.27760
X0.36300 Y1.27760
X0.36300 Y1.27860
X0.36400 Y1.27860
X0.36400 Y1.27960
X0.36500 Y1.27960
X0.36500 Y1.28060
X0.36600 Y1.28060
X0.36600 Y1.28160
X0.36700 Y1.28160
X0.36700 Y1.28260
X0.36800 Y1.28260
X0.36800 Y1.28360
X0.36900 Y1.28360
X0.36900 Y1.28460
X0.37000 Y1.28460
X0.37000 Y1.28560
X0.37100 Y1.28560
X0.37100 Y1.28660
X0.37200 Y1.28660
X0.37200 Y1.28760
X0.37300 Y1.28760
X0.37300 Y1.28860
X0.37400 Y1.28860
X0.37400 Y1.28960
X0.37500 Y1.28960
X0.37500 Y1.29060
X0.37600 Y1.29060
X0.37600 Y1.29160
X0.37700 Y1.29160
X0.37700 Y1.29260
X0.37800 Y1.29260
X0.37800 Y1.29360
X0.37900 Y1.29360
X0.37900 Y1.29460
X0.38000 Y1.29460
X0.38000 Y1.29560
X0.38100 Y1.29560
X0.38100 Y1.29660
X0.38200 Y1.29660
X0.38200 Y1.29760
X0.38300 Y1.29760
X0.38300 Y1.29860
X0.38400 Y1.29860
X0.38400 Y1.29960
X0.38500 Y1.29960
X0.38500 Y1.30060
X0.38600 Y1.30060
X0.38600 Y1.30160
X0.38700 Y1.30160
X0.38700 Y1.30260
X0.38800 Y1.30260
X0.38800 Y1.30360
X0.38900 Y1.30360
X0.38900 Y1.30460
X0.39000 Y1.30460
X0.39000 Y1.30560
X0.39100 Y1.30560
X0.39100 Y1.30660
X0.39200 Y1.30660
X0.39200 Y1.30760
X0.39300 Y1.30760
X0.39300 Y1.30860
X0.39400 Y1.30860
X0.39400 Y1.30960
X0.39500 Y1.30960
X0.39500 Y1.31060
X0.39600 Y1.31060
X0.39600 Y1.31160
X0.39700 Y1.31160
X0.39700 Y1.31260
X0.39800 Y1.31260
X0.39800 Y1.31360
X0.39900 Y1.31360
X0.39900 Y1.31460
X0.40000 Y1.31460
X0.40000 Y1.31560
X0.40100 Y1.31560
X0.40100 Y1.31660
X0.40200 Y1.31660
X0.40200 Y1.31760
X0.40300 Y1.31760
X0.40300 Y1.31860
X0.40400 Y1.31860
X0.40400 Y1.31960
X0.40500 Y1.31960
X0.40500 Y1.32060
X0.40600 Y1.32060
X0.40600 Y1.32160
X0.40700 Y1.32160
X0.40700 Y1.32260
X0.40800 Y1.32260
X0.40800 Y1.32360
X0.40900 Y1.32360
X0.40900 Y1.32460
X0.41000 Y1.32460
X0.41000 Y1.32560
X0.41100 Y1.32560
X0.41100 Y1.32660
X0.41200 Y1.32660
X0.41200 Y1.32760
X0.41300 Y1.32760
X0.41300 Y1.32860
X0.41400 Y1.32860
X0.41400 Y1.32960
X0.41500 Y1.32960
X0.41500 Y1.33060
X0.41600 Y1.33060
X0.41600 Y1.33160
X0.41700 Y1.33160
X0.41700 Y1.33260
X0.41800 Y1.33260
X0.41800 Y1.33360
X0.41900 Y1.33360
X0.41900 Y1.33460
X0.42000 Y1.33460
X0.42000 Y1.33560
X0.42100 Y1.33560
X0.42100 Y1.33660
X0.42200 Y1.33660
X0.42200 Y1.33760
X0.42300 Y1.33760
X0.42300 Y1.33860
X0.42400 Y1.33860
X0.42400 Y1.33960
X0.42500 Y1.33960
X0.42500 Y1.34060
X0.42600 Y1.34060
X0.42600 Y1.34160
X0.42700 Y1.34160
X0.42700 Y1.34260
X0.42800 Y1.34260
X0.42800 Y1.34360
X0.42900 Y1.34360
X0.42900 Y1.34460
X0.43000 Y1.34460
X0.43000 Y1.34560
X0.43100 Y1.34560
X0.43100 Y1.34660
X0.43200 Y1.34660
X0.43200 Y1.34760
X0.43300 Y1.34760
X0.43300 Y1.34860
X0.43400 Y1.34860
X0.43400 Y1.34960
X0.43500 Y1.34960
X0.43500 Y1.35060
X0.43600 Y1.35060
X0.43600 Y1.35160
X0.43700 Y1.35160
X0.43700 Y1.35260
X0.43800 Y1.35260
X0.43800 Y1.35360
X0.43900 Y1.35360
X0.43900 Y1.35460
X0.44000 Y1.35460
X0.44000 Y1.35560
X0.44100 Y1.35560
X0.44100 Y1.35660
X0.44200 Y1.35660
X0.44200 Y1.35760
X0.44300 Y1.35760
X0.44300 Y1.35960
X0.44400 Y1.35960
X0.44400 Y1.36160
X0.44500 Y1.36160
X0.44500 Y1.46060
X0.44600 Y1.46060
X0.44600 Y1.46160
X0.44700 Y1.46160
X0.44700 Y1.46260
X0.44800 Y1.46260
X0.44800 Y1.46360
X0.44900 Y1.46360
X0.44900 Y1.46560
X0.45000 Y1.46560
X0.45000 Y1.46660
X0.45100 Y1.46660
X0.45100 Y1.46760
X0.45200 Y1.46760
X0.45200 Y1.46860
X0.45300 Y1.46860
X0.45300 Y1.46960
X0.45400 Y1.46960
X0.45400 Y1.47060
X0.45500 Y1.47060
X0.45500 Y1.47160
X0.45600 Y1.47160
X0.45600 Y1.47260
X0.45700 Y1.47260
X0.45700 Y1.47360
X0.45800 Y1.47360
X0.45800 Y1.47460
X0.45900 Y1.47460
X0.45900 Y1.47560
X0.46000 Y1.47560
X0.46000 Y1.47660
X0.46100 Y1.47660
X0.46100 Y1.47760
X0.46200 Y1.47760
X0.46200 Y1.47860
X0.46300 Y1.47860
X0.46300 Y1.47960
X0.46400 Y1.47960
X0.46400 Y1.48060
X0.46500 Y1.48060
X0.46500 Y1.48160
X0.46700 Y1.48160
X0.46700 Y1.48260
X0.46800 Y1.48260
X0.46800 Y1.48360
X0.46900 Y1.48360
X0.46900 Y1.48460
X0.47000 Y1.48460
X0.47000 Y1.48560
X0.49900 Y1.48560
X0.49900 Y1.48660
X0.50000 Y1.48660
X0.50000 Y1.48760
X0.50100 Y1.48760
X0.50100 Y1.48860
X0.50200 Y1.48860
X0.50200 Y1.48960
X0.50300 Y1.48960
X0.50300 Y1.49060
X0.50400 Y1.49060
X0.50400 Y1.49160
X0.50500 Y1.49160
X0.50500 Y1.49260
X0.50600 Y1.49260
X0.50600 Y1.49360
X0.50700 Y1.49360
X0.50700 Y1.49460
X0.50800 Y1.49460
X0.50800 Y1.49560
X0.50900 Y1.49560
X0.50900 Y1.49660
X0.51000 Y1.49660
X0.51000 Y1.49760
X0.51100 Y1.49760
X0.51100 Y1.49860
X0.51200 Y1.49860
X0.51200 Y1.49960
X0.51300 Y1.49960
X0.51300 Y1.50060
X0.51400 Y1.50060
X0.51400 Y1.50160
X0.51500 Y1.50160
X0.51500 Y1.53560
X0.51400 Y1.53560
X0.51400 Y1.53660
X0.51300 Y1.53660
X0.51300 Y1.53760
X0.51200 Y1.53760
X0.51200 Y1.53960
X0.51100 Y1.53960
X0.51100 Y1.54060
X0.51000 Y1.54060
X0.51000 Y1.54160
X0.50900 Y1.54160
X0.50900 Y1.54260
X0.50800 Y1.54260
X0.50800 Y1.54360
X0.50700 Y1.54360
X0.50700 Y1.54460
X0.50600 Y1.54460
X0.50600 Y1.54560
X0.50500 Y1.54560
X0.50500 Y1.54660
X0.50400 Y1.54660
X0.50400 Y1.54760
X0.50300 Y1.54760
X0.50300 Y1.54860
X0.50200 Y1.54860
X0.50200 Y1.54960
X0.50000 Y1.54960
X0.50000 Y1.55160
X0.49900 Y1.55160
X0.49900 Y1.55260
X0.46500 Y1.55260
X0.46500 Y1.55160
X0.46400 Y1.55160
X0.46400 Y1.54960
X0.46200 Y1.54960
X0.46200 Y1.54860
X0.46100 Y1.54860
X0.46100 Y1.54760
X0.46000 Y1.54760
X0.46000 Y1.54660
G04 P0 ( dwell for no time -- G64 should not smooth over this point )
G00 Z0.08000 ( retract )

G00 X0.36000 Y1.54660 ( rapid move to begin. )
G01 Z-0.00800 F6.00000 ( plunge. )
G04 P0 ( dwell for no time -- G64 should not smooth over this point )
X0.36000 Y1.54660
X0.35900 Y1.54660
X0.35900 Y1.54560
X0.35800 Y1.54560
X0.35800 Y1.54460
X0.35700 Y1.54460
X0.35700 Y1.54360
X0.35600 Y1.54360
X0.35600 Y1.54260
X0.35500 Y1.54260
X0.35500 Y1.54160
X0.35400 Y1.54160
X0.35400 Y1.54060
X0.35300 Y1.54060
X0.35300 Y1.53960
X0.35200 Y1.53960
X0.35200 Y1.53860
X0.35100 Y1.53860
X0.35100 Y1.53760
X0.35000 Y1.53760
X0.35000 Y1.53660
X0.34900 Y1.53660
X0.34900 Y1.53560
X0.34800 Y1.53560
X0.34800 Y1.50760
X0.34700 Y1.50760
X0.34700 Y1.50660
X0.34600 Y1.50660
X0.34600 Y1.50560
X0.34500 Y1.50560
X0.34500 Y1.50460
X0.34400 Y1.50460
X0.34400 Y1.50260
X0.34300 Y1.50260
X0.34300 Y1.50160
X0.34200 Y1.50160
X0.34200 Y1.50060
X0.34100 Y1.50060
X0.34100 Y1.49960
X0.34000 Y1.49960
X0.34000 Y1.49860
X0.33900 Y1.49860
X0.33900 Y1.49760
X0.33800 Y1.49760
X0.33800 Y1.49660
X0.33700 Y1.49660
X0.33700 Y1.49560
X0.33600 Y1.49560
X0.33600 Y1.49460
X0.33500 Y1.49460
X0.33500 Y1.49360
X0.33400 Y1.49360
X0.33400 Y1.49260
X0.33300 Y1.49260
X0.33300 Y1.49160
X0.33200 Y1.49160
X0.33200 Y1.49060
X0.33100 Y1.49060
X0.33100 Y1.48960
X0.33000 Y1.48960
X0.33000 Y1.48860
X0.32900 Y1.48860
X0.32900 Y1.48760
X0.32800 Y1.48760
X0.32800 Y1.48660
X0.32700 Y1.48660
X0.32700 Y1.48560
X0.32600 Y1.48560
X0.32600 Y1.48360
X0.32500 Y1.48360
X0.32500 Y1.48260
X0.32400 Y1.48260
X0.32400 Y1.48160
X0.32300 Y1.48160
X0.32300 Y1.48060
X0.32200 Y1.48060
X0.32200 Y1.47960
X0.32100 Y1.47960
X0.32100 Y1.47860
X0.32000 Y1.47860
X0.32000 Y1.47760
X0.31900 Y1.47760
X0.31900 Y1.47660
X0.31800 Y1.47660
X0.31800 Y1.37760
X0.31700 Y1.37760
X0.31700 Y1.37660
X0.31600 Y1.37660
X0.31600 Y1.37560
X0.31500 Y1.37560
X0.31500 Y1.37460
X0.31400 Y1.37460
X0.31400 Y1.37260
X0.31300 Y1.37260
X0.31300 Y1.37160
X0.31200 Y1.37160
X0.31200 Y1.37060
X0.31100 Y1.37060
X0.31100 Y1.36960
X0.31000 Y1.36960
X0.31000 Y1.36860
X0.30900 Y1.36860
X0.30900 Y1.36760
X0.30800 Y1.36760
X0.30800 Y1.36660
X0.30700 Y1.36660
X0.30700 Y1.36560
X0.30600 Y1.36560
X0.30600 Y1.36460
X0.30500 Y1.36460
X0.30500 Y1.36360
X0.30400 Y1.36360
X0.30400 Y1.36260
X0.30300 Y1.36260
X0.30300 Y1.36160
X0.30200 Y1.36160
X0.30200 Y1.35960
X0.30000 Y1.35960
X0.30000 Y1.35860
X0.29900 Y1.35860
X0.29900 Y1.35760
X0.29800 Y1.35760
X0.29800 Y1.35660
X0.29700 Y1.35660
X0.29700 Y1.35560
X0.29600 Y1.35560
X0.29600 Y1.35460
X0.29500 Y1.35460
X0.29500 Y1.35360
X0.29400 Y1.35360
X0.29400 Y1.35260
X0.29300 Y1.35260
X0.29300 Y1.35160
X0.29200 Y1.35160
X0.29200 Y1.35060
X0.29100 Y1.35060
X0.29100 Y1.34960
X0.29000 Y1.34960
X0.29000 Y1.34860
X0.28900 Y1.34860
X0.28900 Y1.34760
X0.28800 Y1.34760
X0.28800 Y1.34660
X0.28700 Y1.34660
X0.28700 Y1.34560
X0.28600 Y1.34560
X0.28600 Y1.34360
X0.28400 Y1.34360
X0.28400 Y1.34260
X0.28300 Y1.34260
X0.28300 Y1.34160
X0.28200 Y1.34160
X0.28200 Y1.34060
X0.28100 Y1.34060
X0.28100 Y1.33960
X0.28000 Y1.33960
X0.28000 Y1.33860
X0.27900 Y1.33860
X0.27900 Y1.33760
X0.27800 Y1.33760
X0.27800 Y1.33660
X0.27700 Y1.33660
X0.27700 Y1.33560
X0.27600 Y1.33560
X0.27600 Y1.33460
X0.27500 Y1.33460
X0.27500 Y1.33360
X0.27400 Y1.33360
X0.27400 Y1.33260
X0.27300 Y1.33260
X0.27300 Y1.33160
X0.27200 Y1.33160
X0.27200 Y1.33060
X0.27100 Y1.33060
X0.27100 Y1.32960
X0.27000 Y1.32960
X0.27000 Y1.32760
X0.26800 Y1.32760
X0.26800 Y1.32660
X0.26700 Y1.32660
X0.26700 Y1.32560
X0.26600 Y1.32560
X0.26600 Y1.32460
X0.26500 Y1.32460
X0.26500 Y1.32360
X0.26400 Y1.32360
X0.26400 Y1.32260
X0.26300 Y1.32260
X0.26300 Y1.32160
X0.26200 Y1.32160
X0.26200 Y1.32060
X0.26100 Y1.32060
X0.26100 Y1.31960
X0.26000 Y1.31960
X0.26000 Y1.31860
X0.25900 Y1.31860
X0.25900 Y1.31760
X0.25800 Y1.31760
X0.25800 Y1.31660
X0.25700 Y1.31660
X0.25700 Y1.31560
X0.25600 Y1.31560
X0.25600 Y1.31460
X0.25500 Y1.31460
X0.25500 Y1.31360
X0.25400 Y1.31360
X0.25400 Y1.31160
X0.25200 Y1.31160
X0.25200 Y1.31060
X0.25100 Y1.31060
X0.25100 Y1.30960
X0.25000 Y1.30960
X0.25000 Y1.30860
X0.24900 Y1.30860
X0.24900 Y1.30760
X0.24800 Y1.30760
X0.24800 Y1.30660
X0.24700 Y1.30660
X0.24700 Y1.30560
X0.24600 Y1.30560
X0.24600 Y1.30460
X0.24500 Y1.30460
X0.24500 Y1.30360
X0.24400 Y1.30360
X0.24400 Y1.30260
X0.24300 Y1.30260
X0.24300 Y1.30160
X0.24200 Y1.30160
X0.24200 Y1.30060
X0.24100 Y1.30060
X0.24100 Y1.29960
X0.24000 Y1.29960
X0.24000 Y1.29860
X0.23900 Y1.29860
X0.23900 Y1.29760
X0.23800 Y1.29760
X0.23800 Y1.29660
X0.23700 Y1.29660
X0.23700 Y1.29560
X0.23600 Y1.29560
X0.23600 Y1.29460
X0.23500 Y1.29460
X0.23500 Y1.29360
X0.23400 Y1.29360
X0.23400 Y1.29260
X0.23300 Y1.29260
X0.23300 Y1.29160
X0.23200 Y1.29160
X0.23200 Y1.29060
X0.23100 Y1.29060
X0.23100 Y1.28960
X0.23000 Y1.28960
X0.23000 Y1.28860
X0.22900 Y1.28860
X0.22900 Y1.28760
X0.22800 Y1.28760
X0.22800 Y1.28660
X0.22700 Y1.28660
X0.22700 Y1.28560
X0.22600 Y1.28560
X0.22600 Y1.28460
X0.22500 Y1.28460
X0.22500 Y1.28360
X0.22400 Y1.28360
X0.22400 Y1.28260
X0.22300 Y1.28260
X0.22300 Y1.28160
X0.22200 Y1.28160
X0.22200 Y1.28060
X0.22100 Y1.28060
X0.22100 Y1.27960
X0.22000 Y1.27960
X0.22000 Y1.27860
X0.21900 Y1.27860
X0.21900 Y1.27760
X0.21800 Y1.27760
X0.21800 Y1.27660
X0.21700 Y1.27660
X0.21700 Y1.27560
X0.21600 Y1.27560
X0.21600 Y1.27460
X0.21500 Y1.27460
X0.21500 Y1.27360
X0.21400 Y1.27360
X0.21400 Y1.27160
X0.21300 Y1.27160
X0.21300 Y1.27060
X0.21200 Y1.27060
X0.21200 Y1.26960
X0.21100 Y1.26960
X0.21100 Y1.26860
X0.21000 Y1.26860
X0.21000 Y1.26760
X0.20900 Y1.26760
X0.20900 Y1.26660
X0.20800 Y1.26660
X0.20800 Y1.26560
X0.20700 Y1.26560
X0.20700 Y1.26460
X0.20600 Y1.26460
X0.20600 Y1.26360
X0.20500 Y1.26360
X0.20500 Y1.26260
X0.20400 Y1.26260
X0.20400 Y1.26160
X0.20300 Y1.26160
X0.20300 Y1.26060
X0.20200 Y1.26060
X0.20200 Y1.25960
X0.20100 Y1.25960
X0.20100 Y1.25860
X0.20000 Y1.25860
X0.20000 Y1.25760
X0.19900 Y1.25760
X0.19900 Y1.25660
X0.19800 Y1.25660
X0.19800 Y1.25560
X0.19700 Y1.25560
X0.19700 Y1.25460
X0.19600 Y1.25460
X0.19600 Y1.25360
X0.19500 Y1.25360
X0.19500 Y1.25260
X0.19400 Y1.25260
X0.19400 Y1.25160
X0.19300 Y1.25160
X0.19300 Y1.25060
X0.19200 Y1.25060
X0.19200 Y1.24960
X0.19100 Y1.24960
X0.19100 Y1.24860
X0.19000 Y1.24860
X0.19000 Y1.24760
X0.18900 Y1.24760
X0.18900 Y1.24660
X0.18800 Y1.24660
X0.18800 Y1.24560
X0.18700 Y1.24560
X0.18700 Y1.24460
X0.18600 Y1.24460
X0.18600 Y1.24360
X0.18500 Y1.24360
X0.18500 Y1.24260
X0.18400 Y1.24260
X0.18400 Y1.24160
X0.18300 Y1.24160
X0.18300 Y1.24060
X0.18200 Y1.24060
X0.18200 Y1.23960
X0.18100 Y1.23960
X0.18100 Y1.23860
X0.18000 Y1.23860
X0.18000 Y1.23760
X0.17900 Y1.23760
X0.17900 Y1.23660
X0.17800 Y1.23660
X0.17800 Y1.23560
X0.17700 Y1.23560
X0.17700 Y1.23460
X0.17600 Y1.23460
X0.17600 Y1.23360
X0.17500 Y1.23360
X0.17500 Y1.23260
X0.17400 Y1.23260
X0.17400 Y1.23160
X0.17300 Y1.23160
X0.17300 Y1.23060
X0.17200 Y1.23060
X0.17200 Y1.22960
X0.17100 Y1.22960
X0.17100 Y1.22860
X0.17000 Y1.22860
X0.17000 Y1.22760
X0.16900 Y1.22760
X0.16900 Y1.22660
X0.16800 Y1.22660
X0.16800 Y0.56160
X0.16900 Y0.56160
X0.16900 Y0.55960
X0.17000 Y0.55960
X0.17000 Y0.55860
X0.17100 Y0.55860
X0.17100 Y0.55760
X0.17200 Y0.55760
X0.17200 Y0.55660
X0.17300 Y0.55660
X0.17300 Y0.55560
X0.17400 Y0.55560
X0.17400 Y0.55460
X0.17500 Y0.55460
X0.17500 Y0.55360
X0.17600 Y0.55360
X0.17600 Y0.55260
X0.17700 Y0.55260
X0.17700 Y0.55160
X0.17800 Y0.55160
X0.17800 Y0.55060
X0.17900 Y0.55060
X0.17900 Y0.54960
X0.18000 Y0.54960
X0.18000 Y0.54860
X0.18100 Y0.54860
X0.18100 Y0.54760
X0.18200 Y0.54760
X0.18200 Y0.54660
X0.18300 Y0.54660
X0.18300 Y0.54560
X0.18400 Y0.54560
X0.18400 Y0.54460
X0.18500 Y0.54460
X0.18500 Y0.54360
X0.18600 Y0.54360
X0.18600 Y0.54260
X0.18700 Y0.54260
X0.18700 Y0.54160
X0.18800 Y0.54160
X0.18800 Y0.54060
X0.18900 Y0.54060
X0.18900 Y0.53960
X0.19000 Y0.53960
X0.19000 Y0.53860
X0.19100 Y0.53860
X0.19100 Y0.53760
X0.19200 Y0.53760
X0.19200 Y0.53660
X0.19300 Y0.53660
X0.19300 Y0.53560
X0.19400 Y0.53560
X0.19400 Y0.53460
X0.19500 Y0.53460
X0.19500 Y0.53360
X0.19600 Y0.53360
X0.19600 Y0.53260
X0.19700 Y0.53260
X0.19700 Y0.53160
X0.19800 Y0.53160
X0.19800 Y0.53060
X0.19900 Y0.53060
X0.19900 Y0.52960
X0.20000 Y0.52960
X0.20000 Y0.52860
X0.20100 Y0.52860
X0.20100 Y0.52760
X0.20200 Y0.52760
X0.20200 Y0.52660
X0.20300 Y0.52660
X0.20300 Y0.52560
X0.20400 Y0.52560
X0.20400 Y0.52460
X0.20500 Y0.52460
X0.20500 Y0.52360
X0.20600 Y0.52360
X0.20600 Y0.52260
X0.20700 Y0.52260
X0.20700 Y0.52160
X0.20800 Y0.52160
X0.20800 Y0.52060
X0.20900 Y0.52060
X0.20900 Y0.51960
X0.21000 Y0.51960
X0.21000 Y0.51860
X0.21100 Y0.51860
X0.21100 Y0.51760
X0.21200 Y0.51760
X0.21200 Y0.51660
X0.21300 Y0.51660
X0.21300 Y0.51560
X0.21400 Y0.51560
X0.21400 Y0.51460
X0.21500 Y0.51460
X0.21500 Y0.51360
X0.21600 Y0.51360
X0.21600 Y0.51260
X0.21700 Y0.51260
X0.21700 Y0.51160
X0.21800 Y0.51160
X0.21800 Y0.51060
X0.21900 Y0.51060
X0.21900 Y0.50960
X0.22000 Y0.50960
X0.22000 Y0.50860
X0.22100 Y0.50860
X0.22100 Y0.50760
X0.22200 Y0.50760
X0.22200 Y0.50660
X0.22300 Y0.50660
X0.22300 Y0.50560
X0.22400 Y0.50560
X0.22400 Y0.50460
X0.22500 Y0.50460
X0.22500 Y0.50360
X0.22600 Y0.50360
X0.22600 Y0.50260
X0.22700 Y0.50260
X0.22700 Y0.50160
X0.22800 Y0.50160
X0.22800 Y0.50060
X0.22900 Y0.50060
X0.22900 Y0.49960
X0.23000 Y0.49960
X0.23000 Y0.49860
X0.23100 Y0.49860
X0.23100 Y0.49760
X0.23200 Y0.49760
X0.23200 Y0.49660
X0.23300 Y0.49660
X0.23300 Y0.49560
X0.23400 Y0.49560
X0.23400 Y0.49460
X0.23500 Y0.49460
X0.23500 Y0.49360
X0.23600 Y0.49360
X0.23600 Y0.49260
X0.23700 Y0.49260
X0.23700 Y0.49160
X0.23800 Y0.49160
X0.23800 Y0.49060
X0.23900 Y0.49060
X0.23900 Y0.48960
X0.24000 Y0.48960
X0.24000 Y0.48860
X0.24100 Y0.48860
X0.24100 Y0.48760
X0.24200 Y0.48760
X0.24200 Y0.48660
X0.24300 Y0.48660
X0.24300 Y0.48560
X0.24400 Y0.48560
X0.24400 Y0.48460
X0.24500 Y0.48460
X0.24500 Y0.48360
X0.24600 Y0.48360
X0.24600 Y0.48260
X0.24700 Y0.48260
X0.24700 Y0.48160
X0.24800 Y0.48160
X0.24800 Y0.48060
X0.24900 Y0.48060
X0.24900 Y0.47960
X0.25000 Y0.47960
X0.25000 Y0.47860
X0.25100 Y0.47860
X0.25100 Y0.47760
X0.25200 Y0.47760
X0.25200 Y0.47660
X0.25300 Y0.47660
X0.25300 Y0.47560
X0.25400 Y0.47560
X0.25400 Y0.47460
X0.25500 Y0.47460
X0.25500 Y0.47360
X0.25600 Y0.47360
X0.25600 Y0.47260
X0.25700 Y0.47260
X0.25700 Y0.47160
X0.25800 Y0.47160
X0.25800 Y0.47060
X0.25900 Y0.47060
X0.25900 Y0.46960
X0.26000 Y0.46960
X0.26000 Y0.46860
X0.26100 Y0.46860
X0.26100 Y0.46760
X0.26200 Y0.46760
X0.26200 Y0.46660
X0.26300 Y0.46660
X0.26300 Y0.46560
X0.26400 Y0.46560
X0.26400 Y0.46460
X0.26500 Y0.46460
X0.26500 Y0.46360
X0.26600 Y0.46360
X0.26600 Y0.46260
X0.26700 Y0.46260
X0.26700 Y0.46160
X0.26800 Y0.46160
X0.26800 Y0.46060
X0.26900 Y0.46060
X0.26900 Y0.45960
X0.27000 Y0.45960
X0.27000 Y0.45860
X0.27100 Y0.45860
X0.27100 Y0.45760
X0.27200 Y0.45760
X0.27200 Y0.45660
X0.27300 Y0.45660
X0.27300 Y0.45560
X0.27400 Y0.45560
X0.27400 Y0.45460
X0.27500 Y0.45460
X0.27500 Y0.45360
X0.27600 Y0.45360
X0.27600 Y0.45260
X0.27700 Y0.45260
X0.27700 Y0.45160
X0.27800 Y0.45160
X0.27800 Y0.45060
X0.27900 Y0.45060
X0.27900 Y0.44960
X0.28000 Y0.44960
X0.28000 Y0.44860
X0.28100 Y0.44860
X0.28100 Y0.44760
X0.28200 Y0.44760
X0.28200 Y0.44660
X0.28300 Y0.44660
X0.28300 Y0.44560
X0.28400 Y0.44560
X0.28400 Y0.44460
X0.28500 Y0.44460
X0.28500 Y0.44360
X0.28600 Y0.44360
X0.28600 Y0.44260
X0.28700 Y0.44260
X0.28700 Y0.44160
X0.28800 Y0.44160
X0.28800 Y0.44060
X0.28900 Y0.44060
X0.28900 Y0.43960
X0.29000 Y0.43960
X0.29000 Y0.43860
X0.29100 Y0.43860
X0.29100 Y0.43760
X0.29200 Y0.43760
X0.29200 Y0.43660
X0.29300 Y0.43660
X0.29300 Y0.43560
X0.29400 Y0.43560
X0.29400 Y0.43460
X0.29500 Y0.43460
X0.29500 Y0.43360
X0.29600 Y0.43360
X0.29600 Y0.43260
X0.29700 Y0.43260
X0.29700 Y0.43160
X0.29800 Y0.43160
X0.29800 Y0.43060
X0.29900 Y0.43060
X0.29900 Y0.42960
X0.30000 Y0.42960
X0.30000 Y0.42860
X0.30100 Y0.42860
X0.30100 Y0.42760
X0.30200 Y0.42760
X0.30200 Y0.42660
X0.30300 Y0.42660
X0.30300 Y0.42560
X0.30400 Y0.42560
X0.30400 Y0.42460
X0.30500 Y0.42460
X0.30500 Y0.42360
X0.30600 Y0.42360
X0.30600 Y0.42260
X0.30700 Y0.42260
X0.30700 Y0.42160
X0.30800 Y0.42160
X0.30800 Y0.42060
X0.30900 Y0.42060
X0.30900 Y0.41960
X0.31000 Y0.41960
X0.31000 Y0.41860
X0.31100 Y0.41860
X0.31100 Y0.41760
X0.31200 Y0.41760
X0.31200 Y0.41660
X0.31300 Y0.41660
X0.31300 Y0.41560
X0.31400 Y0.41560
X0.31400 Y0.41460
X0.31500 Y0.41460
X0.31500 Y0.41360
X0.31600 Y0.41360
X0.31600 Y0.41260
X0.31700 Y0.41260
X0.31700 Y0.41160
X0.31800 Y0.41160
X0.31800 Y0.41060
X0.31900 Y0.41060
X0.31900 Y0.40960
X0.32000 Y0.40960
X0.32000 Y0.40860
X0.32100 Y0.40860
X0.32100 Y0.40760
X0.32200 Y0.40760
X0.32200 Y0.40660
X0.32300 Y0.40660
X0.32300 Y0.40560
X0.32400 Y0.40560
X0.32400 Y0.40460
X0.32500 Y0.40460
X0.32500 Y0.40360
X0.32600 Y0.40360
X0.32600 Y0.40260
X0.32700 Y0.40260
X0.32700 Y0.40160
X0.32800 Y0.40160
X0.32800 Y0.40060
X0.32900 Y0.40060
X0.32900 Y0.39960
X0.33000 Y0.39960
X0.33000 Y0.39860
X0.33100 Y0.39860
X0.33100 Y0.39760
X0.33200 Y0.39760
X0.33200 Y0.39660
X0.33300 Y0.39660
X0.33300 Y0.39560
X0.33400 Y0.39560
X0.33400 Y0.39460
X0.33500 Y0.39460
X0.33500 Y0.39360
X0.33600 Y0.39360
X0.33600 Y0.39260
X0.33700 Y0.39260
X0.33700 Y0.39160
X0.33800 Y0.39160
X0.33800 Y0.39060
X0.33900 Y0.39060
X0.33900 Y0.38960
X0.34000 Y0.38960
X0.34000 Y0.38860
X0.34100 Y0.38860
X0.34100 Y0.38760
X0.34200 Y0.38760
X0.34200 Y0.38660
X0.34300 Y0.38660
X0.34300 Y0.38560
X0.34400 Y0.38560
X0.34400 Y0.38360
X0.34500 Y0.38360
X0.34500 Y0.38260
X0.34600 Y0.38260
X0.34600 Y0.38160
X0.34700 Y0.38160
X0.34700 Y0.38060
X0.34800 Y0.38060
X0.34800 Y0.35160
X0.34900 Y0.35160
X0.34900 Y0.35060
X0.35000 Y0.35060
X0.35000 Y0.34960
X0.35100 Y0.34960
X0.35100 Y0.34860
X0.35200 Y0.34860
X0.35200 Y0.34760
X0.35300 Y0.34760
X0.35300 Y0.34660
X0.35400 Y0.34660
X0.35400 Y0.34560
X0.35500 Y0.34560
X0.35500 Y0.34460
X0.35600 Y0.34460
X0.35600 Y0.34360
X0.35700 Y0.34360
X0.35700 Y0.34260
X0.35900 Y0.34260
X0.35900 Y0.34060
X0.36000 Y0.34060
X0.36000 Y0.33960
X0.36100 Y0.33960
X0.36100 Y0.33860
X0.36300 Y0.33860
X0.36300 Y0.33760
X0.36400 Y0.33760
X0.36400 Y0.33660
X0.36500 Y0.33660
X0.36500 Y0.33560
X0.39900 Y0.33560
X0.39900 Y0.33660
X0.40000 Y0.33660
X0.40000 Y0.33760
X0.40100 Y0.33760
X0.40100 Y0.33860
X0.40200 Y0.33860
X0.40200 Y0.33960
X0.40300 Y0.33960
X0.40300 Y0.34060
X0.40400 Y0.34060
X0.40400 Y0.34160
X0.40500 Y0.34160
X0.40500 Y0.34260
X0.40600 Y0.34260
X0.40600 Y0.34360
X0.40700 Y0.34360
X0.40700 Y0.34460
X0.40800 Y0.34460
X0.40800 Y0.34560
X0.40900 Y0.34560
X0.40900 Y0.34660
X0.41000 Y0.34660
X0.41000 Y0.34760
X0.41100 Y0.34760
X0.41100 Y0.34860
X0.41200 Y0.34860
X0.41200 Y0.34960
X0.41300 Y0.34960
X0.41300 Y0.35060
X0.41400 Y0.35060
X0.41400 Y0.35160
X0.41500 Y0.35160
X0.41500 Y0.38560
X0.41400 Y0.38560
X0.41400 Y0.38660
X0.41300 Y0.38660
X0.41300 Y0.38760
X0.41200 Y0.38760
X0.41200 Y0.38960
X0.41100 Y0.38960
X0.41100 Y0.39060
X0.41000 Y0.39060
X0.41000 Y0.39160
X0.40900 Y0.39160
X0.40900 Y0.39260
X0.40700 Y0.39260
X0.40700 Y0.39460
X0.40600 Y0.39460
X0.40600 Y0.39560
X0.40500 Y0.39560
X0.40500 Y0.39660
X0.40400 Y0.39660
X0.40400 Y0.39760
X0.40300 Y0.39760
X0.40300 Y0.39860
X0.40200 Y0.39860
X0.40200 Y0.39960
X0.40100 Y0.39960
X0.40100 Y0.40060
X0.40000 Y0.40060
X0.40000 Y0.40160
X0.39900 Y0.40160
X0.39900 Y0.40260
X0.37000 Y0.40260
X0.37000 Y0.40360
X0.36900 Y0.40360
X0.36900 Y0.40460
X0.36800 Y0.40460
X0.36800 Y0.40560
X0.36700 Y0.40560
X0.36700 Y0.40660
X0.36500 Y0.40660
X0.36500 Y0.40760
X0.36400 Y0.40760
X0.36400 Y0.40860
X0.36300 Y0.40860
X0.36300 Y0.40960
X0.36200 Y0.40960
X0.36200 Y0.41060
X0.36100 Y0.41060
X0.36100 Y0.41160
X0.36000 Y0.41160
X0.36000 Y0.41260
X0.35900 Y0.41260
X0.35900 Y0.41360
X0.35800 Y0.41360
X0.35800 Y0.41460
X0.35700 Y0.41460
X0.35700 Y0.41560
X0.35600 Y0.41560
X0.35600 Y0.41660
X0.35500 Y0.41660
X0.35500 Y0.41760
X0.35400 Y0.41760
X0.35400 Y0.41860
X0.35300 Y0.41860
X0.35300 Y0.41960
X0.35200 Y0.41960
X0.35200 Y0.42060
X0.35100 Y0.42060
X0.35100 Y0.42160
X0.35000 Y0.42160
X0.35000 Y0.42260
X0.34900 Y0.42260
X0.34900 Y0.42360
X0.34800 Y0.42360
X0.34800 Y0.42460
X0.34700 Y0.42460
X0.34700 Y0.42560
X0.34600 Y0.42560
X0.34600 Y0.42660
X0.34500 Y0.42660
X0.34500 Y0.42760
X0.34400 Y0.42760
X0.34400 Y0.42860
X0.34300 Y0.42860
X0.34300 Y0.42960
X0.34200 Y0.42960
X0.34200 Y0.43060
X0.34100 Y0.43060
X0.34100 Y0.43160
X0.34000 Y0.43160
X0.34000 Y0.43260
X0.33900 Y0.43260
X0.33900 Y0.43360
X0.33800 Y0.43360
X0.33800 Y0.43460
X0.33700 Y0.43460
X0.33700 Y0.43560
X0.33600 Y0.43560
X0.33600 Y0.43660
X0.33500 Y0.43660
X0.33500 Y0.43760
X0.33400 Y0.43760
X0.33400 Y0.43860
X0.33300 Y0.43860
X0.33300 Y0.43960
X0.33200 Y0.43960
X0.33200 Y0.44060
X0.33100 Y0.44060
X0.33100 Y0.44160
X0.33000 Y0.44160
X0.33000 Y0.44260
X0.32900 Y0.44260
X0.32900 Y0.44360
X0.32800 Y0.44360
X0.32800 Y0.44460
X0.32700 Y0.44460
X0.32700 Y0.44560
X0.32600 Y0.44560
X0.32600 Y0.44660
X0.32500 Y0.44660
X0.32500 Y0.44760
X0.32400 Y0.44760
X0.32400 Y0.44860
X0.32300 Y0.44860
X0.32300 Y0.44960
X0.32200 Y0.44960
X0.32200 Y0.45060
X0.32100 Y0.45060
X0.32100 Y0.45160
X0.32000 Y0.45160
X0.32000 Y0.45260
X0.31900 Y0.45260
X0.31900 Y0.45360
X0.31800 Y0.45360
X0.31800 Y0.45460
X0.31700 Y0.45460
X0.31700 Y0.45560
X0.31500 Y0.45560
X0.31500 Y0.45760
X0.31400 Y0.45760
X0.31400 Y0.45860
X0.31300 Y0.45860
X0.31300 Y0.45960
X0.31200 Y0.45960
X0.31200 Y0.46060
X0.31100 Y0.46060
X0.31100 Y0.46160
X0.31000 Y0.46160
X0.31000 Y0.46260
X0.30900 Y0.46260
X0.30900 Y0.46360
X0.30800 Y0.46360
X0.30800 Y0.46460
X0.30700 Y0.46460
X0.30700 Y0.46560
X0.30600 Y0.46560
X0.30600 Y0.46660
X0.30500 Y0.46660
X0.30500 Y0.46760
X0.30400 Y0.46760
X0.30400 Y0.46860
X0.30300 Y0.46860
X0.30300 Y0.46960
X0.30200 Y0.46960
X0.30200 Y0.47060
X0.30100 Y0.47060
X0.30100 Y0.47160
X0.30000 Y0.47160
X0.30000 Y0.47260
X0.29900 Y0.47260
X0.29900 Y0.47360
X0.29800 Y0.47360
X0.29800 Y0.47460
X0.29700 Y0.47460
X0.29700 Y0.47560
X0.29600 Y0.47560
X0.29600 Y0.47660
X0.29500 Y0.47660
X0.29500 Y0.47760
X0.29400 Y0.47760
X0.29400 Y0.47860
X0.29300 Y0.47860
X0.29300 Y0.47960
X0.29200 Y0.47960
X0.29200 Y0.48060
X0.29100 Y0.48060
X0.29100 Y0.48160
X0.29000 Y0.48160
X0.29000 Y0.48260
X0.28900 Y0.48260
X0.28900 Y0.48360
X0.28800 Y0.48360
X0.28800 Y0.48460
X0.28700 Y0.48460
X0.28700 Y0.48560
X0.28600 Y0.48560
X0.28600 Y0.48660
X0.28500 Y0.48660
X0.28500 Y0.48760
X0.28400 Y0.48760
X0.28400 Y0.48860
X0.28300 Y0.48860
X0.28300 Y0.48960
X0.28200 Y0.48960
X0.28200 Y0.49060
X0.28100 Y0.49060
X0.28100 Y0.49160
X0.28000 Y0.49160
X0.28000 Y0.49260
X0.27900 Y0.49260
X0.27900 Y0.49360
X0.27800 Y0.49360
X0.27800 Y0.49460
X0.27700 Y0.49460
X0.27700 Y0.49560
X0.27600 Y0.49560
X0.27600 Y0.49660
X0.27500 Y0.49660
X0.27500 Y0.49760
X0.27400 Y0.49760
X0.27400 Y0.49860
X0.27300 Y0.49860
X0.27300 Y0.49960
X0.27200 Y0.49960
X0.27200 Y0.50060
X0.27100 Y0.50060
X0.27100 Y0.50160
X0.27000 Y0.50160
X0.27000 Y0.50260
X0.26900 Y0.50260
X0.26900 Y0.50360
X0.26800 Y0.50360
X0.26800 Y0.50460
X0.26700 Y0.50460
X0.26700 Y0.50560
X0.26600 Y0.50560
X0.26600 Y0.50660
X0.26500 Y0.50660
X0.26500 Y0.50760
X0.26400 Y0.50760
X0.26400 Y0.50860
X0.26300 Y0.50860
X0.26300 Y0.50960
X0.26200 Y0.50960
X0.26200 Y0.51060
X0.26100 Y0.51060
X0.26100 Y0.51160
X0.26000 Y0.51160
X0.26000 Y0.51260
X0.25900 Y0.51260
X0.25900 Y0.51360
X0.25800 Y0.51360
X0.25800 Y0.51460
X0.25700 Y0.51460
X0.25700 Y0.51560
X0.25600 Y0.51560
X0.25600 Y0.51660
X0.25500 Y0.51660
X0.25500 Y0.51760
X0.25400 Y0.51760
X0.25400 Y0.51860
X0.25300 Y0.51860
X0.25300 Y0.51960
X0.25200 Y0.51960
X0.25200 Y0.52060
X0.25100 Y0.52060
X0.25100 Y0.52160
X0.25000 Y0.52160
X0.25000 Y0.52260
X0.24900 Y0.52260
X0.24900 Y0.52360
X0.24800 Y0.52360
X0.24800 Y0.52460
X0.24700 Y0.52460
X0.24700 Y0.52560
X0.24600 Y0.52560
X0.24600 Y0.52660
X0.24500 Y0.52660
X0.24500 Y0.52760
X0.24400 Y0.52760
X0.24400 Y0.52860
X0.24300 Y0.52860
X0.24300 Y0.52960
X0.24200 Y0.52960
X0.24200 Y0.53060
X0.24100 Y0.53060
X0.24100 Y0.53160
X0.24000 Y0.53160
X0.24000 Y0.53260
X0.23900 Y0.53260
X0.23900 Y0.53360
X0.23800 Y0.53360
X0.23800 Y0.53460
X0.23700 Y0.53460
X0.23700 Y0.53560
X0.23600 Y0.53560
X0.23600 Y0.53660
X0.23500 Y0.53660
X0.23500 Y0.53760
X0.23400 Y0.53760
X0.23400 Y0.53860
X0.23300 Y0.53860
X0.23300 Y0.53960
X0.23200 Y0.53960
X0.23200 Y0.54060
X0.23100 Y0.54060
X0.23100 Y0.54160
X0.23000 Y0.54160
X0.23000 Y0.54260
X0.22900 Y0.54260
X0.22900 Y0.54360
X0.22800 Y0.54360
X0.22800 Y0.54460
X0.22700 Y0.54460
X0.22700 Y0.54560
X0.22600 Y0.54560
X0.22600 Y0.54660
X0.22500 Y0.54660
X0.22500 Y0.54760
X0.22400 Y0.54760
X0.22400 Y0.54860
X0.22300 Y0.54860
X0.22300 Y0.54960
X0.22200 Y0.54960
X0.22200 Y0.55060
X0.22100 Y0.55060
X0.22100 Y0.55160
X0.22000 Y0.55160
X0.22000 Y0.55260
X0.21900 Y0.55260
X0.21900 Y0.55360
X0.21800 Y0.55360
X0.21800 Y0.55460
X0.21700 Y0.55460
X0.21700 Y0.55560
X0.21600 Y0.55560
X0.21600 Y0.55660
X0.21500 Y0.55660
X0.21500 Y0.55760
X0.21400 Y0.55760
X0.21400 Y0.55860
X0.21300 Y0.55860
X0.21300 Y0.55960
X0.21200 Y0.55960
X0.21200 Y0.56060
X0.21100 Y0.56060
X0.21100 Y0.56160
X0.21000 Y0.56160
X0.21000 Y0.56260
X0.20900 Y0.56260
X0.20900 Y0.56360
X0.20800 Y0.56360
X0.20800 Y0.56460
X0.20700 Y0.56460
X0.20700 Y0.56560
X0.20600 Y0.56560
X0.20600 Y0.56660
X0.20500 Y0.56660
X0.20500 Y0.56760
X0.20400 Y0.56760
X0.20400 Y0.56860
X0.20300 Y0.56860
X0.20300 Y0.56960
X0.20200 Y0.56960
X0.20200 Y0.57060
X0.20100 Y0.57060
X0.20100 Y0.57160
X0.20000 Y0.57160
X0.20000 Y0.57260
X0.19900 Y0.57260
X0.19900 Y0.57460
X0.19800 Y0.57460
X0.19800 Y0.57560
X0.19700 Y0.57560
X0.19700 Y0.57660
X0.19600 Y0.57660
X0.19600 Y0.57760
X0.19500 Y0.57760
X0.19500 Y1.21060
X0.19600 Y1.21060
X0.19600 Y1.21160
X0.19700 Y1.21160
X0.19700 Y1.21260
X0.19800 Y1.21260
X0.19800 Y1.21360
X0.19900 Y1.21360
X0.19900 Y1.21560
X0.20000 Y1.21560
X0.20000 Y1.21660
X0.20100 Y1.21660
X0.20100 Y1.21760
X0.20200 Y1.21760
X0.20200 Y1.21860
X0.20300 Y1.21860
X0.20300 Y1.21960
X0.20400 Y1.21960
X0.20400 Y1.22060
X0.20500 Y1.22060
X0.20500 Y1.22160
X0.20600 Y1.22160
X0.20600 Y1.22260
X0.20700 Y1.22260
X0.20700 Y1.22360
X0.20800 Y1.22360
X0.20800 Y1.22460
X0.20900 Y1.22460
X0.20900 Y1.22560
X0.21000 Y1.22560
X0.21000 Y1.22660
X0.21100 Y1.22660
X0.21100 Y1.22760
X0.21200 Y1.22760
X0.21200 Y1.22860
X0.21300 Y1.22860
X0.21300 Y1.22960
X0.21400 Y1.22960
X0.21400 Y1.23060
X0.21500 Y1.23060
X0.21500 Y1.23160
X0.21600 Y1.23160
X0.21600 Y1.23260
X0.21700 Y1.23260
X0.21700 Y1.23360
X0.21800 Y1.23360
X0.21800 Y1.23460
X0.21900 Y1.23460
X0.21900 Y1.23560
X0.22000 Y1.23560
X0.22000 Y1.23660
X0.22100 Y1.23660
X0.22100 Y1.23760
X0.22200 Y1.23760
X0.22200 Y1.23860
X0.22300 Y1.23860
X0.22300 Y1.23960
X0.22400 Y1.23960
X0.22400 Y1.24060
X0.22500 Y1.24060
X0.22500 Y1.24160
X0.22600 Y1.24160
X0.22600 Y1.24260
X0.22700 Y1.24260
X0.22700 Y1.24360
X0.22800 Y1.24360
X0.22800 Y1.24460
X0.22900 Y1.24460
X0.22900 Y1.24560
X0.23000 Y1.24560
X0.23000 Y1.24660
X0.23100 Y1.24660
X0.23100 Y1.24760
X0.23200 Y1.24760
X0.23200 Y1.24860
X0.23300 Y1.24860
X0.23300 Y1.24960
X0.23400 Y1.24960
X0.23400 Y1.25060
X0.23500 Y1.25060
X0.23500 Y1.25160
X0.23600 Y1.25160
X0.23600 Y1.25260
X0.23700 Y1.25260
X0.23700 Y1.25360
X0.23800 Y1.25360
X0.23800 Y1.25460
X0.23900 Y1.25460
X0.23900 Y1.25560
X0.24000 Y1.25560
X0.24000 Y1.25660
X0.24100 Y1.25660
X0.24100 Y1.25760
X0.24300 Y1.25760
X0.24300 Y1.25860
X0.24400 Y1.25860
X0.24400 Y1.25960
X0.24500 Y1.25960
X0.24500 Y1.26060
X0.24600 Y1.26060
X0.24600 Y1.26160
X0.24700 Y1.26160
X0.24700 Y1.26260
X0.24800 Y1.26260
X0.24800 Y1.26360
X0.24900 Y1.26360
X0.24900 Y1.26460
X0.25000 Y1.26460
X0.25000 Y1.26560
X0.25100 Y1.26560
X0.25100 Y1.26660
X0.25200 Y1.26660
X0.25200 Y1.26760
X0.25300 Y1.26760
X0.25300 Y1.26860
X0.25400 Y1.26860
X0.25400 Y1.26960
X0.25500 Y1.26960
X0.25500 Y1.27060
X0.25600 Y1.27060
X0.25600 Y1.27160
X0.25700 Y1.27160
X0.25700 Y1.27260
X0.25800 Y1.27260
X0.25800 Y1.27360
X0.25900 Y1.27360
X0.25900 Y1.27460
X0.26000 Y1.27460
X0.26000 Y1.27560
X0.26100 Y1.27560
X0.26100 Y1.27760
X0.26300 Y1.27760
X0.26300 Y1.27860
X0.26400 Y1.27860
X0.26400 Y1.27960
X0.26500 Y1.27960
X0.26500 Y1.28060
X0.26600 Y1.28060
X0.26600 Y1.28160
X0.26700 Y1.28160
X0.26700 Y1.28260
X0.26800 Y1.28260
X0.26800 Y1.28360
X0.26900 Y1.28360
X0.26900 Y1.28460
X0.27000 Y1.28460
X0.27000 Y1.28560
X0.27100 Y1.28560
X0.27100 Y1.28660
X0.27200 Y1.28660
X0.27200 Y1.28760
X0.27300 Y1.28760
X0.27300 Y1.28860
X0.27400 Y1.28860
X0.27400 Y1.28960
X0.27500 Y1.28960
X0.27500 Y1.29060
X0.27600 Y1.29060
X0.27600 Y1.29160
X0.27700 Y1.29160
X0.27700 Y1.29360
X0.27900 Y1.29360
X0.27900 Y1.29460
X0.28000 Y1.29460
X0.28000 Y1.29560
X0.28100 Y1.29560
X0.28100 Y1.29660
X0.28200 Y1.29660
X0.28200 Y1.29760
X0.28300 Y1.29760
X0.28300 Y1.29860
X0.28400 Y1.29860
X0.28400 Y1.29960
X0.28500 Y1.29960
X0.28500 Y1.30060
X0.28600 Y1.30060
X0.28600 Y1.30160
X0.28700 Y1.30160
X0.28700 Y1.30260
X0.28800 Y1.30260
X0.28800 Y1.30360
X0.28900 Y1.30360
X0.28900 Y1.30460
X0.29000 Y1.30460
X0.29000 Y1.30560
X0.29100 Y1.30560
X0.29100 Y1.30660
X0.29200 Y1.30660
X0.29200 Y1.30760
X0.29300 Y1.30760
X0.29300 Y1.30960
X0.29500 Y1.30960
X0.29500 Y1.31060
X0.29600 Y1.31060
X0.29600 Y1.31160
X0.29700 Y1.31160
X0.29700 Y1.31260
X0.29800 Y1.31260
X0.29800 Y1.31360
X0.29900 Y1.31360
X0.29900 Y1.31460
X0.30000 Y1.31460
X0.30000 Y1.31560
X0.30100 Y1.31560
X0.30100 Y1.31660
X0.30200 Y1.31660
X0.30200 Y1.31760
X0.30300 Y1.31760
X0.30300 Y1.31860
X0.30400 Y1.31860
X0.30400 Y1.31960
X0.30500 Y1.31960
X0.30500 Y1.32060
X0.30600 Y1.32060
X0.30600 Y1.32160
X0.30700 Y1.32160
X0.30700 Y1.32260
X0.30800 Y1.32260
X0.30800 Y1.32360
X0.30900 Y1.32360
X0.30900 Y1.32460
X0.31000 Y1.32460
X0.31000 Y1.32560
X0.31100 Y1.32560
X0.31100 Y1.32660
X0.31200 Y1.32660
X0.31200 Y1.32760
X0.31300 Y1.32760
X0.31300 Y1.32860
X0.31400 Y1.32860
X0.31400 Y1.32960
X0.31500 Y1.32960
X0.31500 Y1.33060
X0.31600 Y1.33060
X0.31600 Y1.33160
X0.31700 Y1.33160
X0.31700 Y1.33260
X0.31800 Y1.33260
X0.31800 Y1.33360
X0.31900 Y1.33360
X0.31900 Y1.33460
X0.32000 Y1.33460
X0.32000 Y1.33560
X0.32100 Y1.33560
X0.32100 Y1.33660
X0.32200 Y1.33660
X0.32200 Y1.33760
X0.32300 Y1.33760
X0.32300 Y1.33860
X0.32400 Y1.33860
X0.32400 Y1.33960
X0.32500 Y1.33960
X0.32500 Y1.34060
X0.32600 Y1.34060
X0.32600 Y1.34160
X0.32700 Y1.34160
X0.32700 Y1.34260
X0.32800 Y1.34260
X0.32800 Y1.34360
X0.32900 Y1.34360
X0.32900 Y1.34460
X0.33000 Y1.34460
X0.33000 Y1.34560
X0.33100 Y1.34560
X0.33100 Y1.34660
X0.33200 Y1.34660
X0.33200 Y1.34760
X0.33300 Y1.34760
X0.33300 Y1.34860
X0.33400 Y1.34860
X0.33400 Y1.34960
X0.33500 Y1.34960
X0.33500 Y1.35060
X0.33600 Y1.35060
X0.33600 Y1.35160
X0.33700 Y1.35160
X0.33700 Y1.35260
X0.33800 Y1.35260
X0.33800 Y1.35360
X0.33900 Y1.35360
X0.33900 Y1.35460
X0.34000 Y1.35460
X0.34000 Y1.35560
X0.34100 Y1.35560
X0.34100 Y1.35660
X0.34200 Y1.35660
X0.34200 Y1.35760
X0.34300 Y1.35760
X0.34300 Y1.35960
X0.34400 Y1.35960
X0.34400 Y1.36160
X0.34500 Y1.36160
X0.34500 Y1.46060
X0.34600 Y1.46060
X0.34600 Y1.46160
X0.34700 Y1.46160
X0.34700 Y1.46260
X0.34800 Y1.46260
X0.34800 Y1.46360
X0.34900 Y1.46360
X0.34900 Y1.46560
X0.35000 Y1.46560
X0.35000 Y1.46660
X0.35100 Y1.46660
X0.35100 Y1.46760
X0.35200 Y1.46760
X0.35200 Y1.46860
X0.35300 Y1.46860
X0.35300 Y1.46960
X0.35400 Y1.46960
X0.35400 Y1.47060
X0.35500 Y1.47060
X0.35500 Y1.47160
X0.35600 Y1.47160
X0.35600 Y1.47260
X0.35700 Y1.47260
X0.35700 Y1.47360
X0.35800 Y1.47360
X0.35800 Y1.47460
X0.35900 Y1.47460
X0.35900 Y1.47560
X0.36000 Y1.47560
X0.36000 Y1.47660
X0.36100 Y1.47660
X0.36100 Y1.47760
X0.36200 Y1.47760
X0.36200 Y1.47860
X0.36300 Y1.47860
X0.36300 Y1.47960
X0.36400 Y1.47960
X0.36400 Y1.48060
X0.36500 Y1.48060
X0.36500 Y1.48160
X0.36700 Y1.48160
X0.36700 Y1.48260
X0.36800 Y1.48260
X0.36800 Y1.48360
X0.36900 Y1.48360
X0.36900 Y1.48460
X0.37000 Y1.48460
X0.37000 Y1.48560
X0.39900 Y1.48560
X0.39900 Y1.48660
X0.40000 Y1.48660
X0.40000 Y1.48760
X0.40100 Y1.48760
X0.40100 Y1.48860
X0.40200 Y1.48860
X0.40200 Y1.48960
X0.40300 Y1.48960
X0.40300 Y1.49060
X0.40400 Y1.49060
X0.40400 Y1.49160
X0.40500 Y1.49160
X0.40500 Y1.49260
X0.40600 Y1.49260
X0.40600 Y1.49360
X0.40700 Y1.49360
X0.40700 Y1.49460
X0.40800 Y1.49460
X0.40800 Y1.49560
X0.40900 Y1.49560
X0.40900 Y1.49660
X0.41000 Y1.49660
X0.41000 Y1.49760
X0.41100 Y1.49760
X0.41100 Y1.49860
X0.41200 Y1.49860
X0.41200 Y1.49960
X0.41300 Y1.49960
X0.41300 Y1.50060
X0.41400 Y1.50060
X0.41400 Y1.50160
X0.41500 Y1.50160
X0.41500 Y1.53560
X0.41400 Y1.53560
X0.41400 Y1.53660
X0.41300 Y1.53660
X0.41300 Y1.53760
X0.41200 Y1.53760
X0.41200 Y1.53960
X0.41100 Y1.53960
X0.41100 Y1.54060
X0.41000 Y1.54060
X0.41000 Y1.54160
X0.40900 Y1.54160
X0.40900 Y1.54260
X0.40800 Y1.54260
X0.40800 Y1.54360
X0.40700 Y1.54360
X0.40700 Y1.54460
X0.40600 Y1.54460
X0.40600 Y1.54560
X0.40500 Y1.54560
X0.40500 Y1.54660
X0.40400 Y1.54660
X0.40400 Y1.54760
X0.40300 Y1.54760
X0.40300 Y1.54860
X0.40200 Y1.54860
X0.40200 Y1.54960
X0.40000 Y1.54960
X0.40000 Y1.55160
X0.39900 Y1.55160
X0.39900 Y1.55260
X0.36500 Y1.55260
X0.36500 Y1.55160
X0.36400 Y1.55160
X0.36400 Y1.54960
X0.36200 Y1.54960
X0.36200 Y1.54860
X0.36100 Y1.54860
X0.36100 Y1.54760
X0.36000 Y1.54760
X0.36000 Y1.54660
G04 P0 ( dwell for no time -- G64 should not smooth over this point )
G00 Z0.08000 ( retract )

G00 X0.66000 Y1.44660 ( rapid move to begin. )
G01 Z-0.00800 F6.00000 ( plunge. )
G04 P0 ( dwell for no time -- G64 should not smooth over this point )
X0.66000 Y1.44660
X0.65900 Y1.44660
X0.65900 Y1.44560
X0.65800 Y1.44560
X0.65800 Y1.44460
X0.65700 Y1.44460
X0.65700 Y1.44360
X0.65600 Y1.44360
X0.65600 Y1.44260
X0.65500 Y1.44260
X0.65500 Y1.44160
X0.65400 Y1.44160
X0.65400 Y1.44060
X0.65300 Y1.44060
X0.65300 Y1.43860
X0.65100 Y1.43860
X0.65100 Y1.43560
X0.65000 Y1.43560
X0.65000 Y1.43260
X0.64900 Y1.43260
X0.64900 Y1.42760
X0.64800 Y1.42760
X0.64800 Y1.41060
X0.64900 Y1.41060
X0.64900 Y1.40560
X0.65000 Y1.40560
X0.65000 Y1.40160
X0.65100 Y1.40160
X0.65100 Y1.39960
X0.65200 Y1.39960
X0.65200 Y1.39860
X0.65300 Y1.39860
X0.65300 Y1.39760
X0.65400 Y1.39760
X0.65400 Y1.39660
X0.65500 Y1.39660
X0.65500 Y1.39460
X0.65600 Y1.39460
X0.65600 Y1.39360
X0.65700 Y1.39360
X0.65700 Y1.39260
X0.65800 Y1.39260
X0.65800 Y1.39160
X0.65900 Y1.39160
X0.65900 Y1.39060
X0.66100 Y1.39060
X0.66100 Y1.38960
X0.66300 Y1.38960
X0.66300 Y1.38860
X0.66400 Y1.38860
X0.66400 Y1.38760
X0.66700 Y1.38760
X0.66700 Y1.38660
X0.67300 Y1.38660
X0.67300 Y1.38560
X0.69000 Y1.38560
X0.69000 Y1.38660
X0.69200 Y1.38660
X0.69200 Y1.38560
X0.69300 Y1.38560
X0.69300 Y1.38460
X0.69400 Y1.38460
X0.69400 Y1.38360
X0.69500 Y1.38360
X0.69500 Y1.38260
X0.69600 Y1.38260
X0.69600 Y1.38160
X0.69800 Y1.38160
X0.69800 Y1.38060
X0.69900 Y1.38060
X0.69900 Y1.37960
X0.70000 Y1.37960
X0.70000 Y1.37860
X0.70100 Y1.37860
X0.70100 Y1.37760
X0.70200 Y1.37760
X0.70200 Y1.37660
X0.70300 Y1.37660
X0.70300 Y1.37560
X0.70400 Y1.37560
X0.70400 Y1.37460
X0.70500 Y1.37460
X0.70500 Y1.37360
X0.70600 Y1.37360
X0.70600 Y1.37260
X0.70700 Y1.37260
X0.70700 Y1.37160
X0.70800 Y1.37160
X0.70800 Y1.37060
X0.70900 Y1.37060
X0.70900 Y1.36960
X0.71000 Y1.36960
X0.71000 Y1.36860
X0.71100 Y1.36860
X0.71100 Y1.36760
X0.71200 Y1.36760
X0.71200 Y1.36660
X0.71300 Y1.36660
X0.71300 Y1.36560
X0.71400 Y1.36560
X0.71400 Y1.36460
X0.71500 Y1.36460
X0.71500 Y1.36360
X0.71600 Y1.36360
X0.71600 Y1.36260
X0.71700 Y1.36260
X0.71700 Y1.36160
X0.71800 Y1.36160
X0.71800 Y1.36060
X0.71900 Y1.36060
X0.71900 Y1.35960
X0.72000 Y1.35960
X0.72000 Y1.35860
X0.72100 Y1.35860
X0.72100 Y1.35760
X0.72200 Y1.35760
X0.72200 Y1.35660
X0.72300 Y1.35660
X0.72300 Y1.35560
X0.72400 Y1.35560
X0.72400 Y1.35460
X0.72500 Y1.35460
X0.72500 Y1.35360
X0.72600 Y1.35360
X0.72600 Y1.35260
X0.72700 Y1.35260
X0.72700 Y1.35160
X0.72800 Y1.35160
X0.72800 Y1.35060
X0.72900 Y1.35060
X0.72900 Y1.34960
X0.73000 Y1.34960
X0.73000 Y1.34860
X0.73100 Y1.34860
X0.73100 Y1.34760
X0.73200 Y1.34760
X0.73200 Y1.34660
X0.73300 Y1.34660
X0.73300 Y1.34560
X0.73400 Y1.34560
X0.73400 Y1.34460
X0.73500 Y1.34460
X0.73500 Y1.34360
X0.73600 Y1.34360
X0.73600 Y1.34260
X0.73700 Y1.34260
X0.73700 Y1.34160
X0.73800 Y1.34160
X0.73800 Y1.34060
X0.73900 Y1.34060
X0.73900 Y1.33960
X0.74000 Y1.33960
X0.74000 Y1.33860
X0.74100 Y1.33860
X0.74100 Y1.33760
X0.74200 Y1.33760
X0.74200 Y1.33660
X0.74300 Y1.33660
X0.74300 Y1.33560
X0.74400 Y1.33560
X0.74400 Y1.33460
X0.74500 Y1.33460
X0.74500 Y1.33360
X0.74600 Y1.33360
X0.74600 Y1.33260
X0.74700 Y1.33260
X0.74700 Y1.33160
X0.74800 Y1.33160
X0.74800 Y1.33060
X0.74900 Y1.33060
X0.74900 Y1.32960
X0.75000 Y1.32960
X0.75000 Y1.32860
X0.75100 Y1.32860
X0.75100 Y1.32760
X0.75200 Y1.32760
X0.75200 Y1.32660
X0.75300 Y1.32660
X0.75300 Y1.32560
X0.75400 Y1.32560
X0.75400 Y1.32460
X0.75500 Y1.32460
X0.75500 Y1.32360
X0.75600 Y1.32360
X0.75600 Y1.32260
X0.75700 Y1.32260
X0.75700 Y1.32160
X0.75800 Y1.32160
X0.75800 Y1.32060
X0.75900 Y1.32060
X0.75900 Y1.31960
X0.76000 Y1.31960
X0.76000 Y1.31860
X0.76100 Y1.31860
X0.76100 Y1.31760
X0.76200 Y1.31760
X0.76200 Y1.31660
X0.76300 Y1.31660
X0.76300 Y1.31560
X0.76400 Y1.31560
X0.76400 Y1.31460
X0.76500 Y1.31460
X0.76500 Y1.31360
X0.76600 Y1.31360
X0.76600 Y1.31260
X0.76700 Y1.31260
X0.76700 Y1.31160
X0.76800 Y1.31160
X0.76800 Y1.31060
X0.76900 Y1.31060
X0.76900 Y1.30960
X0.77100 Y1.30960
X0.77100 Y1.30760
X0.77200 Y1.30760
X0.77200 Y1.30660
X0.77300 Y1.30660
X0.77300 Y1.30560
X0.77400 Y1.30560
X0.77400 Y1.30460
X0.77500 Y1.30460
X0.77500 Y1.30360
X0.77600 Y1.30360
X0.77600 Y1.30260
X0.77700 Y1.30260
X0.77700 Y1.30160
X0.77800 Y1.30160
X0.77800 Y1.30060
X0.77900 Y1.30060
X0.77900 Y1.29960
X0.78000 Y1.29960
X0.78000 Y1.29860
X0.78100 Y1.29860
X0.78100 Y1.29760
X0.78200 Y1.29760
X0.78200 Y1.29660
X0.78300 Y1.29660
X0.78300 Y1.29560
X0.78400 Y1.29560
X0.78400 Y1.29460
X0.78500 Y1.29460
X0.78500 Y1.29360
X0.78600 Y1.29360
X0.78600 Y1.29260
X0.78700 Y1.29260
X0.78700 Y1.29160
X0.78800 Y1.29160
X0.78800 Y1.29060
X0.78900 Y1.29060
X0.78900 Y1.28960
X0.79000 Y1.28960
X0.79000 Y1.28860
X0.79100 Y1.28860
X0.79100 Y1.28760
X0.79200 Y1.28760
X0.79200 Y1.28660
X0.79300 Y1.28660
X0.79300 Y1.28560
X0.79400 Y1.28560
X0.79400 Y1.28460
X0.79500 Y1.28460
X0.79500 Y1.28360
X0.79600 Y1.28360
X0.79600 Y1.28260
X0.79700 Y1.28260
X0.79700 Y1.28160
X0.79800 Y1.28160
X0.79800 Y1.28060
X0.79900 Y1.28060
X0.79900 Y1.27960
X0.80000 Y1.27960
X0.80000 Y1.27860
X0.80100 Y1.27860
X0.80100 Y1.27760
X0.80200 Y1.27760
X0.80200 Y1.27660
X0.80300 Y1.27660
X0.80300 Y1.27560
X0.80400 Y1.27560
X0.80400 Y1.27460
X0.80500 Y1.27460
X0.80500 Y1.27360
X0.80600 Y1.27360
X0.80600 Y1.27260
X0.80700 Y1.27260
X0.80700 Y1.27160
X0.80800 Y1.27160
X0.80800 Y1.27060
X0.80900 Y1.27060
X0.80900 Y1.26960
X0.81000 Y1.26960
X0.81000 Y1.26860
X0.81100 Y1.26860
X0.81100 Y1.26760
X0.81200 Y1.26760
X0.81200 Y1.26660
X0.81300 Y1.26660
X0.81300 Y1.26560
X0.81400 Y1.26560
X0.81400 Y1.26360
X0.81500 Y1.26360
X0.81500 Y1.26260
X0.81600 Y1.26260
X0.81600 Y1.26160
X0.81700 Y1.26160
X0.81700 Y1.26060
X0.81800 Y1.26060
X0.81800 Y0.32760
X0.81700 Y0.32760
X0.81700 Y0.32660
X0.81600 Y0.32660
X0.81600 Y0.32560
X0.81500 Y0.32560
X0.81500 Y0.32460
X0.81400 Y0.32460
X0.81400 Y0.32260
X0.81300 Y0.32260
X0.81300 Y0.32160
X0.81200 Y0.32160
X0.81200 Y0.32060
X0.81100 Y0.32060
X0.81100 Y0.31960
X0.81000 Y0.31960
X0.81000 Y0.31860
X0.80900 Y0.31860
X0.80900 Y0.31760
X0.80800 Y0.31760
X0.80800 Y0.31660
X0.80700 Y0.31660
X0.80700 Y0.31560
X0.80600 Y0.31560
X0.80600 Y0.31360
X0.80400 Y0.31360
X0.80400 Y0.31260
X0.80300 Y0.31260
X0.80300 Y0.31160
X0.80200 Y0.31160
X0.80200 Y0.31060
X0.80100 Y0.31060
X0.80100 Y0.30960
X0.80000 Y0.30960
X0.80000 Y0.30860
X0.79900 Y0.30860
X0.79900 Y0.30760
X0.79800 Y0.30760
X0.79800 Y0.30660
X0.79700 Y0.30660
X0.79700 Y0.30560
X0.79600 Y0.30560
X0.79600 Y0.30460
X0.79500 Y0.30460
X0.79500 Y0.30360
X0.79400 Y0.30360
X0.79400 Y0.30260
X0.79300 Y0.30260
X0.79300 Y0.30160
X0.79200 Y0.30160
X0.79200 Y0.30060
X0.79100 Y0.30060
X0.79100 Y0.29960
X0.79000 Y0.29960
X0.79000 Y0.29760
X0.78800 Y0.29760
X0.78800 Y0.29660
X0.78700 Y0.29660
X0.78700 Y0.29560
X0.78600 Y0.29560
X0.78600 Y0.29460
X0.78500 Y0.29460
X0.78500 Y0.29360
X0.78400 Y0.29360
X0.78400 Y0.29260
X0.78300 Y0.29260
X0.78300 Y0.29160
X0.78200 Y0.29160
X0.78200 Y0.29060
X0.78100 Y0.29060
X0.78100 Y0.28960
X0.78000 Y0.28960
X0.78000 Y0.28860
X0.77900 Y0.28860
X0.77900 Y0.28760
X0.77800 Y0.28760
X0.77800 Y0.28660
X0.77600 Y0.28660
X0.77600 Y0.28560
X0.77500 Y0.28560
X0.77500 Y0.28460
X0.77400 Y0.28460
X0.77400 Y0.28360
X0.77300 Y0.28360
X0.77300 Y0.28260
X0.71500 Y0.28260
X0.71500 Y0.28660
X0.71400 Y0.28660
X0.71400 Y0.28760
X0.71300 Y0.28760
X0.71300 Y0.28860
X0.71200 Y0.28860
X0.71200 Y0.28960
X0.71100 Y0.28960
X0.71100 Y0.29060
X0.71000 Y0.29060
X0.71000 Y0.29160
X0.70900 Y0.29160
X0.70900 Y0.29260
X0.70800 Y0.29260
X0.70800 Y0.29360
X0.70700 Y0.29360
X0.70700 Y0.29460
X0.70600 Y0.29460
X0.70600 Y0.29560
X0.70500 Y0.29560
X0.70500 Y0.29660
X0.70400 Y0.29660
X0.70400 Y0.29760
X0.70300 Y0.29760
X0.70300 Y0.29860
X0.70200 Y0.29860
X0.70200 Y0.29960
X0.70100 Y0.29960
X0.70100 Y0.30060
X0.70000 Y0.30060
X0.70000 Y0.30160
X0.69900 Y0.30160
X0.69900 Y0.30260
X0.66400 Y0.30260
X0.66400 Y0.30160
X0.66300 Y0.30160
X0.66300 Y0.30060
X0.66200 Y0.30060
X0.66200 Y0.29960
X0.66100 Y0.29960
X0.66100 Y0.29860
X0.66000 Y0.29860
X0.66000 Y0.29760
X0.65900 Y0.29760
X0.65900 Y0.29660
X0.65800 Y0.29660
X0.65800 Y0.29560
X0.65700 Y0.29560
X0.65700 Y0.29460
X0.65600 Y0.29460
X0.65600 Y0.29360
X0.65500 Y0.29360
X0.65500 Y0.29260
X0.65400 Y0.29260
X0.65400 Y0.29160
X0.65300 Y0.29160
X0.65300 Y0.29060
X0.65200 Y0.29060
X0.65200 Y0.28860
X0.65100 Y0.28860
X0.65100 Y0.28760
X0.65000 Y0.28760
X0.65000 Y0.28660
X0.64900 Y0.28660
X0.64900 Y0.28560
X0.64800 Y0.28560
X0.64800 Y0.25160
X0.64900 Y0.25160
X0.64900 Y0.25060
X0.65000 Y0.25060
X0.65000 Y0.24960
X0.65100 Y0.24960
X0.65100 Y0.24860
X0.65200 Y0.24860
X0.65200 Y0.24760
X0.65400 Y0.24760
X0.65400 Y0.24560
X0.65500 Y0.24560
X0.65500 Y0.24460
X0.65600 Y0.24460
X0.65600 Y0.24360
X0.65700 Y0.24360
X0.65700 Y0.24260
X0.65800 Y0.24260
X0.65800 Y0.24160
X0.65900 Y0.24160
X0.65900 Y0.24060
X0.66000 Y0.24060
X0.66000 Y0.23960
X0.66100 Y0.23960
X0.66100 Y0.23860
X0.66300 Y0.23860
X0.66300 Y0.23760
X0.66400 Y0.23760
X0.66400 Y0.23660
X0.66500 Y0.23660
X0.66500 Y0.23560
X0.69900 Y0.23560
X0.69900 Y0.23660
X0.70000 Y0.23660
X0.70000 Y0.23760
X0.70100 Y0.23760
X0.70100 Y0.23860
X0.70200 Y0.23860
X0.70200 Y0.23960
X0.70300 Y0.23960
X0.70300 Y0.24060
X0.70400 Y0.24060
X0.70400 Y0.24160
X0.70500 Y0.24160
X0.70500 Y0.24260
X0.70600 Y0.24260
